imanlab/proactive-slip-control/data_set/data_sample_2022-02-21-15-29-08/robot_state.csv
position_joint1,position_joint2,position_joint3,position_joint4,position_joint5,position_joint6,position_joint7,velocity_joint1,velocity_joint2,velocity_joint3,velocity_joint4,velocity_joint5,velocity_joint6,velocity_joint7,ee_T_00,ee_T_10,ee_T_20,ee_T_30,ee_T_01,ee_T_11,ee_T_21,ee_T_31,ee_T_02,ee_T_12,ee_T_22,ee_T_32,ee_T_03,ee_T_13,ee_T_23,ee_T_33,v_x,v_y,time
0.465072677219,0.54787544773,-0.123907948076,-1.35586066757,0.0794612296952,1.89409632499,0.159168064927,0.000425506212695,-6.18821335414e-05,0.000426459316716,-0.00141959804468,-0.000309294317549,0.000101258847194,-0.00095438008041,0.573748911009,0.819017443309,0.00183345921093,0.0,0.81897267548,-0.573690738633,-0.011976649137,0.0,-0.008757414594,0.00837330360731,-0.999926595044,0.0,0.661651307463,0.260925314035,0.303131331525,1.0,0.0,0.0,0.0
0.465072438801,0.54788282323,-0.123905659196,-1.35586290187,0.0794612282349,1.89409661162,0.159171622208,0.000338968112824,0.00176294358839,-0.00260218582624,-0.000604236213637,-0.00149776296111,-0.000168468915656,0.000655300813358,0.573750555657,0.819016308101,0.00182588306924,0.0,0.818971427475,-0.573692402289,-0.0119822968117,0.0,-0.00876637003282,0.00837035667271,-0.999926541245,0.0,0.661650191557,0.260926135618,0.303124992555,1.0,-0.00016,-0.000210285714286,0.009
0.465072242681,0.547879927718,-0.123910456658,-1.3558660084,0.079461941772,1.89409787312,0.159168473315,0.000760167727025,0.000854587671143,0.0018656316885,-0.000713137887793,3.96307102272e-05,8.35086042874e-05,0.000505422300552,0.573751851918,0.819015399447,0.00182614119453,0.0,0.818970538766,-0.57369371311,-0.0119802784367,0.0,-0.00876455555163,0.00836942391484,-0.999926564958,0.0,0.661650920928,0.260923100406,0.303125834913,1.0,-0.00046,-0.000604571428571,0.024
0.4650663052,0.547856064453,-0.123903960362,-1.35587802884,0.0794603993289,1.89409476089,0.159174775833,-0.000386873489161,-0.00244944260423,0.00167916720294,-0.004321720169,-0.000524324403926,-0.000344632217401,0.00190695460193,0.573757521663,0.819011406833,0.00183540562618,0.0,0.818966632204,-0.573699309093,-0.0119793565645,0.0,-0.00875842736005,0.00837654317237,-0.999926559041,0.0,0.661648322133,0.260921359226,0.303136530856,1.0,-0.0008,-0.00105142857143,0.041
0.465073635184,0.547790092319,-0.123908552221,-1.35593832642,0.0794593583074,1.89410999284,0.159169683661,0.000811128548097,-0.0110121825746,0.000610903515074,-0.00727465011334,0.000177365127033,0.00575905962259,0.00139331269774,0.57375356248,0.819014137365,0.00185451848884,0.0,0.818969602762,-0.573695259646,-0.0119702010373,0.0,-0.0087400036828,0.0083869012327,-0.99992663342,0.0,0.661638486955,0.260918132484,0.303156040998,1.0,-0.00114,-0.00149828571429,0.058
0.465071163755,0.547671685376,-0.123911128188,-1.35609837674,0.0794595427065,1.89413066474,0.159166826999,-0.00250269226225,-0.00615137772197,0.000701211470327,-0.0114042232702,0.000203346956893,0.00126023394741,-0.000377035104064,0.573763785021,0.819007004359,0.00184193126837,0.0,0.818962141609,-0.573705377846,-0.0119957051933,0.0,-0.00876800951263,0.00839133475117,-0.999926351043,0.0,0.661607723304,0.260898825041,0.303164257905,1.0,-0.00146,-0.00191885714286,0.074
0.465058738376,0.547526797364,-0.123905810669,-1.35630526708,0.0794550157978,1.89418722143,0.159159301585,0.000476172174846,-0.0111079451559,0.000701050369497,-0.0151847135588,-6.91393541462e-06,0.0150580828407,0.000265176101286,0.573774279959,0.818999644731,0.00184512562647,0.0,0.81895472997,-0.573715768019,-0.012004777682,0.0,-0.00877349990778,0.00839926874167,-0.999926236271,0.0,0.661580213404,0.260874302825,0.303174521584,1.0,-0.00178,-0.00233942857143,0.09
0.465030817104,0.547346447106,-0.123906230134,-1.35652120206,0.0794504241065,1.89432801806,0.159145854593,-0.00410216303379,-0.00875748379323,0.000391988784892,-0.0131934321094,-0.00184616186454,0.00719205095682,-0.000374678291876,0.573797659049,0.818983051593,0.00193767233114,0.0,0.818939355264,-0.573738760279,-0.0119546750023,0.0,-0.00867912559314,0.0084465632831,-0.999926661485,0.0,0.661571194362,0.260841166666,0.303211729037,1.0,-0.00214,-0.00281257142857,0.108
0.465013321785,0.547153536646,-0.123906151997,-1.35675158068,0.0794461897755,1.89444014658,0.159135930387,0.000428556088588,-0.0074346963955,-0.000306311622719,-0.0195057612399,-0.000212984464878,0.00794523063875,0.00155683737279,0.573815685869,0.818970255731,0.00200643447064,0.0,0.81892740753,-0.573756450717,-0.0119240663005,0.0,-0.00861441676124,0.00848550383425,-0.999926891352,0.0,0.661550608889,0.260811769984,0.303248446697,1.0,-0.00246,-0.00323314285714,0.124
0.464976132211,0.546919693551,-0.123908631646,-1.35709424151,0.0794379185627,1.89457746296,0.159100795154,-0.00562406061285,-0.0158021488053,-0.000262561623073,-0.02120517876,3.7201736616e-05,0.00884122331963,-0.00259356266106,0.573836131291,0.818955855626,0.00203663011524,0.0,0.818913315404,-0.573776684612,-0.0119182612382,0.0,-0.0085921243796,0.0085071162289,-0.999926899514,0.0,0.661516300007,0.260756120474,0.303262970779,1.0,-0.00282,-0.00370628571429,0.142
0.464943409236,0.546661300869,-0.123906128571,-1.35748726257,0.0794294993996,1.89472758443,0.158986270693,-0.000168935946362,-0.0163319408807,1.72207837045e-05,-0.0192279192798,-0.000624995673479,0.0150885196119,-0.00768785893137,0.573787166204,0.818990105862,0.0020594422077,0.0,0.818947709646,-0.57372747979,-0.0119237033563,0.0,-0.00858400175508,0.00852840763689,-0.999926787909,0.0,0.661471312458,0.260701498318,0.303271846401,1.0,-0.00316,-0.00415314285714,0.159
0.464901989581,0.546386387431,-0.12390931945,-1.3579131183,0.0794119122586,1.89487848882,0.158951124075,-0.000306016985113,-0.0192744610458,0.000214233397639,-0.0350569814037,0.000311213572538,0.0120537692795,0.000816122947768,0.573813632486,0.818971553933,0.00206298875834,0.0,0.818929136898,-0.573753861576,-0.0119298770384,0.0,-0.00858674749138,0.00853513200956,-0.999926706959,0.0,0.66142343917,0.260632713118,0.30327701699,1.0,-0.00348,-0.00457371428571,0.175
0.464853927429,0.546089678876,-0.123909303007,-1.35841738776,0.0793840342984,1.89505421823,0.158917281063,-0.00285561121001,-0.0198092823389,7.05622415608e-05,-0.0331430224002,-0.00198376073011,0.0117684289697,-0.000808224028601,0.573846023485,0.818948924786,0.00203637525367,0.0,0.818906119046,-0.573786317143,-0.0119489476442,0.0,-0.00861729947814,0.00852462037171,-0.9999265338,0.0,0.66136461933,0.260552384583,0.303262314108,1.0,-0.00382,-0.00502057142857,0.192
0.464791511079,0.545721918676,-0.123909320621,-1.35904099376,0.0792981580948,1.89526038656,0.158803212038,-0.00450341798071,-0.0222191993336,0.00213445389772,-0.0335365013061,-0.00302797055485,0.0158927195519,-0.00597722224534,0.573815635769,0.818970384914,0.00196765895486,0.0,0.818927078982,-0.573756608537,-0.0119390272209,0.0,-0.00864891890837,0.00846233262166,-0.999926789884,0.0,0.661293277503,0.260441986055,0.303243634319,1.0,-0.00418,-0.00549371428571,0.21
0.464736508218,0.545381090019,-0.123915019586,-1.35962867101,0.0792742079515,1.89545322625,0.15873819504,-0.00134973442507,-0.024842944666,-0.00107714934661,-0.0389161260586,-0.000313085822731,0.0160516562665,0.00141015103034,0.573837751595,0.81895498742,0.00192622031049,0.0,0.818911024542,-0.573778782333,-0.0119745450748,0.0,-0.00870155659875,0.0084490117397,-0.999926445852,0.0,0.661222656356,0.260346239315,0.303222107186,1.0,-0.00448,-0.005888,0.225
0.464673272566,0.544956457536,-0.123912525676,-1.36032793212,0.0792509885697,1.89568111618,0.158669244698,-0.00242318095988,-0.025097659073,-5.74651577366e-05,-0.0428349711019,-0.00196153834156,0.0148688013339,-0.00449135449638,0.573863986986,0.818936670713,0.00189755181882,0.0,0.818892097141,-0.573804907928,-0.0120169787905,0.0,-0.00875248856858,0.00845016424045,-0.999925991595,0.0,0.661135742044,0.260240153385,0.303209537967,1.0,-0.00482,-0.00633485714286,0.242
0.464598675266,0.544487159352,-0.123915294871,-1.36110170687,0.0792225096116,1.89596512802,0.158559278538,-0.00260065902166,-0.0294891167993,-0.000808558494414,-0.0457307827727,2.59312084173e-05,0.0207304779161,-0.00294923357109,0.573872554038,0.818930688005,0.00188861517243,0.0,0.818885830439,-0.5738133512,-0.0120408302168,0.0,-0.00877706175798,0.00845662500932,-0.999925721582,0.0,0.661048432625,0.260118216239,0.303198112943,1.0,-0.00518,-0.006808,0.26
0.464535543367,0.544054133132,-0.123912201309,-1.36180517104,0.0791862318983,1.89622310988,0.158462604372,-0.0027591881169,-0.0235521310168,0.00474495999584,-0.0415714401067,8.2296868737e-05,0.0165472502818,-0.0067622415799,0.573872465461,0.818930766379,0.00188153255263,0.0,0.818885731281,-0.573813211601,-0.0120542190886,0.0,-0.00879209191462,0.00845850744038,-0.999925573616,0.0,0.660967164486,0.260012101495,0.303191968342,1.0,-0.00548,-0.00720228571429,0.275
0.464453344373,0.543504236819,-0.12392130945,-1.36269525181,0.0791342210862,1.89652595192,0.158353272803,-0.00710990621833,-0.0286925546676,-0.00124998271646,-0.0484503810806,-2.13148410424e-05,0.0208363079396,-0.00158704448876,0.573892159035,0.818917040785,0.00184851602681,0.0,0.81887155849,-0.573833032244,-0.0120734709975,0.0,-0.00882660152388,0.00844273008629,-0.999925402925,0.0,0.660863488903,0.25986620197,0.303183917029,1.0,-0.00584,-0.00767542857143,0.293
0.464372879478,0.542945394112,-0.123919000037,-1.3635776484,0.0790817150715,1.89685208098,0.15826100894,-0.0054711043666,-0.0325224364305,-0.000999159961086,-0.0559907280561,-0.00605709139273,0.0239286867251,-0.00593654901759,0.573915959737,0.818900355521,0.00185088832072,0.0,0.818854878424,-0.573856794848,-0.0120753463521,0.0,-0.00882653051946,0.00844600553342,-0.99992537589,0.0,0.66076329124,0.259730607141,0.303187426246,1.0,-0.00618,-0.00812228571429,0.31
0.464303344121,0.542378035573,-0.12392209836,-1.36444753005,0.079033943093,1.89716317963,0.158126069771,-0.00410544165418,-0.0406405078438,-0.000382820426996,-0.0572933342272,-0.000151984383281,0.024482219746,-0.00955288194694,0.573900067747,0.818911470774,0.00186069232349,0.0,0.818866069192,-0.573840811306,-0.012076046805,0.0,-0.00882164190165,0.0084542646592,-0.999925349235,0.0,0.660661208847,0.259600453462,0.303201722748,1.0,-0.0065,-0.00854285714286,0.326
0.46422051481,0.54173382379,-0.123925301974,-1.36545492719,0.078975732171,1.89754248349,0.15798865277,-0.00223524754744,-0.0342573082095,-0.0004807957813,-0.0583484055904,-0.00165896677804,0.020926440302,-0.00212233389991,0.573898038219,0.818912861735,0.00187443727107,0.0,0.818867631206,-0.573838713444,-0.0120698143232,0.0,-0.0088086711102,0.00846192168798,-0.999925398815,0.0,0.660546950575,0.259449087141,0.303210749066,1.0,-0.00686,-0.009016,0.344
0.464136318913,0.541067406473,-0.123921074759,-1.36646430632,0.0789095727647,1.89792202962,0.157869994697,-0.00317072771859,-0.0435028311123,0.0017779920486,-0.0590136086615,-0.000859148137453,0.0250320125995,-0.00770783213157,0.573905146845,0.818907812892,0.00190349973522,0.0,0.81886299147,-0.57384572262,-0.0120513373925,0.0,-0.00877678814578,0.00847519321708,-0.999925566775,0.0,0.66043179105,0.259299926439,0.303234193396,1.0,-0.0072,-0.00946285714286,0.361
0.464055099157,0.540456648457,-0.123925715627,-1.36742103163,0.0788596965156,1.89826450915,0.157739531821,-0.00828867325837,-0.0401523676965,-0.000293878457808,-0.0606407858807,-0.00589942629617,0.0109709427424,-0.0082622442214,0.5739076598,0.818906050879,0.00190387965914,0.0,0.818861158457,-0.573848160259,-0.0120598108985,0.0,-0.00878348338675,0.0084803942275,-0.999925463889,0.0,0.660320103156,0.259153230173,0.303240368662,1.0,-0.0075,-0.00985714285714,0.376
0.463951208136,0.539667886582,-0.123928820982,-1.36863621925,0.0787901400602,1.89872854962,0.157606871624,-0.00815225232613,-0.044512914019,0.000235429166235,-0.0665634786523,-0.000600632040003,0.0278229121995,-0.0116939540932,0.573934983198,0.818886825619,0.00193617966572,0.0,0.818842348526,-0.573875333691,-0.012043942175,0.0,-0.00875166832064,0.00849802926791,-0.999925593132,0.0,0.660184051298,0.258969189589,0.303259696212,1.0,-0.00786,-0.0103302857143,0.394
0.463855014923,0.538909711745,-0.123934122598,-1.36979886432,0.0787223787545,1.89917415267,0.157447768392,-0.0087756116853,-0.0414933798084,-0.00131504372904,-0.066263423746,-0.00541109548928,0.0344038482816,-0.0152958356894,0.573933370179,0.818887873893,0.0019706563114,0.0,0.81884386307,-0.573873588255,-0.0120241223194,0.0,-0.00871566815653,0.00851486881063,-0.999925764313,0.0,0.660053829169,0.258793842868,0.303280756809,1.0,-0.0082,-0.0107771428571,0.411
0.46375469567,0.538178088553,-0.123934895485,-1.37095330742,0.0786585377117,1.89960630112,0.157308217746,-0.00467437574297,-0.0479255839669,0.000761742878233,-0.0738755782006,-0.00558909465519,0.0298734844779,-0.00692053093847,0.573948437768,0.818877289083,0.00198068394746,0.0,0.81883335435,-0.573888557453,-0.0120253203658,0.0,-0.00871073759683,0.00852392803026,-0.999925730093,0.0,0.659921692537,0.258618753802,0.303285537673,1.0,-0.00852,-0.0111977142857,0.427
0.463642572144,0.53738266868,-0.123937997744,-1.37221247984,0.0785831632872,1.90007814653,0.15714630746,-0.00707964822366,-0.0417245372447,1.65222017914e-05,-0.0767943724744,-0.0011266758732,0.0258953455834,-0.010967735958,0.573959087031,0.818869811664,0.00198616758075,0.0,0.818825951924,-0.573899185283,-0.012022166534,0.0,-0.00870489688527,0.00852672145377,-0.99992575714,0.0,0.659778866455,0.258423772993,0.30328890526,1.0,-0.00886,-0.0116445714286,0.444
0.463535911118,0.536580972734,-0.12394381585,-1.3734535924,0.0785160549792,1.90055522059,0.157003393762,-0.00554361279062,-0.0483105029724,-0.00202131069638,-0.0734350924363,-0.0031618657749,0.0303177588905,-0.00270420630501,0.573983904864,0.818852333258,0.0020199445435,0.0,0.818808887356,-0.573923829797,-0.0120079339958,0.0,-0.00867359745535,0.00854647393458,-0.999925860497,0.0,0.659639918709,0.25823474965,0.303305708416,1.0,-0.00918,-0.0120651428571,0.46
0.463421021717,0.535724379157,-0.123949117613,-1.37481799602,0.0784396741641,1.901045771,0.156839719641,-0.0102001540389,-0.0501430389709,-0.00357041334394,-0.0779853071157,-0.0063006428727,0.0298503884537,-0.00761466732114,0.573999066102,0.8188417432,0.00200464671223,0.0,0.818798022886,-0.573938980613,-0.0120246061273,0.0,-0.00869587197458,0.00854367794417,-0.999925690928,0.0,0.65946910275,0.258011966878,0.303301581819,1.0,-0.00954,-0.0125382857143,0.478
0.463298536653,0.534823624607,-0.123945226691,-1.37626180473,0.0783542532072,1.90156220258,0.156657345159,-0.0084770984252,-0.044608189311,-0.000527312931447,-0.082874754722,-0.00413823946875,0.0264015026569,-0.00776239523378,0.574006484574,0.818836589155,0.00198565584942,0.0,0.818792546578,-0.573946406568,-0.0120430460524,0.0,-0.00872179463474,0.00853879113589,-0.999925506898,0.0,0.659305393621,0.257809285995,0.303296584119,1.0,-0.00986,-0.0129588571429,0.494
0.463159860614,0.533867343234,-0.123950261767,-1.37783124134,0.0782679229174,1.90214080627,0.156460048438,-0.0102437277436,-0.0507036182643,-8.84387829576e-05,-0.0833572278278,-0.00448529283875,0.0238168207386,-0.00897966196689,0.574024853126,0.818823779326,0.00195788267806,0.0,0.8187792917,-0.573964812398,-0.0120670010196,0.0,-0.00875716021849,0.00852999650921,-0.99992527286,0.0,0.659122603225,0.257566496094,0.303274485644,1.0,-0.01022,-0.013432,0.512
0.463030935256,0.532988562892,-0.123950873768,-1.37924569366,0.0781900787982,1.90268667311,0.1562747348,-0.00764667330081,-0.0500384522051,-0.00100889227927,-0.0938216925815,-0.00198869180495,0.034228446377,-0.0141978981638,0.574035718952,0.818816136381,0.00196851987362,0.0,0.818771732041,-0.573975576422,-0.0120679485835,0.0,-0.00875171720169,0.00853936637714,-0.999925240539,0.0,0.658962938304,0.257349251267,0.303268317948,1.0,-0.01054,-0.0138525714286,0.528
0.46288909647,0.531952571913,-0.123949035898,-1.38090460659,0.0780833663434,1.9032910437,0.1560789037,-0.00479578103574,-0.0616945295632,-0.000380993909211,-0.0993704542847,-0.00829370840149,0.0329121265936,-0.00686429327063,0.574051967797,0.818804792488,0.00194858115734,0.0,0.818760139249,-0.573991921209,-0.0120770718581,0.0,-0.00877046333308,0.00852845164421,-0.999925169443,0.0,0.658766068377,0.257097317027,0.303261396518,1.0,-0.0109,-0.0143257142857,0.546
0.462764551726,0.531006659615,-0.123953816731,-1.38243049351,0.0780052434054,1.9038330155,0.155883628485,-0.00804891027307,-0.0564595683716,-0.000680117964842,-0.101290933339,-0.00417293891659,0.030139211892,-0.00880574688549,0.574059420766,0.818799628836,0.00192253732478,0.0,0.818754469124,-0.573999326346,-0.0121094815688,0.0,-0.00881187354053,0.00852581215021,-0.999924827881,0.0,0.658580441544,0.256867941097,0.303248926714,1.0,-0.01122,-0.0147462857143,0.562
0.462636426887,0.530025004659,-0.123952225656,-1.3839683732,0.0779064268368,1.90438683719,0.155678703518,-0.00991641462903,-0.0571532868223,0.00277160238696,-0.0947450353051,-0.000555376936371,0.0327528415303,-0.00849999304643,0.574052262057,0.81880465863,0.00191789818373,0.0,0.818759438824,-0.57399218956,-0.0121117530482,0.0,-0.00881647098663,0.00852324057424,-0.999924809278,0.0,0.658395527497,0.256636457077,0.303256493108,1.0,-0.01154,-0.0151668571429,0.578
0.462494732063,0.528896741602,-0.123958234591,-1.38572971903,0.0777886817569,1.90505486177,0.155429025481,-0.00490626653207,-0.0617256232334,0.000640805676268,-0.102708988122,-0.00238299744317,0.0360843000583,-0.0123353546696,0.574031966642,0.818818837075,0.0019391301333,0.0,0.818774026144,-0.573971930614,-0.0120856890618,0.0,-0.00878315269938,0.00852544538804,-0.999925083699,0.0,0.658190826611,0.256371725862,0.303270857033,1.0,-0.0119,-0.01564,0.596
0.462367135745,0.527862160777,-0.123955172891,-1.38733451379,0.0776929259966,1.90568142736,0.155199684537,-0.00976236319134,-0.0653199350283,0.000805317845019,-0.103027939666,0.000130536105989,0.037731568244,-0.0116821008986,0.574007760802,0.818835690727,0.00198721701459,0.0,0.818791505774,-0.573947516577,-0.0120608950106,0.0,-0.00873550121187,0.00855032837033,-0.999925288661,0.0,0.658004643004,0.256139651109,0.303289636293,1.0,-0.01222,-0.0160605714286,0.612
0.462231085586,0.526749500079,-0.123961208078,-1.38901818634,0.0775916486354,1.90631914325,0.154956253162,-0.00924018990758,-0.0711060846406,-0.00167199067584,-0.110134961612,-0.0047951401699,0.0476648837438,-0.00933097816478,0.573987770623,0.818849566014,0.00204311403569,0.0,0.818806137607,-0.573927315544,-0.0120288150483,0.0,-0.00867735809417,0.00857747218801,-0.999925562443,0.0,0.657808338321,0.255888286121,0.303326810387,1.0,-0.01254,-0.0164811428571,0.628
0.462073757447,0.525575912745,-0.123963632271,-1.39084782135,0.0774728033842,1.90698675467,0.154731206728,-0.00482602547579,-0.0699630700543,-0.000899098584011,-0.107025110333,-0.00541915106467,0.0406234685642,-0.0139963222827,0.574000463108,0.818840657098,0.00204781265536,0.0,0.818797336361,-0.573940032306,-0.012021155751,0.0,-0.00866825630341,0.00857705765067,-0.999925644943,0.0,0.657590402593,0.255607743034,0.303339568446,1.0,-0.01288,-0.016928,0.645
0.461907672685,0.524249047057,-0.123972203246,-1.39294305286,0.0773375631829,1.90772818645,0.154439193486,-0.00366760510908,-0.0692556912847,-0.00150856536106,-0.113161830988,-0.00546927490918,0.0346013707955,-0.0180078857028,0.573979289681,0.81885557042,0.00201908673689,0.0,0.818811905065,-0.57391901372,-0.0120323196345,0.0,-0.00869410707766,0.0085597193357,-0.999925569084,0.0,0.657332718204,0.255290769046,0.303339983441,1.0,-0.01326,-0.0174274285714,0.664
0.461758698485,0.523191960019,-0.12396725874,-1.39463799153,0.0772315760591,1.90836804518,0.154212361611,-0.0138806804698,-0.0720895283763,0.00112886906439,-0.116952993605,-0.00510395945043,0.0465449533296,-0.0203942734544,0.573974423837,0.818858982441,0.0020185534447,0.0,0.818815302498,-0.573914143257,-0.0120334311612,0.0,-0.00869537423798,0.00855986897095,-0.999925556784,0.0,0.657132127107,0.255034720527,0.303331705225,1.0,-0.01356,-0.0178217142857,0.679
0.461602724437,0.521947123133,-0.123970692029,-1.39659789823,0.0771185901063,1.90913672028,0.153939572067,-0.00693347712947,-0.0734439215142,0.00142569320598,-0.113620089409,-0.00650196968668,0.0540677305484,-0.0189718228911,0.573955893447,0.818871857079,0.00206420987335,0.0,0.81882876745,-0.573895415853,-0.0120103355738,0.0,-0.0086504517598,0.00858380257601,-0.999925741252,0.0,0.656903315966,0.254747819749,0.303340418271,1.0,-0.0139,-0.0182685714286,0.696
0.461429591057,0.520699162712,-0.123976435638,-1.3986080418,0.0769895588028,1.90988358597,0.153678293147,-0.0124939191024,-0.0768064094173,-0.000494985837606,-0.115924596301,-0.00662015980521,0.035873174969,-0.015532962311,0.573960232495,0.81886886581,0.00204426567371,0.0,0.818825573241,-0.573899895443,-0.0120140550575,0.0,-0.00866489860845,0.00856965183849,-0.999925737542,0.0,0.656663459064,0.254438397181,0.303325248391,1.0,-0.01424,-0.0187154285714,0.713
0.461272264769,0.519456733252,-0.123978646545,-1.40055236016,0.0768655995548,1.91057258982,0.153421078232,-0.00826194842469,-0.0799133070073,-5.26090935066e-05,-0.124131054751,-0.0131735475894,0.0401212871862,-0.0101487335955,0.573949729876,0.818876261609,0.00203043108503,0.0,0.818832774574,-0.573889439104,-0.0120227230382,0.0,-0.00868004665714,0.00856318702697,-0.999925661546,0.0,0.656421661676,0.254146125765,0.303332005621,1.0,-0.01456,-0.019136,0.729
0.461093548898,0.51811962117,-0.123985059799,-1.40266223295,0.076727365559,1.9113340877,0.153139237385,-0.00927379705312,-0.0773416044461,-0.000754174613442,-0.127669547102,-0.0110729434379,0.0468024926801,-0.00946687306485,0.573944267986,0.818880130637,0.00201390047486,0.0,0.818836483494,-0.573884103104,-0.0120248245136,0.0,-0.00869131173553,0.00855079891545,-0.999925669707,0.0,0.656164148397,0.25382161802,0.303332484539,1.0,-0.0149,-0.0195828571429,0.746
0.460902174518,0.516681647816,-0.123985281609,-1.4049209641,0.0765850579874,1.9121624521,0.152820223374,-0.0113703327371,-0.0772847123398,0.000167833599469,-0.128985145276,-0.0134596906281,0.0524617384181,-0.0118325996243,0.573920878253,0.818896514846,0.00201751794081,0.0,0.818852908226,-0.573860694306,-0.0120235236337,0.0,-0.00868841463241,0.00855276634403,-0.999925678058,0.0,0.655888605677,0.253479995057,0.303338057274,1.0,-0.01526,-0.020056,0.764
0.460736125885,0.51546688406,-0.123996463336,-1.40684954254,0.0764702881186,1.91289730956,0.152551161703,-0.00639169415091,-0.0807703834093,-0.00117644079299,-0.13199350356,-0.00692020417001,0.0402488429452,-0.0190521160888,0.5739154244,0.818900299981,0.00203254223889,0.0,0.818856914385,-0.573855201886,-0.0120128236998,0.0,-0.00867108693982,0.00855887086278,-0.999925776236,0.0,0.655660605586,0.253182954877,0.30333608791,1.0,-0.01556,-0.0204502857143,0.779
0.460537625809,0.513995483546,-0.123994923757,-1.40922767001,0.0763261760229,1.91372842176,0.152230922032,-0.00814439906471,-0.077295289461,0.000218660053346,-0.128274654668,-0.0118855940378,0.047032725859,-0.00983762433338,0.573900546142,0.818910881314,0.00196939228964,0.0,0.818866530479,-0.573840457926,-0.0120615509355,0.0,-0.00874738674761,0.00853496442509,-0.999925316015,0.0,0.655357935572,0.252824012661,0.303307640192,1.0,-0.01592,-0.0209234285714,0.797
0.460331231115,0.512498075836,-0.123996333606,-1.41163921772,0.0761798687202,1.91457278277,0.151877479941,-0.0110494349558,-0.0838246572516,0.00357557849659,-0.134057498458,-0.00636415175288,0.0522753098332,-0.0177763673489,0.573867783679,0.818933979048,0.00191094670029,0.0,0.81888873534,-0.573807829837,-0.0121062154118,0.0,-0.00881784475024,0.0085123836236,-0.999924889649,0.0,0.655052438853,0.252455176074,0.303282255755,1.0,-0.01628,-0.0213965714286,0.815
0.460149864181,0.511220328219,-0.123998807911,-1.4136725912,0.0760561347998,1.91535250466,0.15161275118,-0.0112178513372,-0.0880066937319,0.000135336662872,-0.137581263244,-0.00368459285771,0.0432755207664,-0.0128351701341,0.573874367476,0.818929323687,0.00192874588207,0.0,0.818884323169,-0.573814344583,-0.0120958720453,0.0,-0.00879909166909,0.00852109474277,-0.999924980651,0.0,0.654810190994,0.252143343794,0.303276977632,1.0,-0.01658,-0.0217908571429,0.83
0.459943197416,0.509637800218,-0.12400693039,-1.41616254074,0.0759038038619,1.91628633429,0.151257017131,-0.0134616034509,-0.0900209348659,-0.00124087857568,-0.14196095507,-0.0109065326267,0.0501822975719,-0.0204973789668,0.573846773994,0.818948613551,0.00194813776585,0.0,0.818903877526,-0.573786680333,-0.0120843595875,0.0,-0.00877882304785,0.00853007256579,-0.999925082258,0.0,0.654506159696,0.25176740105,0.303280832119,1.0,-0.01694,-0.022264,0.848
0.459740066282,0.50822417861,-0.124005194865,-1.41839180694,0.0757620418911,1.91707493013,0.150942379285,-0.0145057749876,-0.0889991155223,-0.00244264688556,-0.141379388542,-0.00633014036176,0.0571295326549,-0.021235367925,0.573831380321,0.818959457899,0.0019235845991,0.0,0.818914341658,-0.573771338845,-0.0121036626104,0.0,-0.00880888085748,0.00852087649155,-0.999924896321,0.0,0.654226268959,0.251420252418,0.3032771347,1.0,-0.01726,-0.0226845714286,0.864
0.459526749924,0.50669418734,-0.124014073864,-1.42080500094,0.0756112732846,1.91795793158,0.150613411833,-0.0136916749924,-0.0896308344554,-0.00114353734228,-0.144827698059,-0.00712104132216,0.0517635085814,-0.0284725151157,0.573821493794,0.818966378537,0.00192639214204,0.0,0.818921311887,-0.573761453673,-0.0121006660086,0.0,-0.00880491858514,0.0085213498875,-0.999924927184,0.0,0.653947255458,0.251069008766,0.303281641558,1.0,-0.01758,-0.0231051428571,0.88
0.459310783823,0.505075267664,-0.124020376551,-1.42326906042,0.0754584060715,1.91890954491,0.150270857466,-0.0125251341437,-0.0923353520268,0.000663941704524,-0.147702206488,-0.00715505005835,0.0661836027581,-0.0161207332274,0.573813932241,0.818971484619,0.00200635191016,0.0,0.818927530466,-0.573753611219,-0.0120515708058,0.0,-0.008718909047,0.008558580828,-0.999925362874,0.0,0.653634404264,0.25066886254,0.303316701529,1.0,-0.01794,-0.0235782857143,0.898
0.459084278948,0.503408887298,-0.12402216189,-1.42574707908,0.0753002972355,1.91984583058,0.149928180048,-0.0139143839235,-0.096559266965,0.00208364583819,-0.144947001321,-0.00444820210204,0.0497682748389,-0.0187594810354,0.573804623058,0.818977747966,0.00210945384524,0.0,0.818935206564,-0.57374393273,-0.0119905799433,0.0,-0.00860989758091,0.00860792195428,-0.999925883925,0.0,0.653335677323,0.250285752847,0.303382421612,1.0,-0.01828,-0.0240251428571,0.915
0.458863496281,0.50181059646,-0.124033191658,-1.42811078178,0.0751358527163,1.92071275952,0.149589977996,-0.0145089583799,-0.0940611367322,-8.71144786067e-06,-0.147746611176,-0.0125393051168,0.0482067685951,-0.0253108232191,0.573792503263,0.818986041502,0.00218493138212,0.0,0.818944672399,-0.573731693225,-0.0119295699681,0.0,-0.00851675087739,0.00863460197263,-0.999926451597,0.0,0.653048733648,0.249908078864,0.303448621552,1.0,-0.0186,-0.0244457142857,0.931
0.458614483736,0.499993731069,-0.124037074043,-1.43087506192,0.0749685834193,1.92167892113,0.149196867947,-0.0143103630463,-0.097606638384,-0.000308635959126,-0.151279877965,-0.00454550422413,0.0575883161499,-0.0235772008506,0.57377270762,0.818999856517,0.00220497538433,0.0,0.818958616375,-0.573711684448,-0.0119346007456,0.0,-0.0085095799921,0.00865369838456,-0.999926347564,0.0,0.652695322845,0.249477930764,0.303484529885,1.0,-0.01896,-0.0249188571429,0.949
0.458376405129,0.49843175608,-0.124042859521,-1.43334797095,0.0748119325013,1.9226102325,0.148849206139,-0.0126731954066,-0.0883875942847,-0.000693096469425,-0.154510051398,-0.0190499073048,0.0603637583919,-0.0173796913999,0.573770592804,0.819001306142,0.00221681584142,0.0,0.818960261227,-0.573709563652,-0.0119236742511,0.0,-0.00849385986973,0.00865710440013,-0.999926451739,0.0,0.652394480919,0.249084375417,0.303477818828,1.0,-0.01928,-0.0253394285714,0.965
0.458134542234,0.496850691692,-0.12403727843,-1.4358561081,0.0746612965112,1.92350612018,0.148474742715,-0.0105227358656,-0.0936904492561,0.00155245798383,-0.159004889201,-0.0128267570716,0.0542824453355,-0.0226564655434,0.573744226316,0.81901983743,0.00219443999272,0.0,0.81897833684,-0.573683124583,-0.0119542150327,0.0,-0.00853199032818,0.00865602732602,-0.999926136438,0.0,0.652075507452,0.248689828612,0.303463675701,1.0,-0.0196,-0.02576,0.981
0.45786600778,0.49517512977,-0.124040846437,-1.43857327846,0.0744895364087,1.9244497462,0.148089929296,-0.0148024640733,-0.101143756031,-0.00165755440395,-0.156804611708,-0.0102688923301,0.0573941565985,-0.020187769992,0.573741894131,0.819021696192,0.00210878806663,0.0,0.818978968164,-0.573681036685,-0.0120110263653,0.0,-0.00862768557221,0.00861844802402,-0.999925639933,0.0,0.651726555924,0.248249039916,0.303419778644,1.0,-0.01994,-0.0262068571429,0.998
0.457579390285,0.493261954898,-0.124078456619,-1.44163041757,0.0743007068723,1.92555464786,0.147664362935,-0.013262503653,-0.11630598356,-0.00779154303974,-0.185363930031,-0.0104333471333,0.0683471537666,-0.0216347777554,0.573757709898,0.819010724443,0.00206651399232,0.0,0.818967508674,-0.57369709257,-0.0120254985353,0.0,-0.00866362599967,0.00859229574424,-0.999925554248,0.0,0.651345245058,0.247747602324,0.303393840564,1.0,-0.0241285714286,-0.0317118367347,1.016
0.457309503843,0.491334432464,-0.124096577769,-1.4446478311,0.0741115599343,1.92668547652,0.147221657793,-0.0213299613426,-0.13314517983,0.00237878751147,-0.215111617139,-0.0116841103355,0.084147520612,-0.0288528643371,0.573729173917,0.819030642866,0.00209474205602,0.0,0.818987861998,-0.573668507232,-0.0120030250554,0.0,-0.00862932392038,0.00860221958682,-0.999925765538,0.0,0.650969059477,0.247275172676,0.30339750506,1.0,-0.0282771428571,-0.037164244898,1.031
0.456893041493,0.488660988048,-0.124111092665,-1.44898556323,0.0738722279836,1.92823941482,0.146599321439,-0.0276035991835,-0.158616605636,-0.00130757786649,-0.25137823878,-0.014147621849,0.0902142314297,-0.0274949827055,0.573722714715,0.819035372338,0.00201305249478,0.0,0.818991130988,-0.573662008433,-0.0120902582301,0.0,-0.00874770583436,0.0085852932063,-0.99992488237,0.0,0.650411272577,0.246583695291,0.303327235387,1.0,-0.0332554285714,-0.0437071346939,1.049
0.456420724813,0.485614938226,-0.124151421983,-1.45364310307,0.0735804809414,1.93002106918,0.145905115517,-0.0291910917653,-0.187076078418,-0.00245551091382,-0.281586352456,-0.0166865001389,0.109678357238,-0.0444999710917,0.573721862112,0.819035632807,0.0021456997783,0.0,0.818993349822,-0.573660816131,-0.0119961612063,0.0,-0.00859454507052,0.00863994014025,-0.999925739857,0.0,0.649849588562,0.245814998648,0.30338189085,1.0,-0.0379571428571,-0.0498865306122,1.066
0.455908932204,0.482429308163,-0.124205408486,-1.45860315838,0.0732818355999,1.93174985943,0.145132031171,-0.033987936701,-0.206171191141,-0.00504699194853,-0.324237158644,-0.0163102216289,0.117477458058,-0.0547870998623,0.573709305528,0.819044532279,0.00210565781242,0.0,0.819001611014,-0.573648313266,-0.0120299935221,0.0,-0.00864535981519,0.00862642245506,-0.999925418513,0.0,0.649215841161,0.244974768585,0.303383184831,1.0,-0.0423822857143,-0.0557024326531,1.082
0.455303711875,0.478646738579,-0.124278542332,-1.46451808526,0.0729248095652,1.93384608866,0.144257352624,-0.0412439694312,-0.23059621907,-0.00055639939815,-0.355208339853,-0.0298952177035,0.128953306876,-0.0547760423908,0.573733034286,0.819028004076,0.00206901169473,0.0,0.818984554027,-0.573672144812,-0.0120547680331,0.0,-0.00868642546582,0.00861087304733,-0.999925196641,0.0,0.648461625573,0.243973564703,0.303373647429,1.0,-0.047084,-0.0618818285714,1.099
0.454571838148,0.474186139736,-0.124327509423,-1.47133278326,0.0725209987386,1.93635527936,0.143286668833,-0.0475626112004,-0.252757275771,-0.00277770057489,-0.398927419647,-0.0219587641134,0.135306168283,-0.0529346499224,0.573793128931,0.818985551059,0.00220437040093,0.0,0.818943757847,-0.573731551782,-0.0119989530683,0.0,-0.00856241719299,0.00869033952073,-0.999925578736,0.0,0.647606764303,0.242828008307,0.303436298519,1.0,-0.0520622857143,-0.0684247183673,1.117
0.453903488901,0.470178014365,-0.124354496961,-1.4774897838,0.0721454947912,1.93853511805,0.142352074755,-0.046448716469,-0.276287296921,-0.000731640005036,-0.419895098271,-0.0246253389118,0.1482952417,-0.0674426778454,0.573786979331,0.818989771559,0.00223681305785,0.0,0.818948153864,-0.573725016481,-0.0120113966296,0.0,-0.00855406006547,0.00872398487765,-0.999925357286,0.0,0.646807679573,0.241791919235,0.303465668291,1.0,-0.0562108571429,-0.0738771265306,1.132
0.453035669487,0.464932351513,-0.1243876304,-1.48540244166,0.0716292359033,1.94146829692,0.141086095588,-0.0514018548019,-0.303031326054,5.8553817281e-05,-0.465098011254,-0.0283723846458,0.160142421887,-0.0709982700627,0.573718642868,0.819037034444,0.00244988482114,0.0,0.818998394577,-0.573656042939,-0.0118794352426,0.0,-0.00832446645159,0.00882207505311,-0.999926434419,0.0,0.645803331872,0.24046148249,0.303574117081,1.0,-0.0611891428571,-0.0804200163265,1.15
0.452111705132,0.459618572249,-0.124417596412,-1.49361581655,0.0710924420595,1.94426602246,0.139872187297,-0.0548799254089,-0.326202194359,-0.00322803468824,-0.48817205922,-0.030343985187,0.168052945432,-0.0678430783413,0.573738922531,0.819023094962,0.00235915076539,0.0,0.818983000258,-0.573676391656,-0.0119578362059,0.0,-0.00844051742609,0.00879294972402,-0.999925718091,0.0,0.644700614526,0.239052222644,0.303568378982,1.0,-0.0658908571429,-0.0865994122449,1.167
0.451192554797,0.454346507396,-0.124465429556,-1.50179294441,0.070535868237,1.94712915238,0.138597729614,-0.0551158750099,-0.334727940669,-0.00246302684681,-0.519146030232,-0.0368334328453,0.184670619935,-0.0823006507278,0.573706573016,0.819045921408,0.00230078354333,0.0,0.819005151007,-0.57364437086,-0.0119768654302,0.0,-0.0084899347112,0.00875572856967,-0.999925626347,0.0,0.643610842477,0.237642362312,0.303550832724,1.0,-0.070316,-0.0924153142857,1.183
0.450131183266,0.448272392558,-0.124503702511,-1.51074753713,0.0699369942479,1.95054396767,0.137170163797,-0.0618998115907,-0.35619101212,-0.00799976775237,-0.537993167366,-0.0307669781609,0.199785282525,-0.085517359339,0.573678190055,0.819064474033,0.0027328617691,0.0,0.819029825559,-0.573614889963,-0.0116982801237,0.0,-0.00801418975164,0.00894951577206,-0.999927836861,0.0,0.642477256481,0.236097201876,0.303752874731,1.0,-0.0750177142857,-0.0985947102041,1.2
0.448985784266,0.441999200946,-0.124537185028,-1.52047091048,0.0692895330149,1.95384624379,0.135680516621,-0.0733596130748,-0.382596314779,-0.00430811670346,-0.589686283138,-0.0383955752016,0.195677543972,-0.0930906621416,0.573677260221,0.819065554505,0.00260104391348,0.0,0.819028857357,-0.573614066051,-0.0118059707688,0.0,-0.00817802607139,0.00890331840577,-0.999926922735,0.0,0.64113648622,0.234402125133,0.303707659369,1.0,-0.0797194285714,-0.104774106122,1.217
0.447838763365,0.435751740753,-0.124552539226,-1.53012537817,0.0686315349574,1.95710008069,0.134124496687,-0.0740071047219,-0.405719072079,0.00122492626352,-0.608836002957,-0.0353854048713,0.207140192354,-0.101652458396,0.573596007081,0.819122880511,0.00246458635679,0.0,0.819084043087,-0.573532953151,-0.0119175883561,0.0,-0.00834860854807,0.00885475493423,-0.999925944283,0.0,0.639783138698,0.232722978483,0.303663497984,1.0,-0.0841445714286,-0.110590008163,1.233
0.446495031394,0.428762153125,-0.124578703798,-1.54064149775,0.0678815176987,1.9609104476,0.132419507905,-0.0834956802832,-0.411991822659,-0.000516351096326,-0.637875797994,-0.048296508168,0.223887467885,-0.0985339381027,0.573566143797,0.81914314874,0.00266973112345,0.0,0.819107407768,-0.573502781124,-0.0117627158096,0.0,-0.0081044058768,0.00893366408818,-0.999927251479,0.0,0.638374043722,0.230845967913,0.303752798653,1.0,-0.0888462857143,-0.116769404082,1.25
0.444960526398,0.421079502272,-0.124690273862,-1.55248050619,0.0670272129851,1.96484638858,0.130445509788,-0.0886340866364,-0.433631154438,-0.0108385769134,-0.666432343311,-0.0513210688357,0.219103678088,-0.109012400914,0.573551570315,0.819154074502,0.00243830224368,0.0,0.819115460768,-0.573489223889,-0.0118625004152,0.0,-0.00831903565475,0.00880117625672,-0.999926663782,0.0,0.63671072699,0.228649554782,0.303685336683,1.0,-0.0938245714286,-0.123312293878,1.268
0.443606749442,0.414304004835,-0.124790942974,-1.56256329629,0.0663166113436,1.96846854039,0.128841766367,-0.0937667565302,-0.456714201848,-0.00528869235551,-0.676179194977,-0.0476744547554,0.248188847934,-0.106587764124,0.573643510664,0.819088978431,0.00266739332794,0.0,0.81905386112,-0.573580868357,-0.0116836185001,0.0,-0.00804011215742,0.00888714184306,-0.999928185074,0.0,0.635345629433,0.226772744848,0.303796341219,1.0,-0.0979731428571,-0.128764702041,1.283
0.441834317546,0.405954755381,-0.124830045481,-1.57530177511,0.0654621130487,1.9727320623,0.126685353324,-0.0993408142625,-0.47361659602,-0.00470647636001,-0.72512941104,-0.0506814276584,0.241079139782,-0.117213699047,0.573639197158,0.819092305357,0.00257170937913,0.0,0.819055231931,-0.573576122971,-0.0118196913979,0.0,-0.00820650518127,0.00888678140421,-0.999926836518,0.0,0.633519169967,0.224405328318,0.303749963216,1.0,-0.102951428571,-0.135307591837,1.301
0.440043485878,0.397693265568,-0.124949690166,-1.58759922538,0.0645974672501,1.97699938705,0.124597922426,-0.106334260039,-0.50248667294,-0.00709034994649,-0.723581663512,-0.0516019231778,0.265828198965,-0.13401889768,0.573733203911,0.819025919207,0.00273884976363,0.0,0.818991257675,-0.573669774248,-0.0117071289037,0.0,-0.00801740104581,0.00896003509544,-0.999927716913,0.0,0.631800579117,0.222033962253,0.303838435708,1.0,-0.107653142857,-0.141486987755,1.318
0.438276985135,0.389735752951,-0.124994597082,-1.59959235179,0.0636837464967,1.981076694,0.122565043013,-0.112328058138,-0.51003361043,-0.0022472355232,-0.780356772229,-0.051686646817,0.244964346314,-0.126857887273,0.573754641239,0.819010944935,0.00272591884894,0.0,0.818976412594,-0.573691585922,-0.0116767614999,0.0,-0.00799971278155,0.00893223131828,-0.999928107335,0.0,0.630070650134,0.219741472152,0.303832984702,1.0,-0.112078285714,-0.147302889796,1.334
0.436182029171,0.380384886057,-0.125057526619,-1.61357304676,0.0626363943513,1.98567489823,0.120049729827,-0.122002833332,-0.538228289404,-0.00100600580621,-0.791224624945,-0.0566694033079,0.264890686693,-0.140454532008,0.573687795994,0.819057963884,0.00266672591826,0.0,0.819022590605,-0.573624877197,-0.0117150860584,0.0,-0.00806578949778,0.00890508212116,-0.999927818671,0.0,0.628000536865,0.217044232826,0.303842998882,1.0,-0.117056571429,-0.153845779592,1.352
0.434196613667,0.371881335508,-0.125102151492,-1.62633531539,0.0616932540728,1.98994877135,0.117780450361,-0.132264231685,-0.539176216582,-0.00143955764861,-0.782738220063,-0.0562795731536,0.261495613196,-0.138415304389,0.573690026272,0.819056431636,0.00265752771255,0.0,0.81902078552,-0.573626970982,-0.0117387371303,0.0,-0.00809041433935,0.00891113841438,-0.999927565781,0.0,0.626106574054,0.214559571605,0.303818121144,1.0,-0.121481714286,-0.159661681633,1.368
0.432083124847,0.363057143201,-0.12523011031,-1.6393574301,0.0606706513845,1.99421976652,0.115484750359,-0.133870138766,-0.563793812258,-0.00585369212811,-0.790465816339,-0.0575587447019,0.280635048847,-0.15531464272,0.573808410253,0.81897349245,0.00265967815539,0.0,0.818938333843,-0.573745839088,-0.0116817974815,0.0,-0.00804125802569,0.00888139703331,-0.999928226902,0.0,0.624166817225,0.211918072985,0.303864909161,1.0,-0.125906857143,-0.165477583673,1.384
0.429589241973,0.352896347242,-0.125318965307,-1.65454202404,0.0595380799821,1.99909679041,0.112663668859,-0.139940789136,-0.577730531849,-0.00372221593831,-0.874896034972,-0.0633873985593,0.268827684366,-0.157808280016,0.573809242891,0.818973347226,0.00252115215764,0.0,0.818935885214,-0.573746626687,-0.0118140245116,0.0,-0.00822902708689,0.00884382870555,-0.999927032241,0.0,0.621831858568,0.208870215746,0.303800172645,1.0,-0.130885142857,-0.172020473469,1.402
0.427073743836,0.342935112439,-0.125419435403,-1.66902538714,0.0584398022857,2.00383969735,0.109941536683,-0.154042942633,-0.594973940561,-0.00557879268877,-0.846005873164,-0.0654418539782,0.279846938191,-0.159802270114,0.573885006833,0.818919736668,0.00268528026505,0.0,0.818884364086,-0.573821730807,-0.011737393682,0.0,-0.00807126657076,0.00893502030248,-0.999927507406,0.0,0.619622491698,0.20588910652,0.30389741168,1.0,-0.135586857143,-0.178199869388,1.419
0.424641778582,0.333483452785,-0.125442661746,-1.68309032258,0.0573117112331,2.00831911596,0.107243247051,-0.156549120692,-0.590509317318,0.00191435526912,-0.895591097122,-0.0637212211384,0.273014632443,-0.176729746313,0.573809263304,0.818973281076,0.00253793840922,0.0,0.818935758374,-0.573746283633,-0.0118394499507,0.0,-0.00824021909163,0.00887216538668,-0.999926689048,0.0,0.61739345762,0.203039931992,0.303811262654,1.0,-0.140012,-0.184015771429,1.435
0.421952211345,0.32299918624,-0.125441266331,-1.69819476075,0.0560548979522,2.01314914737,0.104274894157,-0.162591718814,-0.615563678809,-0.000444580637574,-0.901963240877,-0.0698077717987,0.281542761227,-0.172842905443,0.57367798979,0.819064833489,0.00266635978661,0.0,0.819029183972,-0.573614774031,-0.01174877511,0.0,-0.0080937009915,0.00892401198267,-0.999927424374,0.0,0.61498404718,0.199962381911,0.303909189883,1.0,-0.144713714286,-0.190195167347,1.452
0.418919615142,0.311764656175,-0.125478056124,-1.71456048182,0.0547452934346,2.01826125607,0.100994991553,-0.170877569048,-0.636154850632,-0.00204384386477,-0.909019233932,-0.0709100622037,0.290509910279,-0.193859052815,0.573606393267,0.819115083836,0.00263285706267,0.0,0.819078508898,-0.573542771783,-0.0118250622676,0.0,-0.00817618815021,0.00893962006989,-0.999926613877,0.0,0.612326149729,0.196551590877,0.303893357484,1.0,-0.149692,-0.196738057143,1.47
0.416265604608,0.302126708603,-0.125536254689,-1.72837564058,0.0535489200267,2.02263317867,0.0981287042745,-0.181828860941,-0.631439161467,-0.00209562258121,-0.932462029966,-0.0755816445164,0.285141249849,-0.189725386324,0.573513759841,0.819179624897,0.00273062786706,0.0,0.819144847341,-0.573450377084,-0.0117102945116,0.0,-0.0080271096321,0.00895296715384,-0.999927702332,0.0,0.610086026194,0.193607643641,0.30395791661,1.0,-0.153840571429,-0.202190465306,1.485
0.413053133181,0.290941474144,-0.125638325124,-1.74438560961,0.0522824055411,2.02747437035,0.0948965911058,-0.190972827053,-0.674313799547,-0.00777266140183,-0.93964230913,-0.0781837406238,0.302823755667,-0.19788630891,0.573632016344,0.819096657659,0.00277887352188,0.0,0.819061821718,-0.573567679905,-0.0117726663252,0.0,-0.00804923457268,0.00902942137534,-0.99992683701,0.0,0.607276547101,0.189918257986,0.304006478773,1.0,-0.158818857143,-0.208733355102,1.503
0.409740180552,0.279637857169,-0.125760384158,-1.76069113489,0.0508839122182,2.03240811805,0.0914014178004,-0.192941535189,-0.682205842726,-0.00463302998039,-0.979077273296,-0.0901217764592,0.291250926857,-0.20953001927,0.573589590665,0.819126816482,0.00264327499037,0.0,0.819090084844,-0.573525612702,-0.0118554370019,0.0,-0.00819527824547,0.00896540820508,-0.999926226714,0.0,0.604681929672,0.186535999262,0.3039407942,1.0,-0.163244,-0.214549257143,1.519
0.406401375248,0.268651030859,-0.125875806815,-1.77611233713,0.0495213442394,2.03709472494,0.0880331914375,-0.207971305816,-0.68687190578,-0.0116523539216,-0.968161710283,-0.0932919912775,0.296725385448,-0.214514349857,0.573621874094,0.819103707805,0.0027943375297,0.0,0.8190693836,-0.573557833293,-0.0117261936497,0.0,-0.00800240858904,0.00901533106841,-0.999927339992,0.0,0.602090061033,0.183046610749,0.304046571575,1.0,-0.167669142857,-0.220365159184,1.535
0.402385979358,0.256240818774,-0.126077960511,-1.79379096846,0.0479614921645,2.04229942291,0.0841518793662,-0.227730582778,-0.702065342123,-0.0114254298081,-0.977923293022,-0.0850693711467,0.300152468806,-0.225425625438,0.573826426415,0.818960799202,0.00268115994741,0.0,0.818925034746,-0.573762798756,-0.0117807100869,0.0,-0.00810974605037,0.00895592420221,-0.999927009057,0.0,0.599068184502,0.178912143876,0.303999410496,1.0,-0.172647428571,-0.22690804898,1.553
0.398484172929,0.24423409968,-0.126175336617,-1.8106928985,0.0464287865294,2.04723663221,0.0803316406519,-0.22990538833,-0.703964162177,-0.00375994917618,-1.00686609984,-0.0774928703565,0.283967085724,-0.229282703086,0.573866163291,0.818933015756,0.00266256187859,0.0,0.818897035092,-0.573802626613,-0.0117872181053,0.0,-0.00812531350833,0.0089448218736,-0.999926982055,0.0,0.596112488102,0.175003787223,0.303997746859,1.0,-0.177349142857,-0.233087444898,1.57
0.394717923682,0.232638747769,-0.126244053687,-1.82668481252,0.0450431423081,2.05195522024,0.0765818602205,-0.234682397011,-0.723485484232,-0.00384466818034,-1.00006842232,-0.0792750709311,0.295788774334,-0.230118433868,0.573836475179,0.818952913869,0.00292771597002,0.0,0.818920069523,-0.573771655096,-0.0116942054688,0.0,-0.00789731525411,0.00910830237502,-0.99992733298,0.0,0.593286509305,0.17131925747,0.304108053034,1.0,-0.181774285714,-0.238903346939,1.586
0.390782517527,0.221021034561,-0.126288678367,-1.84304159009,0.0434553691126,2.05652184826,0.0726698571667,-0.249713594269,-0.734224691439,-0.0030013379864,-1.01459131572,-0.102439742102,0.2840788295,-0.243482699095,0.573700849619,0.819048676865,0.00271053000029,0.0,0.819013040565,-0.573636850352,-0.0117961944311,0.0,-0.00810695363268,0.00898761922401,-0.999926747319,0.0,0.590300425164,0.167507449604,0.304011658919,1.0,-0.186199428571,-0.24471924898,1.602
0.386077464627,0.207554979736,-0.126411515418,-1.8614103681,0.0417476040942,2.06170734569,0.0681498385303,-0.269737370606,-0.754750882503,-0.00789745769705,-1.02609200196,-0.102019734759,0.285658800514,-0.248264685055,0.573736020682,0.819023364391,0.00290758576613,0.0,0.818990319411,-0.573671352811,-0.0116954083451,0.0,-0.00791096634147,0.00909153667974,-0.999927377649,0.0,0.586963262126,0.163074139856,0.304119132576,1.0,-0.191177714286,-0.251262138775,1.62
0.381751436911,0.195413655271,-0.12654149542,-1.87798476223,0.0401693201386,2.0662096658,0.0639400623064,-0.274796582731,-0.755589207916,-0.00738351552737,-1.03766988142,-0.104739275261,0.290223830237,-0.269469590237,0.573699801229,0.819048654455,0.00293029130929,0.0,0.819015723148,-0.573634851433,-0.0117068082088,0.0,-0.00790768053887,0.0091163237156,-0.999927177964,0.0,0.583874375577,0.159039859464,0.304151814034,1.0,-0.195602857143,-0.257078040816,1.636
0.376842070456,0.182368153665,-0.126717883418,-1.89580156626,0.0385005858415,2.0709053407,0.0593024051255,-0.291430035479,-0.765423955389,-0.0120151556631,-1.04300422817,-0.0922254379344,0.2729347515,-0.274151707607,0.573793011527,0.818983589478,0.00286478420966,0.0,0.818948991863,-0.573727350316,-0.0118415846363,0.0,-0.00805461351295,0.00914090664089,-0.999925780759,0.0,0.580507192945,0.154570687318,0.304125125059,1.0,-0.200304571429,-0.263257436735,1.653
0.371739708333,0.16908030926,-0.126837718561,-1.9136501136,0.0367104139427,2.07562443216,0.0545728574681,-0.300188290565,-0.78798613709,-0.00648634883326,-1.05438452021,-0.108260465071,0.264121220112,-0.281606154593,0.573846308367,0.81894597417,0.00294154135713,0.0,0.818912510617,-0.57378051807,-0.011788296693,0.0,-0.00796633237186,0.00917371217947,-0.999926187553,0.0,0.577100195488,0.150053360535,0.30418029822,1.0,-0.205006285714,-0.269436832653,1.67
0.36651490845,0.155537421271,-0.126897478345,-1.93164376929,0.0348856004786,2.08033029499,0.0495820072382,-0.313421860999,-0.786277681475,-0.00365398528969,-1.06069301007,-0.105002317555,0.282426852049,-0.294864336469,0.573695526673,0.819050994299,0.00310778293331,0.0,0.819019811652,-0.573629322566,-0.0116916772214,0.0,-0.0077935144838,0.0092529768624,-0.999926819098,0.0,0.573595541373,0.145533658001,0.304266116295,1.0,-0.209708,-0.275616228571,1.687
0.361021973667,0.141944162169,-0.126993267452,-1.94986343949,0.032988423351,2.08479992601,0.0444969506656,-0.330819546205,-0.834090250941,-0.00782272465974,-1.05769945156,-0.0954252227254,0.262835783786,-0.29704980781,0.573658796646,0.819077354345,0.00293590393441,0.0,0.819043468762,-0.573592650749,-0.0118327590293,0.0,-0.00800808622073,0.00919277623759,-0.999925678948,0.0,0.569950418371,0.140852530695,0.304204158556,1.0,-0.214409714286,-0.28179562449,1.704
0.35525463498,0.128106583977,-0.127153967799,-1.96805522715,0.0310726999826,2.08934768419,0.0390981391791,-0.351810532145,-0.818229892537,-0.00958766092857,-1.08145548136,-0.118348868068,0.258170188338,-0.317441415325,0.57360267282,0.819116270279,0.00304243298565,0.0,0.819083970351,-0.573536388332,-0.0117561760268,0.0,-0.00788488084184,0.00923555989366,-0.999926263825,0.0,0.566314809742,0.136040749027,0.304250461082,1.0,-0.219111428571,-0.287975020408,1.721
0.349517082495,0.114838569752,-0.127360760549,-1.98525717633,0.0291829428123,2.09357019299,0.0339632836341,-0.364069254346,-0.848938129982,-0.0125465121954,-1.0732798726,-0.113163228448,0.260546429459,-0.329902131797,0.57374010612,0.819019426038,0.00319645170081,0.0,0.818989879768,-0.573674188407,-0.011586599791,0.0,-0.0076560758785,0.00926573698193,-0.999927762701,0.0,0.562847787479,0.131342149314,0.304341635555,1.0,-0.223536571429,-0.293790922449,1.737
0.343214735516,0.100652534844,-0.127488654794,-2.00369770839,0.0271464706483,2.09781528934,0.0281951393505,-0.372848948958,-0.851502062025,-0.00621199533461,-1.07333235131,-0.120164866636,0.258304211215,-0.345271018422,0.573681761383,0.819060518992,0.00313843681631,0.0,0.819030091432,-0.573615883278,-0.0116307644209,0.0,-0.00772619148945,0.00924300956838,-0.999927433737,0.0,0.559007283731,0.126321779218,0.304335408901,1.0,-0.228238285714,-0.299970318367,1.754
0.336339803454,0.0854831790247,-0.127638258131,-2.02341469636,0.0250795930003,2.10219888682,0.0218613298126,-0.38549461581,-0.834890692315,-0.0132259702165,-1.10608692909,-0.112751634659,0.229933686516,-0.355255169511,0.573614090735,0.819108268412,0.0030440812698,0.0,0.819075123032,-0.573546785591,-0.0118648417078,0.0,-0.00797282042038,0.00929935066982,-0.999924975291,0.0,0.55480221825,0.12095381659,0.304250652915,1.0,-0.233216571429,-0.306513208163,1.772
0.330315149566,0.0725298646646,-0.127776061204,-2.03967050432,0.0231540131782,2.10586611715,0.016392574711,-0.408276327411,-0.843323051756,-0.00772699131036,-1.10320765393,-0.130994139629,0.24775664616,-0.361973133281,0.573537439993,0.819161157706,0.00324800458778,0.0,0.819131751666,-0.573470742955,-0.0116287268307,0.0,-0.00766331327172,0.00933023354016,-0.999927107529,0.0,0.55134425384,0.116359969444,0.30438381969,1.0,-0.237365142857,-0.311965616326,1.787
0.322639835444,0.0568843483087,-0.128073271862,-2.05936297537,0.0208842752452,2.10994256285,0.00958216250178,-0.428419090809,-0.875183994996,-0.0206177049495,-1.08466190175,-0.131292084181,0.232371759315,-0.386648732763,0.573697363419,0.81904919655,0.00323971274126,0.0,0.819019434553,-0.573630369766,-0.0116666879651,0.0,-0.00769734198418,0.00934671577609,-0.999926692228,0.0,0.547053246266,0.110588511329,0.304420827175,1.0,-0.23998,-0.315402285714,1.805
0.315279423536,0.0423123729522,-0.12821176428,-2.07785955336,0.0187877216454,2.11364436734,0.00308950204962,-0.428862087853,-0.867296538015,-0.00707582902952,-1.07912561524,-0.114590758386,0.201742984652,-0.384172794854,0.573757676157,0.819007552671,0.00308295637308,0.0,0.818974456742,-0.573689675038,-0.0119055810525,0.0,-0.00798225424421,0.00935596117001,-0.999924371944,0.0,0.542910800614,0.105243930092,0.304309076235,1.0,-0.23998,-0.315402285714,1.822
0.308178283478,0.0285006638536,-0.128350186639,-2.09480340734,0.0167262979226,2.11701427876,-0.00320314670055,-0.45142866323,-0.879106182239,-0.0154385516595,-1.06203993041,-0.13415449739,0.204468275212,-0.392119459255,0.573741663332,0.819018226542,0.00322416651138,0.0,0.81898742605,-0.573673704132,-0.011782362295,0.0,-0.00780050010984,0.00940076496731,-0.999925386124,0.0,0.539096281013,0.100205277734,0.304400487908,1.0,-0.23998,-0.315402285714,1.838
0.300412872044,0.0139815222805,-0.128539237328,-2.11250473758,0.0145492774719,2.12035509079,-0.0100489102656,-0.463132478801,-0.850897641706,-0.00641367153881,-1.02832062698,-0.126757508525,0.19862294852,-0.405000391013,0.573780217285,0.818990860192,0.00331361966264,0.0,0.818961406572,-0.573712172713,-0.011717692956,0.0,-0.00769576766466,0.00943728872717,-0.999925853622,0.0,0.535041802642,0.0948015349732,0.304466753836,1.0,-0.23998,-0.315402285714,1.855
0.292430077905,-0.000348612930171,-0.128710612271,-2.13003912859,0.0124153900361,2.12339577767,-0.0170254797747,-0.466636237559,-0.843944821586,-0.00705598137391,-1.02831043321,-0.126659312963,0.17655016081,-0.418544398777,0.573860428478,0.818935110149,0.00320013945964,0.0,0.818903174613,-0.573791551305,-0.0118992924362,0.0,-0.00790868764377,0.00944931934743,-0.99992407863,0.0,0.530917412329,0.0893800918414,0.304417541595,1.0,-0.23998,-0.315402285714,1.872
0.284909035045,-0.0137650905395,-0.128788648333,-2.14606542739,0.0103971825326,2.12632186981,-0.0236699581277,-0.477984721599,-0.807080487118,-0.00506978259089,-1.00847067574,-0.124900696189,0.177231558234,-0.418452710799,0.573776843663,0.81899279034,0.00341905678044,0.0,0.818964267777,-0.573707905825,-0.01172662782,0.0,-0.00764263087853,0.00952873628777,-0.999925393906,0.0,0.527134906384,0.0844222265096,0.304498951571,1.0,-0.23998,-0.315402285714,1.888
0.276668188544,-0.0279701584629,-0.128931211199,-2.16285836622,0.00820598634952,2.12898756533,-0.0309167916234,-0.494955815958,-0.856233189022,-0.00794429641447,-0.968781702582,-0.12699408841,0.175714382731,-0.426007950102,0.573736361281,0.819021018457,0.00345050299459,0.0,0.818992978694,-0.573667418183,-0.011702182126,0.0,-0.00760503839921,0.00954008879382,-0.999925572279,0.0,0.523059385335,0.079066323573,0.304566703581,1.0,-0.23998,-0.315402285714,1.905
0.268143002304,-0.0419797745559,-0.129132902506,-2.17957532014,0.00604006155657,2.13155337573,-0.0382877132945,-0.503790583789,-0.846013939147,-0.00450323391632,-0.984890188946,-0.128531385247,0.138090376698,-0.451689752715,0.57384414022,0.818945973622,0.00333795220603,0.0,0.818915611545,-0.573774502809,-0.0118654117561,0.0,-0.00780204952927,0.00954258190393,-0.999924030691,0.0,0.518692292719,0.0733068424859,0.304489679889,1.0,-0.23998,-0.315402285714,1.923
0.259573038026,-0.0559606579585,-0.129239035499,-2.1956909863,0.00390901338289,2.13404062861,-0.04582048797,-0.509225161799,-0.83405450317,-0.00248773739628,-0.943623763527,-0.131489436541,0.14203746952,-0.453699084375,0.573791990223,0.818981419339,0.00359633629537,0.0,0.818955266452,-0.573722562576,-0.0116378538627,0.0,-0.00746803058198,0.00962313115391,-0.999925809181,0.0,0.514929237721,0.0683227048296,0.304616027045,1.0,-0.23998,-0.315402285714,1.939
0.250266369463,-0.070473680113,-0.129411746188,-2.21265916075,0.00163896043357,2.13628337447,-0.0540021050672,-0.522974120292,-0.823146804959,-0.0138073331909,-0.912925931198,-0.127869769915,0.13024557793,-0.456992686506,0.573757631768,0.819006125386,0.0034486910722,0.0,0.818977125233,-0.573687520143,-0.0118255857542,0.0,-0.0077069045218,0.00960960419138,-0.999924126687,0.0,0.510573076256,0.062647919463,0.304537587433,1.0,-0.23998,-0.315402285714,1.957
0.241172339942,-0.0841995512898,-0.1296344735,-2.22834030513,-0.000469783720405,2.13829640064,-0.0618832155675,-0.534156123733,-0.780214359197,-0.00825288414781,-0.92577137817,-0.123576580197,0.111393339917,-0.466626336518,0.573886061947,0.818915834902,0.00351996457771,0.0,0.81888741423,-0.573815248459,-0.0118410452349,0.0,-0.00767715790501,0.00967805184292,-0.999923695368,0.0,0.506506967045,0.0572127363606,0.30455942291,1.0,-0.23998,-0.315402285714,1.974
0.233696034311,-0.095410251583,-0.129709608543,-2.24107079886,-0.00220080083893,2.13978583707,-0.0684866795444,-0.533486859382,-0.79283114886,-0.00324678767873,-0.904528138327,-0.134246227934,0.117677846115,-0.478427221465,0.57378389215,0.818987411251,0.00352309850234,0.0,0.818958542895,-0.573712467389,-0.0119019612857,0.0,-0.0077264596858,0.00971461232304,-0.999922961097,0.0,0.503125961567,0.0528695102757,0.304555366601,1.0,-0.23998,-0.315402285714,1.988
0.22381174472,-0.109688721549,-0.129880845406,-2.25720202894,-0.00451300746032,2.14153596593,-0.0770596435451,-0.558052501564,-0.778602728559,-0.0119464944381,-0.89203595744,-0.135211905945,0.0955789869894,-0.474379882196,0.573805834229,0.818972428309,0.00343120600604,0.0,0.818942091378,-0.573734402106,-0.0119763813333,0.0,-0.0078398761184,0.00968226291809,-0.999922392052,0.0,0.498775743635,0.0471956963788,0.304516994202,1.0,-0.23998,-0.315402285714,2.006
0.214178835883,-0.123172913312,-0.130084545745,-2.27203610295,-0.00662367056399,2.14304092362,-0.0854364274658,-0.570749623335,-0.807744165638,-0.00584592756763,-0.884826481328,-0.115686197684,0.0874600920616,-0.503876501047,0.573885353318,0.818916129409,0.00356667100751,0.0,0.818887708319,-0.573813607019,-0.0119001035885,0.0,-0.00769873063879,0.00975018592135,-0.999922828733,0.0,0.494721975787,0.0417825819647,0.3045895717,1.0,-0.23998,-0.315402285714,2.023
0.205070165638,-0.135648680667,-0.130207994634,-2.28588409717,-0.00860827819994,2.14421680621,-0.0934727415663,-0.574496599737,-0.765544379516,-0.00981872625835,-0.850271528897,-0.12897915792,0.0641035841923,-0.507187160693,0.573794733728,0.818980097,0.00345704558937,0.0,0.818949292403,-0.573722212173,-0.0120675860213,0.0,-0.00789988102435,0.00975565017355,-0.999921206481,0.0,0.490828066089,0.0367846413776,0.304531097755,1.0,-0.23998,-0.315402285714,2.039
0.194515061268,-0.149631320798,-0.13043625602,-2.30093800637,-0.0108342742488,2.14555570958,-0.102705637953,-0.597408666751,-0.760574027154,-0.0166462883943,-0.851521643162,-0.125885946705,0.0593875812261,-0.518848201627,0.573845191608,0.818943865651,0.00365894556816,0.0,0.818916444907,-0.573772868128,-0.0118869239663,0.0,-0.00763546677711,0.00981781388121,-0.999922652097,0.0,0.486579005191,0.0310797867128,0.304618943917,1.0,-0.23998,-0.315402285714,2.057
0.184403111503,-0.162703447031,-0.130565513226,-2.31506660556,-0.0129293664397,2.14640856756,-0.11157571067,-0.588170464462,-0.761535605399,-0.00515108467953,-0.794927442602,-0.111439252674,0.0462279048965,-0.51762603288,0.5737976393,0.818977657239,0.00355147548348,0.0,0.818947886636,-0.573724510646,-0.0120537031356,0.0,-0.00783429585566,0.00982504890827,-0.999921042994,0.0,0.482441589047,0.025758544513,0.304585977859,1.0,-0.23998,-0.315402285714,2.074
0.175348126818,-0.17414223469,-0.130714581297,-2.32714246583,-0.0146819194492,2.14723299523,-0.119630066654,-0.609388716655,-0.740566838837,-0.0106444824557,-0.8132653137,-0.123407548256,0.0560600199626,-0.549037053945,0.57373797029,0.819018586185,0.00374751005197,0.0,0.818991486353,-0.573664270614,-0.0119581270908,0.0,-0.00764426289849,0.00993020158028,-0.999921475088,0.0,0.478891926255,0.0210800094527,0.304648831696,1.0,-0.23998,-0.315402285714,2.089
0.164100941469,-0.187715264333,-0.130964628266,-2.34151594538,-0.0169256015554,2.14788263313,-0.129425304775,-0.621627920829,-0.756939244353,-0.013241185407,-0.801337563933,-0.128615094707,0.036261953277,-0.551175105556,0.573845727624,0.818943489051,0.00365917062596,0.0,0.81891472564,-0.573771680314,-0.0120614219888,0.0,-0.00777824428309,0.00991813514138,-0.9999205616,0.0,0.474541803597,0.0153297771221,0.304619430464,1.0,-0.23998,-0.315402285714,2.107
0.153462531857,-0.20045932524,-0.131098302094,-2.35466319996,-0.0189357333162,2.14851456402,-0.138953915122,-0.62863105702,-0.721047604223,-0.0132988871829,-0.798876287072,-0.11056234983,0.0271807417399,-0.560091287614,0.573687163765,0.819053668899,0.00385648751876,0.0,0.819028108371,-0.573613240656,-0.0118976780255,0.0,-0.00753284956568,0.00998430906818,-0.999921781816,0.0,0.470518937,0.0100549785925,0.304698733934,1.0,-0.23998,-0.315402285714,2.124
0.143090455946,-0.21229630441,-0.131315638367,-2.36698086786,-0.0208158211189,2.1487760991,-0.148058851691,-0.654949178309,-0.739195396227,-0.0166073080306,-0.760460038262,-0.119620785207,0.0273797843253,-0.569959817282,0.573781817285,0.81898766595,0.00379157955582,0.0,0.818959958414,-0.573706410746,-0.0120949446477,0.0,-0.00773050582498,0.0100452045566,-0.999919663346,0.0,0.466624475247,0.00496930890643,0.304648403086,1.0,-0.23998,-0.315402285714,2.14
0.131304334175,-0.225519311231,-0.131487010364,-2.38032986426,-0.022999478879,2.14911750775,-0.158456491648,-0.64182638575,-0.726865801487,-0.00630364700456,-0.745799324555,-0.120549510961,0.0142855118812,-0.575630320527,0.573759161447,0.819002895071,0.00392803034524,0.0,0.818978121552,-0.573684784576,-0.0118891238673,0.0,-0.00748391971341,0.0100386579293,-0.999921605073,0.0,0.462363856284,-0.00067972394756,0.304729741738,1.0,-0.23998,-0.315402285714,2.158
0.120037072204,-0.23783258152,-0.131690621868,-2.39282908995,-0.0249942069237,2.14917174676,-0.168573720465,-0.672919868514,-0.726344699815,-0.0145249678663,-0.712994403787,-0.119766195988,0.00271398047043,-0.604143365336,0.573653294153,0.819077182659,0.00390049432231,0.0,0.819051365936,-0.573578118055,-0.0119895516267,0.0,-0.00758327597644,0.0100727449201,-0.999920513709,0.0,0.458252261183,-0.00598682298592,0.304700630691,1.0,-0.23998,-0.315402285714,2.175
0.108981144549,-0.249366367326,-0.131933539935,-2.40410669154,-0.0267999208951,2.14922806409,-0.178282231404,-0.684058356172,-0.71418300256,-0.00660460082225,-0.709177546998,-0.120923095898,-0.00393734386978,-0.600977628418,0.57383921335,0.818945575117,0.00417721421471,0.0,0.818924275739,-0.573764303392,-0.0117601726133,0.0,-0.00723434420377,0.0101694661204,-0.999922120079,0.0,0.454493393903,-0.0111171426732,0.304823345842,1.0,-0.23998,-0.315402285714,2.191
0.0966543138131,-0.262033759134,-0.132095115377,-2.41684009662,-0.028824137667,2.14907696791,-0.189420981138,-0.692476141442,-0.688704811127,-0.0115120152757,-0.706191870501,-0.120007936143,-0.0169520784499,-0.620552248935,0.573676770729,0.819059639007,0.00412521234446,0.0,0.819036556017,-0.573600520752,-0.0119293504355,0.0,-0.00740476807702,0.0102224877607,-0.999920331903,0.0,0.450130480583,-0.0166802431578,0.304735065604,1.0,-0.23998,-0.315402285714,2.209
0.0852304542931,-0.273287539566,-0.132381085498,-2.42759990259,-0.0306953463103,2.14893141736,-0.199526776505,-0.719060677104,-0.707201457459,-0.0130946225733,-0.676746795788,-0.111702462283,-0.0175468484429,-0.631290216794,0.573825613303,0.818954173281,0.00435597118413,0.0,0.818935741443,-0.573750927291,-0.0116134284687,0.0,-0.00701175820251,0.0102315401939,-0.999923072457,0.0,0.44637820641,-0.02182342836,0.304859698221,1.0,-0.23998,-0.315402285714,2.225
0.0738826616691,-0.284270937846,-0.13249180918,-2.43838764732,-0.0324702204895,2.14853506268,-0.209868217686,-0.709918173098,-0.686190186297,-0.00864185617288,-0.670773885717,-0.11103293799,-0.0294686066921,-0.662813810055,0.573610929654,0.819104894737,0.00429181784756,0.0,0.819084829365,-0.573535320563,-0.0117484157146,0.0,-0.0071618135793,0.0102545799818,-0.999921772948,0.0,0.442505739175,-0.0267534193711,0.304793540397,1.0,-0.23998,-0.315402285714,2.241
0.0613984136507,-0.295851229319,-0.132790551118,-2.44936605343,-0.0342927355774,2.14804607985,-0.221075564002,-0.743699436832,-0.682150780505,-0.0193849989753,-0.632234686113,-0.113150615743,-0.0224814480411,-0.660890336011,0.573722845972,0.819025538927,0.00447319742348,0.0,0.81900793616,-0.573646800047,-0.0116660277788,0.0,-0.00698887385819,0.0103568502497,-0.999921942601,0.0,0.438468851738,-0.0321642876587,0.30485144856,1.0,-0.23998,-0.315402285714,2.258
0.0480525110073,-0.307902363098,-0.132965439685,-2.46080696115,-0.0362793238309,2.14740196078,-0.233103137544,-0.733841397783,-0.657967449579,-0.007594653316,-0.639440508846,-0.107791923491,-0.0478675966361,-0.673888868342,0.573665209897,0.819065821988,0.00448922107202,0.0,0.819048622594,-0.573589414159,-0.0116311947719,0.0,-0.00695187826699,0.0103495013857,-0.999922276584,0.0,0.434402141272,-0.037479119739,0.304849659515,1.0,-0.23998,-0.315402285714,2.275
0.035910503697,-0.318426436967,-0.133251498844,-2.47075275866,-0.0380448687912,2.1466363162,-0.244043841342,-0.769838013232,-0.661633122732,-0.0191988433243,-0.609977395059,-0.105940170914,-0.0397239529562,-0.680976565604,0.57373963302,0.819013961345,0.0044397663303,0.0,0.818995376953,-0.573662883781,-0.0117564961804,0.0,-0.0070819417012,0.0103815157798,-0.999921031998,0.0,0.430283708628,-0.0428764028684,0.304809925062,1.0,-0.23998,-0.315402285714,2.292
0.0228891329546,-0.329497985773,-0.133411773277,-2.48080018936,-0.0397680356552,2.14592964462,-0.255943502247,-0.75982399782,-0.631443563974,-0.00903606531804,-0.596675022458,-0.089376819922,-0.0503951443595,-0.702399430219,0.573650699739,0.819074764955,0.00470648537507,0.0,0.819060973321,-0.573575176757,-0.0114623510707,0.0,-0.00668912811462,0.0104304850238,-0.999923227327,0.0,0.42631003936,-0.0481811776327,0.304929370367,1.0,-0.23998,-0.315402285714,2.309
0.00955355537123,-0.340290663261,-0.133688720803,-2.4908439477,-0.0415664133189,2.14489246883,-0.268032450247,-0.789092115771,-0.630902556886,-0.0169524053679,-0.580210033793,-0.11196240697,-0.0613367720383,-0.707513528238,0.573709380393,0.819034155412,0.00462017518295,0.0,0.81901811694,-0.573632365964,-0.01166103527,0.0,-0.00690063701085,0.0104742541596,-0.99992133251,0.0,0.422175693323,-0.0535655653193,0.304862955964,1.0,-0.23998,-0.315402285714,2.326
-0.00312576306913,-0.350331400662,-0.133855980218,-2.49993122987,-0.0432037405124,2.14387377221,-0.27963129505,-0.791474118422,-0.633587167251,-0.00776509726287,-0.549840464566,-0.0855943467564,-0.0563017842914,-0.718764853717,0.573643230397,0.819080361004,0.00464255723298,0.0,0.819064540955,-0.573566047715,-0.0116624851568,0.0,-0.00688983199962,0.0104928616888,-0.999921211931,0.0,0.418340146615,-0.0585685339993,0.304880973467,1.0,-0.23998,-0.315402285714,2.342
-0.0168819063444,-0.360798752067,-0.134161479089,-2.50922412696,-0.0449709225096,2.14284327083,-0.292217567006,-0.827040887259,-0.602966259693,-0.0196082589887,-0.548994422841,-0.102630379648,-0.0790822686633,-0.740533347478,0.57367981642,0.81905405795,0.00476080755172,0.0,0.81904076724,-0.573603820955,-0.011472797656,0.0,-0.00666615241782,0.0104812097188,-0.999922850351,0.0,0.414309303811,-0.0639790873578,0.304947244611,1.0,-0.23998,-0.315402285714,2.359
-0.0307517890223,-0.371023455541,-0.134334315926,-2.51845929703,-0.0466150242479,2.14155866068,-0.305052593029,-0.827408956757,-0.597113430066,-0.0205992012404,-0.537669143921,-0.0988683308416,-0.069854227096,-0.764028511374,0.573551744531,0.819144079454,0.0047032267705,0.0,0.819128789826,-0.573473994385,-0.0116769149747,0.0,-0.00686802975605,0.0105500665287,-0.999920759992,0.0,0.410176474868,-0.069262853735,0.30488571707,1.0,-0.23998,-0.315402285714,2.376
-0.0441196535481,-0.380421823666,-0.134623404582,-2.52666283204,-0.0481873026074,2.1403526569,-0.317256306139,-0.847387335766,-0.580374850149,-0.020637219583,-0.495270204208,-0.0971539142272,-0.0699927823731,-0.770350664439,0.573682035436,0.819052483696,0.00476424932256,0.0,0.819038169352,-0.573604358398,-0.0116303083482,0.0,-0.0067931695524,0.0105744045995,-0.999921014288,0.0,0.406359886979,-0.0743554073122,0.304923988158,1.0,-0.23998,-0.315402285714,2.392
-0.0592941215165,-0.390721228754,-0.134843898789,-2.53564731562,-0.0499036483414,2.1390406596,-0.331344160115,-0.850458206809,-0.564498459378,-0.0152128668773,-0.500342438875,-0.0959525156897,-0.0786961847398,-0.7919039448,0.573590867841,0.819116014031,0.00481858778416,0.0,0.819102850649,-0.573513743322,-0.0115435341372,0.0,-0.00669209619627,0.010568388228,-0.999921759449,0.0,0.402079751237,-0.0800047680437,0.304939196292,1.0,-0.23998,-0.315402285714,2.41
-0.0739572995187,-0.400217645251,-0.135134354397,-2.54397141762,-0.0515719951457,2.13756783741,-0.34486804955,-0.861432417253,-0.550805628304,-0.0131661629398,-0.487317817321,-0.0994605214415,-0.0839187727879,-0.797514101093,0.573636513231,0.819084695375,0.00470737627686,0.0,0.81906916278,-0.573558280387,-0.0117197475683,0.0,-0.00689964406393,0.0105787455507,-0.999920239346,0.0,0.397935224416,-0.0854064294111,0.304880747354,1.0,-0.23998,-0.315402285714,2.427
-0.0877193397228,-0.408931655169,-0.135311530953,-2.55141435056,-0.0528651688362,2.13622225508,-0.357813701594,-0.862825278251,-0.531404474704,-0.0104274398606,-0.448416408364,-0.0815003720818,-0.0755789863728,-0.820361969523,0.57352973718,0.819158665056,0.00484447462222,0.0,0.819144286988,-0.573450106797,-0.0117626107276,0.0,-0.00685751204009,0.0107147370413,-0.999919081195,0.0,0.394126127194,-0.0903463953234,0.304893245076,1.0,-0.23998,-0.315402285714,2.443
-0.102882958198,-0.417928482711,-0.13561711127,-2.55889734693,-0.0544211991114,2.13486564944,-0.371785449333,-0.884739321379,-0.513481557354,-0.00435435603414,-0.43692192283,-0.0968930624866,-0.0902423603522,-0.831665649649,0.573700693901,0.819038280251,0.0049554214139,0.0,0.819026658314,-0.57362278214,-0.0115318550755,0.0,-0.00660261525186,0.0106746610203,-0.999921225439,0.0,0.390101470479,-0.0958165024653,0.304972168985,1.0,-0.23998,-0.315402285714,2.46
-0.117992275149,-0.426616752469,-0.135837637872,-2.56637555232,-0.0558760374016,2.13323125501,-0.386054307038,-0.896198303188,-0.498499258563,-0.0155463205619,-0.432036274441,-0.0851589140584,-0.0984229649801,-0.833032441792,0.573559339827,0.81913785786,0.00485802614392,0.0,0.819123115465,-0.573478815459,-0.0118370956033,0.0,-0.00691037110337,0.0107688055826,-0.999918136448,0.0,0.38595841382,-0.101106368778,0.304884072102,1.0,-0.23998,-0.315402285714,2.477
-0.132450464624,-0.434594289082,-0.136081510267,-2.5730688738,-0.0572630355709,2.13183534886,-0.399596949643,-0.900691834274,-0.491285975472,-0.0100529394552,-0.404531310438,-0.0800634895012,-0.0890352717097,-0.850366385158,0.573557420455,0.819139213378,0.00485607331817,0.0,0.819124358879,-0.573476768091,-0.0118502342251,0.0,-0.00692227958472,0.0107747251642,-0.999917990309,0.0,0.382107991464,-0.106139117027,0.304868802725,1.0,-0.23998,-0.315402285714,2.493
-0.148105990264,-0.442771044617,-0.136388670418,-2.57964307076,-0.0585880439274,2.13033986171,-0.414283592835,-0.930730185425,-0.475074938634,-0.0281724786886,-0.376575377915,-0.0833805419699,-0.090143934928,-0.87053562193,0.573671944885,0.819057944846,0.00503284594937,0.0,0.819046087721,-0.573591796106,-0.011692071245,0.0,-0.00668981349696,0.0108297545421,-0.999918978124,0.0,0.378083920762,-0.111555296598,0.304955425174,1.0,-0.23998,-0.315402285714,2.51
-0.164767405768,-0.451127131421,-0.136574517785,-2.58644891695,-0.0599600218475,2.12874061104,-0.430051328837,-0.926012027453,-0.447173805484,-0.011176717802,-0.386043067405,-0.0826787084726,-0.0973254396479,-0.884736336867,0.573598039856,0.819109284302,0.00510058280765,0.0,0.819098486651,-0.573517983252,-0.0116421198365,0.0,-0.00661101976444,0.0108559857882,-0.999919217732,0.0,0.373790086602,-0.117178342753,0.304979730998,1.0,-0.23998,-0.315402285714,2.528
-0.178877670902,-0.457797280628,-0.136862984553,-2.59195695744,-0.0611622345936,2.1272615619,-0.443405985027,-0.937519128145,-0.434669888403,-0.0161575919057,-0.355257400982,-0.0812359093004,-0.0925776001488,-0.896261722271,0.573622161909,0.81909275573,0.00504180314031,0.0,0.819079892533,-0.573540183719,-0.0118547125009,0.0,-0.0068185637099,0.0109299758238,-0.999917017966,0.0,0.370123889263,-0.121922843839,0.304928564762,1.0,-0.23998,-0.315402285714,2.543
-0.195926365099,-0.46542154222,-0.137084982668,-2.5981626619,-0.0624435167929,2.12573204358,-0.459685346568,-0.958986178582,-0.419814917484,-0.0180708162153,-0.34187999328,-0.0707582545718,-0.0834290346867,-0.9053946696,0.573533976818,0.819154133105,0.00510201458993,0.0,0.819141863282,-0.573451497609,-0.0118631618939,0.0,-0.00679213095924,0.010983411621,-0.999916612336,0.0,0.365824780967,-0.127558779218,0.304910621306,1.0,-0.23998,-0.315402285714,2.561
-0.212327135366,-0.472333475676,-0.137321165589,-2.60357141489,-0.0636677345548,2.1242651778,-0.475180835253,-0.964228279692,-0.400588858566,-0.0114218888555,-0.307368253126,-0.068665557936,-0.0800628018783,-0.914471977392,0.573628393782,0.819087630123,0.00516400304098,0.0,0.819076983061,-0.573547021097,-0.0117242190237,0.0,-0.00664149208342,0.0109552718812,-0.999917932933,0.0,0.36177919936,-0.132957272539,0.304969503227,1.0,-0.23998,-0.315402285714,2.578
-0.227852850238,-0.478528522775,-0.137608973576,-2.60834861802,-0.064726325006,2.12291493782,-0.490032276858,-0.977776683418,-0.382409556297,-0.0205518324104,-0.300414749086,-0.0660480897841,-0.0883076428064,-0.93593521113,0.57367316969,0.819055412293,0.00529838395524,0.0,0.819047167623,-0.573592465281,-0.0115830860633,0.0,-0.00644820036418,0.0109847435586,-0.99991887477,0.0,0.35798323982,-0.138033523258,0.305036929601,1.0,-0.239401714286,-0.314642253061,2.594
-0.244303478706,-0.484644917717,-0.137707100001,-2.61332779892,-0.0657086500671,2.12145615442,-0.50588983018,-0.970971676632,-0.352479249527,-0.0062844114923,-0.285460066813,-0.054552156579,-0.0903950405447,-0.932356779849,0.573534732483,0.819152261025,0.00531326596727,0.0,0.819142788649,-0.57345160027,-0.0117941024537,0.0,-0.00661439216767,0.011116864931,-0.999916329065,0.0,0.353927451117,-0.143245191916,0.304966634222,1.0,-0.2347,-0.308462857143,2.611
-0.260921261606,-0.490313642925,-0.137842178331,-2.61789431287,-0.0666764048654,2.12004463462,-0.521675398104,-0.956360577866,-0.322163527091,0.00272307522629,-0.253244788328,-0.0567697808277,-0.073486171651,-0.930580480786,0.573644836452,0.819075158857,0.00531344110144,0.0,0.819064390937,-0.573559516948,-0.0119896171211,0.0,-0.00677295323696,0.0112300485653,-0.999914002859,0.0,0.349896280535,-0.148493069459,0.304906874918,1.0,-0.229998285714,-0.302283461225,2.628
-0.277340841911,-0.495529584645,-0.137897794794,-2.62195048891,-0.0674925914557,2.11886300295,-0.53739362135,-0.963716734573,-0.293364927364,-0.00691675321768,-0.237498984118,-0.0428927377788,-0.0645681877641,-0.923889287234,0.573681400151,0.819048832826,0.00542286534164,0.0,0.81903980533,-0.573596193063,-0.011914339702,0.0,-0.00664801910632,0.0112767947691,-0.9999143152,0.0,0.346028835733,-0.1536321271,0.304921169368,1.0,-0.225296571429,-0.296104065306,2.645
-0.292558017192,-0.500081640286,-0.137855669577,-2.62543741248,-0.0681877040403,2.11766855187,-0.55194920234,-0.946603471646,-0.276468972941,0.00120694837865,-0.207451770589,-0.0435685902558,-0.070007874697,-0.911664126685,0.573697235659,0.819037418904,0.00547130088993,0.0,0.819028772698,-0.573611420924,-0.01193960555,0.0,-0.00664071088893,0.0113310897104,-0.999913749963,0.0,0.342451298961,-0.158318016129,0.304939255793,1.0,-0.220871428571,-0.290288163265,2.661
-0.309632995627,-0.504707941978,-0.137873034794,-2.62897494267,-0.0689003736809,2.11649867333,-0.568207695433,-0.94411586412,-0.2535949267,0.00463972244267,-0.183569397888,-0.0396187668859,-0.0653723452682,-0.897096259344,0.573871301055,0.818914794977,0.00557093301266,0.0,0.818907457246,-0.573785098538,-0.0119157066069,0.0,-0.00656155641566,0.011400380134,-0.999913484913,0.0,0.33849185567,-0.163573407747,0.304956322191,1.0,-0.215893142857,-0.283745273469,2.679
-0.324439078656,-0.50846727131,-0.137788779769,-2.63179234863,-0.0694376120737,2.11558911298,-0.582525828502,-0.935537155991,-0.232944724116,0.00201986797337,-0.171776440586,-0.0349314194266,-0.0565428836198,-0.886376395906,0.5738188357,0.818950873451,0.00567076457303,0.0,0.818945504999,-0.573733458212,-0.0117866734457,0.0,-0.00639932235107,0.0114076820236,-0.999914453073,0.0,0.335101807902,-0.168071587087,0.304997493676,1.0,-0.211468,-0.277929371429,2.695
-0.34006163183,-0.512066745695,-0.137719763378,-2.63456032807,-0.0700381263129,2.1146113051,-0.597527774271,-0.905192961521,-0.201323313856,0.0148809808119,-0.15514029893,-0.0273623396192,-0.0510595311833,-0.875006509016,0.573861551071,0.818920875567,0.00568037544204,0.0,0.818915429105,-0.573775769127,-0.0118166677909,0.0,-0.00641777770752,0.0114330985221,-0.9999140445,0.0,0.33150420294,-0.172789976542,0.30499140698,1.0,-0.206766285714,-0.27174997551,2.712
-0.355407362363,-0.515204525229,-0.137632647549,-2.6370526548,-0.0704549953929,2.11370843235,-0.612355529733,-0.912842127763,-0.174624518278,0.00224854550135,-0.139697586594,-0.0241394190718,-0.0473844083064,-0.866557301038,0.573902133464,0.818891831319,0.00576686270075,0.0,0.818886361266,-0.573813967305,-0.0119751893289,0.0,-0.00649740344989,0.0115952151613,-0.999911663465,0.0,0.327986667084,-0.177372645339,0.304943330765,1.0,-0.202064571429,-0.265570579592,2.729
-0.369597330308,-0.517796787783,-0.137478552039,-2.63913672383,-0.0708338588126,2.1129829421,-0.626064047178,-0.874182358088,-0.15255442447,0.0156085942482,-0.126226998871,-0.0149135405475,-0.0419943556429,-0.847756379452,0.573904906115,0.818889716087,0.00579124566706,0.0,0.818883796361,-0.573815274192,-0.0120874340313,0.0,-0.00657529679662,0.0116796197993,-0.999910171942,0.0,0.324766891849,-0.181578852124,0.304893833264,1.0,-0.197639428571,-0.259754677551,2.745
-0.385331721841,-0.520388677687,-0.137362436996,-2.64115055349,-0.0712102801006,2.11224465763,-0.641209536887,-0.875206602259,-0.136516593389,0.00629862617262,-0.0997104454344,-0.023570675767,-0.0431247770425,-0.836788648206,0.574027184882,0.818803501715,0.00586203863543,0.0,0.818798076947,-0.573936465141,-0.0121404312578,0.0,-0.00657631650775,0.0117689901294,-0.999909117336,0.0,0.321218795258,-0.186248410707,0.304872036187,1.0,-0.192661142857,-0.253211787755,2.763
-0.39971307893,-0.522538773681,-0.137126848816,-2.64276202463,-0.0714792461552,2.11161170064,-0.655307870756,-0.845944851561,-0.125223128884,0.00946179923582,-0.0855879685063,-0.0131047288725,-0.0387970845526,-0.830144364469,0.573883113993,0.818904124148,0.00591217631669,0.0,0.818899358876,-0.573792218322,-0.0121275359031,0.0,-0.0065390543,0.0118014926797,-0.999908978627,0.0,0.318010186982,-0.190462449868,0.304881171615,1.0,-0.187959428571,-0.247032391837,2.78
-0.413264349788,-0.524348259933,-0.136995633071,-2.64404473592,-0.0717281388496,2.1110674601,-0.668306858657,-0.849370404796,-0.107428728397,0.00973188399947,-0.0766318262188,-0.0176051711516,-0.0324280708756,-0.808128156272,0.574060772031,0.818779056909,0.00598605747672,0.0,0.818775666155,-0.573970274298,-0.0120532002732,0.0,-0.00643321275985,0.0118207352382,-0.999909437895,0.0,0.314992311577,-0.194457764787,0.30491845472,1.0,-0.183534285714,-0.241216489796,2.796
-0.427893176626,-0.525988020863,-0.136730002829,-2.64522515059,-0.0719235951051,2.11059465209,-0.682653449132,-0.807652761459,-0.083850346177,0.013529240063,-0.0622590359812,-0.0131794444501,-0.0277137535189,-0.785478921421,0.573951326684,0.818855411268,0.0060363015186,0.0,0.818853214412,-0.573861642553,-0.0119572302329,0.0,-0.00632736259694,0.0118059403583,-0.999910288103,0.0,0.311773657479,-0.198728100086,0.304948784016,1.0,-0.178556,-0.2346736,2.814
-0.440835070901,-0.527216236566,-0.136577987692,-2.64613846347,-0.0720975519069,2.1101904702,-0.695146865845,-0.788116142116,-0.0743772200686,0.0216189024611,-0.0498484937231,-0.00906344338168,-0.0245621262491,-0.768984539074,0.574083533178,0.818762354588,0.00608691584132,0.0,0.818760778696,-0.573993543948,-0.0119559891633,0.0,-0.00629538464892,0.0118476925604,-0.999909996106,0.0,0.3088968746,-0.202509876968,0.304952205064,1.0,-0.174130857143,-0.228857697959,2.83
-0.453232006253,-0.528189593565,-0.136304684975,-2.6468885714,-0.0721856747184,2.10986648197,-0.707323047455,-0.771049007423,-0.0584869660145,0.0267509623758,-0.0444803011612,-0.00848267268337,-0.0223912142529,-0.753159300347,0.573990066983,0.818827639464,0.00611937539199,0.0,0.818826396385,-0.573899794597,-0.0119626605056,0.0,-0.00628356976122,0.0118773830817,-0.999909718186,0.0,0.306165946296,-0.206083419865,0.30494631912,1.0,-0.169705714286,-0.223041795918,2.846
-0.466376200795,-0.528946081849,-0.13610490771,-2.64749807908,-0.0722881575195,2.10956424238,-0.720009273281,-0.761024845877,-0.03941492083,0.0175772800966,-0.0317025564905,-0.0033370246865,-0.0208271277603,-0.729046112997,0.57414512069,0.818718645167,0.00615689416055,0.0,0.818717477913,-0.574053877376,-0.0120243141193,0.0,-0.00631026269145,0.0119446881124,-0.999908748342,0.0,0.303259442183,-0.209897126444,0.304924815543,1.0,-0.165004,-0.2168624,2.863
-0.479628093283,-0.529477616094,-0.135772449729,-2.6479472826,-0.0723367554179,2.1093268239,-0.733106493057,-0.731744734796,-0.0243503077421,0.0156759392096,-0.0202625872223,-0.00410610888034,-0.0152437412441,-0.721370421316,0.573990730941,0.818826890712,0.0061571698642,0.0,0.818825378943,-0.573898861896,-0.0120765067103,0.0,-0.00635509801805,0.0119736803916,-0.999908117632,0.0,0.300358560753,-0.213703002591,0.304902914221,1.0,-0.160025714286,-0.210319510204,2.881
-0.49135710237,-0.529783144152,-0.135587851097,-2.64821823597,-0.0723563267136,2.10913989595,-0.744439669803,-0.72732418628,-0.00991025749358,0.0208313060767,-0.0134319738718,-0.00196028439795,-0.0093698913401,-0.691615009216,0.574160840666,0.818707200268,0.00621258212999,0.0,0.818705919889,-0.574067762044,-0.0121477661054,0.0,-0.00637914327606,0.012061281584,-0.999906911676,0.0,0.297766474975,-0.217090900876,0.304880014146,1.0,-0.155600571429,-0.204503608163,2.897
-0.502485844997,-0.529947604516,-0.135267062419,-2.64835695989,-0.072353956533,2.10902062786,-0.755522845439,-0.691165422287,-0.0108649994475,0.0185126738784,-0.00728347861659,-0.00122261973924,-0.0053771359348,-0.686885689342,0.573965042136,0.818844550876,0.00620312883933,0.0,0.818843089803,-0.573871940312,-0.0121547236058,0.0,-0.00639315069696,0.0120560077473,-0.999906885816,0.0,0.295337976673,-0.220270372624,0.304875023182,1.0,-0.151175428571,-0.198687706123,2.913
-0.514976186211,-0.530006921283,-0.13504136487,-2.64843146142,-0.0723599059221,2.10889484593,-0.767621550659,-0.689260385684,-0.00105686858798,0.0135905133926,-0.00187346270196,-0.00158067531449,-0.00803790377509,-0.671571824583,0.574119973545,0.818735680251,0.00623608551781,0.0,0.818734289498,-0.574026008032,-0.0122086938044,0.0,-0.00641614148196,0.0121151852645,-0.999906023291,0.0,0.292565567203,-0.223857413759,0.304857838935,1.0,-0.146197142857,-0.192144816327,2.931
-0.52549393153,-0.529944516046,-0.134696602716,-2.64838393224,-0.0723402996466,2.10888090923,-0.778062873926,-0.64432420995,0.00263781673441,0.0248538286706,0.00406495381116,0.00113851829794,0.00188305158363,-0.643274680553,0.573950615441,0.818854691347,0.0061993866676,0.0,0.818853169848,-0.573857511806,-0.0121568612372,0.0,-0.00639726141541,0.0120540574907,-0.999906883037,0.0,0.2902696996,-0.226846184213,0.304864331686,1.0,-0.141772,-0.186328914286,2.947
-0.536486189121,-0.529756300909,-0.134450024091,-2.64825289859,-0.072328261972,2.10886983981,-0.788771905607,-0.648420529016,0.0110150824138,0.0107835716956,0.00511887315371,0.006028804414,-0.00113108793938,-0.608965217677,0.574021467896,0.818805052523,0.0061957451455,0.0,0.818803548172,-0.573928487261,-0.0121485765606,0.0,-0.00639152428662,0.0120468737985,-0.999907006301,0.0,0.287833455402,-0.229989975218,0.304860579479,1.0,-0.137070285714,-0.180149518367,2.964
-0.54831817964,-0.529398226861,-0.134100394356,-2.64795554841,-0.0722789884941,2.10890017812,-0.800375580617,-0.595987875958,0.0282280619181,0.0264069101761,0.0156607922968,0.00540745900548,0.00471415182621,-0.591213023314,0.57399978588,0.818820497222,0.00616328157511,0.0,0.818818941943,-0.573907656126,-0.0120950178662,0.0,-0.00636661663743,0.0119893801964,-0.999907856232,0.0,0.285234944095,-0.233360711203,0.304876596746,1.0,-0.131815428571,-0.173243134694,2.983
-0.556636232889,-0.528995606587,-0.133814253821,-2.64766310557,-0.0722310934757,2.10893891802,-0.808675776823,-0.594482789006,0.0336369838013,0.013082558293,0.0205380942169,0.00186236557378,0.00209958709804,-0.598274858707,0.573849831556,0.818925925707,0.00611930800718,0.0,0.818923751699,-0.573757841724,-0.0121068106928,0.0,-0.00640370349003,0.011958968195,-0.999907983597,0.0,0.283413603745,-0.235721714641,0.304873155477,1.0,-0.127943428571,-0.168154220408,2.997
-0.566675461029,-0.528460598858,-0.133569302138,-2.64726138957,-0.0721361961933,2.10901107536,-0.818389115031,-0.588918780086,0.0309164509051,0.0124966036598,0.024289789861,0.00277625067937,0.0104725251812,-0.559586361923,0.574007240723,0.818815451228,0.0061393264072,0.0,0.818813568801,-0.57391518674,-0.0121014411057,0.0,-0.00638551723901,0.0119735091105,-0.999907925886,0.0,0.281187675907,-0.238585620464,0.30487279943,1.0,-0.123241714286,-0.16197482449,3.014
-0.576638876103,-0.527687510894,-0.133199253115,-2.64669820569,-0.0719545612133,2.1091581852,-0.828334037728,-0.539585622951,0.0471430500609,0.0189610765861,0.0331749358861,0.0130141629784,0.0116678919997,-0.532054967152,0.573870717121,0.818911065607,0.00614927298951,0.0,0.818909342206,-0.573778703688,-0.0120927806139,0.0,-0.00637471270714,0.0119756203496,-0.999907969543,0.0,0.279029827595,-0.241414448992,0.304868344054,1.0,-0.118263428571,-0.155431934694,3.032
-0.585829729957,-0.526908905682,-0.132907612352,-2.64610259789,-0.0717996664328,2.10927657421,-0.837357185706,-0.53136293344,0.0466555185873,0.0120941886048,0.0368885391169,0.0130602852526,0.000320923111687,-0.522611669743,0.573901789465,0.818889178938,0.00616405455011,0.0,0.818887622722,-0.573809656522,-0.0120948888833,0.0,-0.00636750219697,0.0119891771792,-0.999907853028,0.0,0.277017048372,-0.244034600992,0.30487194006,1.0,-0.113561714286,-0.149252538776,3.049
-0.594223954035,-0.526082693041,-0.132662678895,-2.64547921758,-0.0716282292935,2.10940909613,-0.845517085489,-0.513371470021,0.0563814654559,0.0180607206299,0.0417672650104,0.0113477722079,0.00390350714003,-0.507672359515,0.574028861028,0.818799819056,0.00620241261186,0.0,0.818798650874,-0.573936319671,-0.0121085585295,0.0,-0.00635481801539,0.0120294207438,-0.99990745038,0.0,0.275175911761,-0.246435623791,0.304870570082,1.0,-0.109136571429,-0.143436636735,3.065
-0.602476315182,-0.525096215524,-0.132261090983,-2.64478934834,-0.0713994714149,2.10957421434,-0.853839001912,-0.469932044847,0.055752090667,0.0249914361957,0.041897992579,0.01106387638,0.00942205077409,-0.482017392419,0.573824699991,0.818942904658,0.00620318391189,0.0,0.818941270958,-0.57373130178,-0.0121792849206,0.0,-0.006415301703,0.0120690501991,-0.999906586603,0.0,0.27340424859,-0.248761033692,0.304847250998,1.0,-0.104434857143,-0.137257240816,3.082
-0.61012947935,-0.524209189179,-0.13195742133,-2.64413094624,-0.0712148776251,2.10972270363,-0.861321303441,-0.472587511492,0.0522359447937,0.0210294554788,0.0434063580885,0.010135387499,0.00905586673439,-0.458226447031,0.573865496273,0.818914248927,0.00621224541136,0.0,0.818912550324,-0.573771703056,-0.012207153453,0.0,-0.00643232511424,0.012092782731,-0.9999061905,0.0,0.271731403432,-0.250928988674,0.304841849991,1.0,-0.100009714286,-0.131441338776,3.098
-0.618396086367,-0.523177635687,-0.131634850121,-2.64331430468,-0.07097575643,2.10992447593,-0.869358349883,-0.451754144856,0.0591535732368,0.0170187176128,0.0453311141326,0.0156320498663,0.0189818307947,-0.432802290285,0.573972451145,0.818839050477,0.006243527943,0.0,0.818838024488,-0.573878989984,-0.0121631167461,0.0,-0.00637672822918,0.0120939648653,-0.999906532307,0.0,0.269937467822,-0.25328615604,0.304860127825,1.0,-0.0950314285715,-0.12489844898,3.116
-0.625638589103,-0.522121903326,-0.131277797992,-2.64250140162,-0.0707277361504,2.11012199889,-0.876600253319,-0.415323308792,0.0576720213616,0.0252782905912,0.0445608855756,0.0206080612465,0.0142524335703,-0.41472820118,0.573870935994,0.818910097048,0.00625689023924,0.0,0.818909266367,-0.573777475725,-0.0121560153662,0.0,-0.00636474357694,0.012100042275,-0.99990653514,0.0,0.268391032002,-0.255345408124,0.304867975516,1.0,-0.0903297142858,-0.118719053061,3.133
-0.631776127732,-0.521239315886,-0.130964457032,-2.64183627044,-0.0705333715635,2.11030134669,-0.88270137958,-0.409144303785,0.0621410345092,0.0209963946184,0.0447694150386,0.0219268510787,0.0160383968675,-0.401203822266,0.57379846368,0.818960921186,0.00625136382256,0.0,0.818960044518,-0.573705094027,-0.0121514390858,0.0,-0.0063652370284,0.0120923270882,-0.999906625332,0.0,0.267066062051,-0.257078237341,0.304869253633,1.0,-0.0861811428572,-0.113266644898,3.148
-0.638537704758,-0.52024803732,-0.130641991773,-2.64102972979,-0.0703023997283,2.1105006025,-0.889236791024,-0.385626572684,0.0586929586997,0.0208584310941,0.0467519888179,0.0110063231513,0.0114104879614,-0.376550202789,0.573905682185,0.818885736391,0.00625824199046,0.0,0.818885406176,-0.573813129195,-0.0120801993715,0.0,-0.00630136285901,0.0120579102477,-0.99990744553,0.0,0.265524135931,-0.259111240531,0.304900568539,1.0,-0.0812028571429,-0.106723755102,3.166
-0.645235065198,-0.519145991652,-0.130365025706,-2.64019612115,-0.0700419303619,2.1107157439,-0.895821097175,-0.364695456077,0.0635066799054,0.0144909461717,0.0460396947071,0.0164176731772,0.0105778569155,-0.347844268518,0.573950652453,0.818853795733,0.00631321341532,0.0,0.818854042278,-0.573857575561,-0.0120949294329,0.0,-0.00628121446356,0.0121117261525,-0.999906921885,0.0,0.264150224717,-0.260913715003,0.304895203673,1.0,-0.0765011428572,-0.100544359184,3.183
-0.650765691596,-0.518203367817,-0.130040417074,-2.63949086122,-0.0697896356207,2.11089773471,-0.901323100192,-0.336064503373,0.053490324391,0.0214747706493,0.0428703350225,0.0180996929444,0.012966845481,-0.342354054612,0.573889995161,0.818896091133,0.00634131547799,0.0,0.81889659149,-0.57379658712,-0.0121076817426,0.0,-0.00627642891331,0.0121415928105,-0.999906589719,0.0,0.262965199651,-0.262466618521,0.304892258769,1.0,-0.0720760000001,-0.0947284571429,3.199
-0.656319001654,-0.517243312888,-0.129657884439,-2.63876980749,-0.0695621104526,2.11109435578,-0.906767674286,-0.326233968896,0.054967901225,0.0269411954078,0.0471504867041,0.00807994249795,0.0100970238407,-0.30689510094,0.573843841635,0.818928626088,0.00631646200974,0.0,0.818928792878,-0.573750538157,-0.01211193877,0.0,-0.00629486109439,0.0121233274939,-0.999906695474,0.0,0.261781335727,-0.264015978021,0.304892410523,1.0,-0.0673742857144,-0.0885490612246,3.216
-0.661610401005,-0.516295821983,-0.129333625194,-2.63804340326,-0.0693240056493,2.11129933151,-0.911926758291,-0.299228425755,0.0554316378109,0.0206695157065,0.0420204307857,0.0162364614625,0.0163107190793,-0.293324226087,0.573862784072,0.818915293995,0.00632401925095,0.0,0.818915692849,-0.573769699892,-0.0120899293625,0.0,-0.00627221819015,0.0121170324201,-0.99990691407,0.0,0.260648946074,-0.26550611423,0.304898604518,1.0,-0.0626725714286,-0.0823696653062,3.233
-0.666174636432,-0.51538170229,-0.129048227757,-2.6373817683,-0.0690794969826,2.11148865251,-0.916415058691,-0.280701111855,0.0616373752397,0.0202038159097,0.0411859606182,0.0142503445209,0.0139010685889,-0.269624870629,0.5738624222,0.818915273956,0.0063593529118,0.0,0.818915934652,-0.573768793083,-0.0121165571781,0.0,-0.00627375628518,0.0121612464262,-0.99990636765,0.0,0.259678079078,-0.266791804001,0.30488511879,1.0,-0.0582474285715,-0.0765537632654,3.249
-0.671071624849,-0.514467308674,-0.128789962572,-2.63671644524,-0.0688496075976,2.11167437713,-0.921090070275,-0.265371282349,0.0490936327749,0.0127414834775,0.0400831026865,0.0103393916815,0.00796513384932,-0.249586555589,0.57399467447,0.818822275792,0.00639853486162,0.0,0.818823263577,-0.573900478099,-0.0121429470901,0.0,-0.00627091408945,0.0122094912301,-0.999905797543,0.0,0.258604678141,-0.268167797805,0.304871955901,1.0,-0.0532691428572,-0.0700108734695,3.267
-0.675229099955,-0.513668879672,-0.128415807516,-2.63610322859,-0.0686172509351,2.11184652938,-0.925143315096,-0.235381418817,0.0491707816014,0.0256965222704,0.0316969456705,0.0140138894351,0.00550150524594,-0.222618671022,0.573945932731,0.818856588685,0.00637968416239,0.0,0.818857450523,-0.573852067661,-0.012125471775,0.0,-0.00626814818751,0.0121836516891,-0.999906130069,0.0,0.257738729351,-0.269310364256,0.304879351422,1.0,-0.0485674285715,-0.0638314775511,3.284
-0.67854556255,-0.512973852921,-0.128046335728,-2.63557929157,-0.06842387772,2.11200651139,-0.928416018656,-0.210338859928,0.0480464162312,0.0279641642537,0.0358325337223,0.0151331047497,0.00992120404034,-0.210083676968,0.573829424208,0.818938609364,0.00633189602306,0.0,0.818938946738,-0.573735994696,-0.0121143224334,0.0,-0.0062881707707,0.0121372246058,-0.999906568979,0.0,0.257071242293,-0.270215347394,0.304883031566,1.0,-0.0444188571429,-0.0583790693878,3.299
-0.682227554243,-0.51221486318,-0.127681542987,-2.63501200177,-0.0681962714429,2.11216799656,-0.932012491731,-0.200295565013,0.0470393828747,0.0178036400451,0.0344508490239,0.0157384164818,0.00738568319816,-0.198078816205,0.573767198157,0.818982330533,0.00631597145052,0.0,0.818982450817,-0.573673836488,-0.0121169915454,0.0,-0.00630041570428,0.0121252355153,-0.999906637355,0.0,0.256312141762,-0.271220611514,0.30488258819,1.0,-0.0394405714286,-0.0518361795919,3.317
-0.685430967992,-0.511573025304,-0.127398136209,-2.63453288215,-0.0679740158193,2.11231563042,-0.935002221398,-0.190030540814,0.0402543196799,0.0160806696335,0.0271570487679,0.0114657610416,0.00814110372241,-0.17081513986,0.573860733291,0.818916622823,0.00633802435017,0.0,0.818917097999,-0.573767380918,-0.0121047966018,0.0,-0.00627638836145,0.0121370176373,-0.999906645518,0.0,0.255641465484,-0.272095884836,0.304882135115,1.0,-0.0347388571429,-0.0456567836736,3.334
-0.688086143293,-0.511036195603,-0.127137709772,-2.63412935702,-0.0677681502974,2.11244044121,-0.937465030306,-0.162593302979,0.0277788585045,0.0168899222723,0.0208144963287,0.0160070770035,0.00308704021484,-0.141660449862,0.573942035371,0.818859466821,0.00636085949418,0.0,0.818860326833,-0.573848730603,-0.0120891035955,0.0,-0.00624922609522,0.0121473340816,-0.999906690371,0.0,0.255092941726,-0.272814589045,0.304883593139,1.0,-0.0303137142858,-0.0398408816327,3.35
-0.690561387773,-0.510548014656,-0.126833642065,-2.63376540172,-0.0675555801588,2.1125472496,-0.93982547836,-0.14107427823,0.0291696268559,0.022398759094,0.0218286569004,0.00789734349045,0.00489368215194,-0.130630735811,0.573929437773,0.818868199078,0.00637337412381,0.0,0.818869248368,-0.57383613007,-0.0120829137456,0.0,-0.00623716156047,0.0121539339719,-0.999906685499,0.0,0.254592004909,-0.273464200113,0.304884507055,1.0,-0.0256120000001,-0.0336614857144,3.367
-0.692798351807,-0.510143540722,-0.126500593768,-2.63344218774,-0.0673380283312,2.11263023064,-0.941902364681,-0.113215980385,0.0205740747674,0.0161377309375,0.014971384777,0.00797968991187,0.00772882091075,-0.107273879387,0.573933029207,0.818865650303,0.00637743211728,0.0,0.81886689782,-0.573839986031,-0.0120590624778,0.0,-0.00621524614361,0.0121435961131,-0.999906947565,0.0,0.254151231782,-0.274032862888,0.304896505457,1.0,-0.0206337142858,-0.0271185959185,3.385
-0.694465579521,-0.509806590453,-0.126240600644,-2.63317351778,-0.0671607709862,2.11271660331,-0.943379182854,-0.0992550380885,0.0201054899897,0.0116888036505,0.0155785021345,0.010499233198,0.00763446413972,-0.0845293944157,0.573993361822,0.81882333734,0.00638041635478,0.0,0.818824844093,-0.573900723388,-0.0120241960807,0.0,-0.0061840858649,0.0121264856309,-0.999907348422,0.0,0.25383509139,-0.274462684153,0.304907231622,1.0,-0.0197072727273,-0.025900987013,3.401
-0.696058066222,-0.50946796903,-0.126031131073,-2.63293236868,-0.0670022839735,2.11277985145,-0.944953529864,-0.0936432027983,0.0177772375426,0.012799282895,0.00930201244335,0.00825875133371,0.00357536281377,-0.0953380322012,0.573939327863,0.818861039658,0.00640254349156,0.0,0.818862707657,-0.573846353693,-0.0120405673664,0.0,-0.00618559436655,0.0121535932351,-0.999907009973,0.0,0.25351583569,-0.27487485661,0.304901616209,1.0,-0.0193672727273,-0.0254541298701,3.418
-0.697599661808,-0.509142680705,-0.125858840901,-2.63266621238,-0.0669421820189,2.11281270172,-0.946471663966,-0.0870422251654,0.0181849586488,0.00709021052748,0.0189850759918,0.00125487406401,0.00157670903512,-0.0806367772255,0.573875141456,0.818906367296,0.00635850004837,0.0,0.818907365638,-0.573782190983,-0.0120611241374,0.0,-0.00622865718471,0.0121288353622,-0.999907043271,0.0,0.253193221884,-0.275293551978,0.304908727837,1.0,-0.0190272727273,-0.0250072727273,3.435
-0.698974440513,-0.508806954373,-0.125733002106,-2.63242120023,-0.0668711256368,2.11291793858,-0.94782175577,-0.0833616956331,0.0209440486868,0.00689997998027,0.0178132740516,0.00970239659365,0.0075492771565,-0.0813297849865,0.573848733541,0.818925034262,0.00633767893814,0.0,0.818925914546,-0.573756179568,-0.0120390943866,0.0,-0.00622295313926,0.0120989415293,-0.99990744095,0.0,0.252912319402,-0.275683258978,0.304907413617,1.0,-0.0187072727273,-0.0245867012987,3.451
-0.700373802374,-0.508460075409,-0.125662832175,-2.63216672679,-0.06682353481,2.11298224463,-0.949250052775,-0.0827679508098,0.021941981901,-0.000242118345554,0.0153818756424,0.00526526272096,0.000230991583913,-0.0705677746488,0.573808575067,0.818953225469,0.00633092214106,0.0,0.818953891238,-0.573715814296,-0.0120596581119,0.0,-0.00624426597889,0.0121049016164,-0.999907235947,0.0,0.252604557586,-0.276089129806,0.304901405154,1.0,-0.0183672727273,-0.0241398441559,3.468
-0.701866850117,-0.508088875096,-0.125625090652,-2.63191232592,-0.0667761284829,2.1130188531,-0.950729424184,-0.0807686250666,0.013804020532,0.00301204381915,0.0105425007529,0.00335541435145,0.00360810318364,-0.0835483890606,0.573826491128,0.818940545962,0.00634721678511,0.0,0.818940969611,-0.57373277305,-0.0121301410286,0.0,-0.00629237917705,0.0121588262267,-0.999906280063,0.0,0.252257994717,-0.276520555674,0.304883174832,1.0,-0.0179872727273,-0.0236404155844,3.487
-0.703111868268,-0.507757219251,-0.125607727391,-2.63166916696,-0.0667276842262,2.11310468073,-0.952059866404,-0.0749628584433,0.0232925267068,-0.00194000972055,0.0147117661615,0.00285654191473,0.00816558093001,-0.0744847914485,0.573777466829,0.818974771411,0.00636311658709,0.0,0.818975424105,-0.573683728605,-0.0121235781207,0.0,-0.00627860905352,0.0121677063146,-0.999906258602,0.0,0.251980572448,-0.27689825592,0.30487819951,1.0,-0.0176672727273,-0.0232198441559,3.503
-0.704439411315,-0.507430138729,-0.125594304918,-2.63141924201,-0.0666743567275,2.11316444594,-0.953340048564,-0.0805544399781,0.0242297667843,0.0032970580062,0.0128963532024,0.00139551505872,0.00233269423914,-0.0797046250037,0.573842394442,0.818929093325,0.00638696706528,0.0,0.818929997541,-0.573748416501,-0.0121309765403,0.0,-0.00627001809665,0.0121919822813,-0.999906016804,0.0,0.251676912701,-0.277294847766,0.304875649679,1.0,-0.0173272727273,-0.022772987013,3.52
-0.705740299166,-0.507127489996,-0.125596994225,-2.63118797692,-0.06664584884,2.11319862125,-0.954684396765,-0.0695690916033,0.0197699681928,0.00161537044975,0.0139266177756,-0.00116481846295,-0.00107530558262,-0.0832445608631,0.573832874292,0.818935628058,0.00640440314141,0.0,0.818936562985,-0.573738434778,-0.0121598177079,0.0,-0.00628377669985,0.0122227383684,-0.999905554949,0.0,0.25136658944,-0.277681771572,0.304871097859,1.0,-0.0169872727273,-0.0223261298701,3.537
-0.706930268677,-0.506850996819,-0.125599468155,-2.63095591966,-0.0666085128036,2.11326554658,-0.95586636347,-0.075105747576,0.0171904797582,-0.00100716882434,0.0133470941751,0.00254761930193,0.00113761985104,-0.0748379464371,0.573868993263,0.818910203693,0.00641901544193,0.0,0.818911512279,-0.573774834523,-0.0121293539163,0.0,-0.00624990249328,0.0122175009885,-0.99990583126,0.0,0.251093058174,-0.278045203148,0.304879397007,1.0,-0.0166672727273,-0.0219055584416,3.553
-0.708238764414,-0.506536415637,-0.125592545125,-2.63069293697,-0.0665688015244,2.11333732775,-0.957142378779,-0.0737739439869,0.0171103893334,0.000523966346684,0.016937062876,0.000878862675929,0.00303022230769,-0.0746167789849,0.573921042126,0.818873651188,0.00642866207545,0.0,0.818875258612,-0.573827166186,-0.0121012842856,0.0,-0.00622060167174,0.0122096890822,-0.999906109396,0.0,0.250795018099,-0.278444300949,0.304888193173,1.0,-0.0163072727273,-0.0214324155844,3.571
-0.709374772994,-0.506273200623,-0.12557897735,-2.63048458132,-0.0665273490496,2.11337060546,-0.958351639858,-0.0710061829405,0.0164446831416,0.00026318341478,0.0176083865619,0.00279837406457,0.00265349316399,-0.0699461695365,0.573879812422,0.818902389816,0.00644854635028,0.0,0.818904157298,-0.573785659003,-0.0121138591683,0.0,-0.0062201045619,0.0122328761628,-0.999905829086,0.0,0.250529794355,-0.278778739664,0.304888128844,1.0,-0.0159872727273,-0.0210118441559,3.587
