imanlab/proactive-slip-control/data_set/data_sample_2022-02-21-09-58-49/robot_state.csv
position_joint1,position_joint2,position_joint3,position_joint4,position_joint5,position_joint6,position_joint7,velocity_joint1,velocity_joint2,velocity_joint3,velocity_joint4,velocity_joint5,velocity_joint6,velocity_joint7,ee_T_00,ee_T_10,ee_T_20,ee_T_30,ee_T_01,ee_T_11,ee_T_21,ee_T_31,ee_T_02,ee_T_12,ee_T_22,ee_T_32,ee_T_03,ee_T_13,ee_T_23,ee_T_33,v_x,v_y,time
0.465061682672,0.547640892957,-0.12396898191,-1.35574410926,0.0794667793751,1.89408744462,0.159170821549,0.000755894533182,-0.00216387059507,-0.00119188980336,0.00106369230284,0.00305834960149,0.00025745764941,0.00243326387886,0.573797452057,0.818982753712,0.00211660984507,0.0,0.818942058427,-0.573738492556,-0.0117810865061,0.0,-0.0084342885128,0.00849350176928,-0.999928359036,0.0,0.661699086773,0.260900002289,0.303354228768,1.0,0.0,0.0,0.0
0.465059457361,0.547645418194,-0.123963995547,-1.35574939897,0.0794667399466,1.89408756383,0.15916186398,-4.82694757974e-05,-0.0022742676326,0.000122369309176,-0.000756129762472,0.00037637010148,0.000128790450245,-0.00838350168089,0.573788743006,0.818988873265,0.00210968477917,0.0,0.818948056956,-0.573729780409,-0.0117883832937,0.0,-0.00844432834574,0.00849192737878,-0.999928287673,0.0,0.661697215218,0.260900728286,0.303348350318,1.0,-0.00018,-0.000236571428571,0.01
0.465051306905,0.547642174197,-0.123966755556,-1.35574791371,0.0794646615617,1.89408685176,0.159166128999,-0.00141495992585,-0.00337809283673,-0.000206367828558,0.000133410481482,-0.000452689887913,-0.00011273086137,-0.00172831041349,0.573800196674,0.818980844455,0.00211130629849,0.0,0.81894008338,-0.573741260696,-0.0117835694631,0.0,-0.00843933661556,0.00849061130216,-0.999928340991,0.0,0.661700376673,0.260893572157,0.303351381063,1.0,-0.0004,-0.000525714285714,0.021
0.465056648338,0.547640458988,-0.123966630211,-1.35577542236,0.0794685139889,1.89409042335,0.159172895607,-0.00157763074509,0.00168201254667,0.000351083222545,-0.00452279782532,0.00206938655814,0.000293592947834,0.00114976767704,0.573799518123,0.818981358731,0.00209617614088,0.0,0.818940357716,-0.573740598037,-0.0117967609601,0.0,-0.00845882882576,0.00848578237059,-0.99992821728,0.0,0.661694227104,0.260894374813,0.303341692126,1.0,-0.00076,-0.000998857142857,0.039
0.465053079789,0.547584224211,-0.123967239369,-1.35583148163,0.0794634212273,1.89410296455,0.159173487974,-0.000191879853699,-0.00691882945048,-0.000856534577822,-0.00779645868563,0.000377529101977,0.000741699944384,0.00153246449561,0.573809352517,0.818974444047,0.00210567395902,0.0,0.818933559659,-0.573750387079,-0.0117925863185,0.0,-0.00844985826098,0.00849126687386,-0.999928246567,0.0,0.661685681767,0.260886198349,0.303354069958,1.0,-0.0011,-0.00144571428571,0.056
0.465049678838,0.547469326483,-0.123964603696,-1.3560019153,0.0794625579825,1.89413650481,0.159166824015,-0.00211725629235,-0.00477663469631,0.000195237169648,-0.00996283224399,8.87210564254e-05,0.00566105010574,-0.00032188208763,0.573813943405,0.818971257607,0.00209391255172,0.0,0.818930083677,-0.573754886602,-0.0118150349186,0.0,-0.0084749446162,0.00849456330595,-0.999928006262,0.0,0.661656662016,0.260868885695,0.303357163842,1.0,-0.00144,-0.00189257142857,0.073
0.465031928305,0.547297093835,-0.123967141178,-1.35623009081,0.0794590843786,1.89421525879,0.159155382249,-7.43022423596e-05,-0.00697075801591,-0.00246324115843,-0.00411040272274,0.000212111172285,0.00690022732469,-0.000563919782738,0.57383265408,0.818958082968,0.00211904574787,0.0,0.818917150259,-0.573773409798,-0.011811948311,0.0,-0.00845780127953,0.00851356846686,-0.999927989782,0.0,0.661630011489,0.260835639363,0.303377478532,1.0,-0.00182,-0.002392,0.092
0.465023334942,0.547137801524,-0.123961579952,-1.35643238824,0.0794570322458,1.8943185786,0.159146036928,0.000770948483994,-0.00844397739967,5.92427345222e-05,-0.0176384803298,4.67592744343e-05,0.00277940886703,-0.000725574391887,0.573839072944,0.818953433958,0.00217675722096,0.0,0.818913172238,-0.573779521937,-0.0117908202274,0.0,-0.00840731586366,0.0085487730999,-0.999928115176,0.0,0.661609519959,0.260817946072,0.303402808334,1.0,-0.00212,-0.00278628571429,0.107
0.465010254757,0.54693915125,-0.12395940146,-1.35666217552,0.0794541788992,1.89444813392,0.159126735692,-0.00312139911024,-0.0132275124439,0.00128376112701,-0.0159119528702,0.000132447716947,0.00436642553816,-0.00437986181738,0.573844763588,0.818949202854,0.00226657204931,0.0,0.818910061825,-0.573784820045,-0.0117489500869,0.0,-0.0083214288859,0.00859835768708,-0.999928408471,0.0,0.661590981865,0.260794236874,0.303445315278,1.0,-0.00246,-0.00323314285714,0.124
0.464989984626,0.546714738169,-0.123961583527,-1.35696108991,0.0794454779777,1.89457331974,0.159113619151,-0.000162856315173,-0.0134688841119,1.30799474951e-06,-0.0186615918128,0.000127092701233,0.00836604195898,0.000595410384607,0.573866601441,0.818933767144,0.00231423508782,0.0,0.818895196176,-0.573806425168,-0.0117299197074,0.0,-0.00827826375373,0.00862669124441,-0.999928522719,0.0,0.661559585374,0.260754126548,0.303472908139,1.0,-0.00278,-0.00365371428571,0.14
0.464957999473,0.546470261099,-0.123959415928,-1.35732094542,0.0794331316947,1.89470586048,0.159013377014,0.000190836581157,-0.0135988486519,0.00104952676749,-0.0268491422208,-0.000169160095374,0.00968818012224,-0.00587725163799,0.573826018701,0.818962143772,0.00233542952598,0.0,0.818923748779,-0.57376566476,-0.0117304104796,0.0,-0.00826693200327,0.00864391986789,-0.999928467684,0.0,0.661518444913,0.260701717661,0.303486178127,1.0,-0.0031,-0.00407428571429,0.156
0.46491118878,0.546144043585,-0.123964375415,-1.35781701657,0.07941910578,1.89488142178,0.158947638924,-0.00269037681623,-0.0163949976072,-0.0013432909852,-0.0314847737737,0.000153832163267,0.00376945069351,-0.0039391153461,0.57383794278,0.818953752245,0.00234819303265,0.0,0.818915395528,-0.573777406333,-0.0117392440175,0.0,-0.00826671698877,0.00865956178633,-0.999928334122,0.0,0.661462347936,0.260622928448,0.303496447345,1.0,-0.00348,-0.00457371428571,0.175
0.464872960967,0.545863936629,-0.123963710528,-1.35826008611,0.0793952637256,1.89504151053,0.158918319428,-0.00221123644639,-0.0198601751288,0.000253204422888,-0.031464829839,-0.00421743378827,0.0148334110876,-0.00223270026844,0.573863199841,0.818936057508,0.00234701560292,0.0,0.818897650993,-0.573802628513,-0.0117442586235,0.0,-0.0082712323802,0.00866173016264,-0.999928278001,0.0,0.661411097579,0.260556119105,0.303497725383,1.0,-0.00378,-0.004968,0.19
0.464805766608,0.54548199176,-0.123967205815,-1.35890280301,0.0792873104018,1.8952583879,0.15881594642,-0.00581291588114,-0.0170891052302,-0.000759308200053,-0.03726576815,-0.00373520650751,0.0162699644929,-0.00540121786268,0.573843998955,0.818949727671,0.00227053142458,0.0,0.818910914556,-0.573784326574,-0.0117135605396,0.0,-0.00829018148122,0.00858128460379,-0.999928814689,0.0,0.661341177621,0.260435613419,0.303480966883,1.0,-0.00416,-0.00546742857143,0.209
0.464752489423,0.545157954238,-0.123967520999,-1.35944739056,0.079271896241,1.89544128894,0.158734297529,-0.00297947656922,-0.0216766574729,-0.000646848477501,-0.0365497833927,-0.000545742180693,0.0063759423347,-0.00399262909197,0.573847221843,0.818947531614,0.00224796527405,0.0,0.818908242603,-0.573787445158,-0.0117475477413,0.0,-0.00833093137011,0.00858234016348,-0.999928466951,0.0,0.661275890829,0.26034972716,0.303467010165,1.0,-0.00444,-0.00583542857143,0.223
0.464677257756,0.544740382143,-0.123967560089,-1.36013665225,0.0792550439595,1.89566926713,0.158686959257,-0.00833452487923,-0.0236852929982,-0.00135070897831,-0.0396458807488,-0.00114223490828,0.0140494305829,-0.00254703987495,0.573903940535,0.818907850534,0.00222402184368,0.0,0.81886799344,-0.573843984415,-0.0117914278993,0.0,-0.00838001266073,0.00858849259552,-0.999928004,0.0,0.661194478767,0.260236369567,0.303454274854,1.0,-0.00478,-0.00628228571429,0.24
0.464605768814,0.544253612475,-0.123970804277,-1.36094901378,0.0792225139994,1.89595676987,0.158559529384,-0.000279547742559,-0.0240345790081,-0.000525880848349,-0.0452167762218,-0.00357096402071,0.0219578618845,-0.0124727673758,0.573897029956,0.818912760099,0.00219937632057,0.0,0.818872422783,-0.573837007157,-0.0118233380631,0.0,-0.00842036099948,0.00858655253255,-0.999927681703,0.0,0.661099001594,0.260111436047,0.303437127064,1.0,-0.00516,-0.00678171428571,0.259
0.46452081826,0.543791376265,-0.123971175595,-1.36169984004,0.0791835680606,1.89622579408,0.158461215204,-0.00345062246052,-0.0264684025935,0.00110729966812,-0.0482654234833,0.000421160677305,0.0150451698668,-0.00247101831738,0.573917796281,0.818898243336,0.00218565188325,0.0,0.818857653662,-0.57385774962,-0.0118394739011,0.0,-0.00844123362838,0.00858478782705,-0.99992752087,0.0,0.661016439649,0.259983965429,0.303430145225,1.0,-0.00548,-0.00720228571429,0.275
0.464438237833,0.543282739833,-0.123976462764,-1.36254089561,0.0791343596425,1.8965151451,0.158366244005,-0.00405885893259,-0.0296117362521,-0.000324735501383,-0.0486297022926,-0.00147764991115,0.0240839685186,-0.00437150089913,0.573944982342,0.818879289014,0.00214806171302,0.0,0.818838184206,-0.573885055005,-0.011862488338,0.0,-0.00848136879446,0.00856749556319,-0.999927329561,0.0,0.660919354699,0.259844837984,0.303414905251,1.0,-0.00582,-0.00764914285714,0.292
0.464356029709,0.542735589013,-0.123983426241,-1.36342969728,0.0790848189226,1.89683140451,0.158257325701,-0.00476544939248,-0.0343620435854,-0.000164892515344,-0.0513148256905,0.000121530444935,0.0201967364424,-0.0140857069201,0.573964183718,0.818865887034,0.00212644360036,0.0,0.818824472219,-0.573904311704,-0.0118773567393,0.0,-0.00850575087319,0.00855852620253,-0.999927199266,0.0,0.660817830432,0.259701605646,0.303406516311,1.0,-0.00616,-0.008096,0.309
0.464291063314,0.542178659986,-0.123986645705,-1.36429436439,0.0790376349323,1.89714437463,0.158150576078,-0.0050327480776,-0.0375505731992,0.000557302337728,-0.0511833837346,-0.00172284721651,0.0132316676134,-0.00540664554949,0.573967645407,0.818863444023,0.00213283147463,0.0,0.818822066564,-0.573907701183,-0.0118794247157,0.0,-0.0085037419505,0.00856497981097,-0.999927161094,0.0,0.660715869901,0.259575097102,0.303416054752,1.0,-0.00648,-0.00851657142857,0.325
0.464211450571,0.541557375964,-0.123990272653,-1.36525988895,0.078969608223,1.89750247325,0.158008681455,-0.00225559115744,-0.0424948263085,-0.00154804804022,-0.0532962520026,-0.00292849288515,0.0195802174789,-0.00779079315327,0.573954637747,0.818872547316,0.00213821499494,0.0,0.818831336263,-0.573894770647,-0.0118651539707,0.0,-0.00848910189364,0.00856106241754,-0.999927319038,0.0,0.66060626544,0.259427246511,0.303426916587,1.0,-0.00682,-0.00896342857143,0.342
0.46413592002,0.540908924038,-0.123990753491,-1.36628403859,0.0789136333087,1.89787596972,0.157870711178,-0.0046584898398,-0.0465685840455,0.0011746252099,-0.0598018543214,-0.00473112836555,0.0197306658832,0.000776406677852,0.573954524654,0.818872605364,0.00214632584179,0.0,0.818831447277,-0.573894572071,-0.0118670973364,0.0,-0.00848603954603,0.0085688182824,-0.999927278599,0.0,0.660478500612,0.259273145984,0.30343545756,1.0,-0.00718,-0.00943657142857,0.36
0.464053784995,0.540134476735,-0.123992420089,-1.36747364586,0.0788456735628,1.89831622502,0.15772543374,-0.00587963461004,-0.042898653617,-0.000189783530472,-0.0670196219897,-0.00115301932736,0.0273866527394,-0.00821143617299,0.573942858373,0.818880741004,0.0021619984526,0.0,0.818839733876,-0.573882791078,-0.0118650423984,0.0,-0.00847548418425,0.00858035178476,-0.999927269221,0.0,0.660343205952,0.259112946714,0.30344959989,1.0,-0.00754,-0.00990971428571,0.378
0.463966982537,0.539484671205,-0.123985334914,-1.36848783141,0.0787905546155,1.89869789572,0.157607120684,-0.00416640109984,-0.0444455929666,0.000938655164828,-0.0708841281474,-0.0098329597476,0.0243779270465,-0.00794069273887,0.573953502382,0.818873230203,0.00218102318713,0.0,0.818832381235,-0.573893267309,-0.0118657524061,0.0,-0.00846503545678,0.00859644806998,-0.999927219479,0.0,0.660225960256,0.25896486777,0.30345889079,1.0,-0.00784,-0.010304,0.393
0.463866440101,0.538649106409,-0.123987816597,-1.36978569772,0.0787122425335,1.89919786658,0.157437298621,-0.00431198679474,-0.0457702799885,0.00213838293154,-0.0683323231826,-0.00508793507572,0.0286333448869,-0.0116459681574,0.573949397891,0.81887602573,0.00221134490778,0.0,0.818835597535,-0.573889069979,-0.0118467915075,0.0,-0.00843214921975,0.00861035255753,-0.999927377707,0.0,0.660078416734,0.258775220613,0.303474835266,1.0,-0.00822,-0.0108034285714,0.412
0.463780653371,0.538003031198,-0.12399803589,-1.37078174995,0.0786546523759,1.8995866312,0.157311203436,-0.0112186758502,-0.0449275896448,-0.0010821634057,-0.0698212901836,-0.000583203278708,0.0304303335266,-0.0093423095259,0.573963239869,0.818866239637,0.00224226762187,0.0,0.818826260691,-0.573902837224,-0.0118251904949,0.0,-0.00839656718348,0.00862341828832,-0.999927564535,0.0,0.659970117901,0.258619977361,0.30349108407,1.0,-0.0085,-0.0111714285714,0.426
0.463662478527,0.537142896944,-0.123994258736,-1.37212474662,0.0785839286055,1.90008807408,0.157149036097,-0.009238702398,-0.0466413364596,-0.000307015495055,-0.078352535496,-0.00866610681576,0.0365012324518,-0.00933556147862,0.573979671267,0.818854662611,0.00226393306967,0.0,0.818814848965,-0.573919062397,-0.0118279260016,0.0,-0.00838619947109,0.00864289749525,-0.999927483361,0.0,0.659815236649,0.258418639772,0.303502556247,1.0,-0.00886,-0.0116445714286,0.444
0.463567393555,0.536447597591,-0.123999509854,-1.37317752469,0.0785206280394,1.90049132245,0.15701868576,-0.00388799084457,-0.0470872512876,1.06788074281e-05,-0.0716886628283,-0.00435705833038,0.0302555930245,-0.0112564296679,0.573995507088,0.818843457875,0.0023013561921,0.0,0.818804166061,-0.57393478799,-0.0118043922383,0.0,-0.00834528165282,0.00866019488194,-0.999927676034,0.0,0.659699135165,0.258254139007,0.30352741499,1.0,-0.00914,-0.0120125714286,0.458
0.463454480262,0.535588165517,-0.124002691831,-1.37454259015,0.0784305726629,1.90098618807,0.156855943679,-0.00479230872077,-0.0498300768574,0.000111400973967,-0.0772657156848,-0.00460857185195,0.0309434559633,-0.0149192711031,0.574007755767,0.818834912932,0.00228660962601,0.0,0.818795481343,-0.573947145687,-0.0118059557165,0.0,-0.00835489651066,0.00864914229766,-0.999927691407,0.0,0.659538534553,0.258046073475,0.303527213053,1.0,-0.00948,-0.0124594285714,0.475
0.463321595123,0.534684838507,-0.124008172755,-1.37598024746,0.078360043106,1.90151582577,0.156673287042,-0.0103517016637,-0.0544872607525,-0.00179817160314,-0.0889706767782,-0.00644013649458,0.0382522268599,-0.0130238237399,0.574030861556,0.818818707362,0.00228940091988,0.0,0.81877917423,-0.573970095121,-0.0118211951659,0.0,-0.00836552914383,0.00866041138012,-0.999927504971,0.0,0.659373424641,0.257820983764,0.303526397342,1.0,-0.00982,-0.0129062857143,0.492
0.463190723793,0.533776435324,-0.124011586883,-1.37745852932,0.0782682378186,1.90205114597,0.156490032441,-0.0121771051549,-0.0567536281095,-0.00221203082334,-0.0841390460561,-0.00628874060046,0.0334661886446,-0.00942377197849,0.574046684574,0.818807705381,0.00225664335119,0.0,0.818767746043,-0.573986043349,-0.0118383690109,0.0,-0.00839822766878,0.00864360968802,-0.999927376255,0.0,0.659199946508,0.257590646524,0.303510040259,1.0,-0.01016,-0.0133531428571,0.509
0.463064047326,0.532911636466,-0.124014816117,-1.37885215027,0.0781914070063,1.90258541898,0.156318226039,-0.00669339855878,-0.0522577450028,0.000811973759001,-0.0846510661636,0.000782074750037,0.0351952280072,-0.00610218441726,0.574071585524,0.818790256367,0.00225336947513,0.0,0.818750185357,-0.574010882925,-0.0118485088503,0.0,-0.00840814688001,0.00864700541888,-0.999927263536,0.0,0.659029705529,0.25735833197,0.303497339652,1.0,-0.0105,-0.0138,0.526
0.462916149302,0.531892723493,-0.124024504569,-1.38050538747,0.0780964843128,1.90320003848,0.156108036575,-0.00910683325596,-0.0613612309409,-8.16819003431e-05,-0.0906347805539,-0.00360288323981,0.0332042764998,-0.00797571817644,0.57408842664,0.818778473145,0.00224437373326,0.0,0.818738292172,-0.574027764522,-0.0118524845587,0.0,-0.00841638841467,0.00864209531657,-0.99992723665,0.0,0.65885220272,0.257115410032,0.303487978636,1.0,-0.01084,-0.0142468571429,0.543
0.462776277071,0.530843654715,-0.124025092718,-1.38221592755,0.0779936136631,1.90380464849,0.155888336283,-0.00798084530432,-0.0634391251485,-0.00264127588806,-0.098065366582,0.00116848170892,0.029452850145,-0.014025409966,0.574088885995,0.818778283427,0.00219555612921,0.0,0.818737394905,-0.574028343539,-0.0118863745253,0.0,-0.00847215699729,0.00862158540759,-0.999926942742,0.0,0.658643131274,0.25685805646,0.303465547741,1.0,-0.0112,-0.01472,0.561
0.462642899228,0.52987394889,-0.124031150444,-1.38378035152,0.0778993244375,1.90435929419,0.155700209102,-0.0100347016182,-0.0602970491067,0.000995749943648,-0.097805376663,-0.00861341092934,0.0257608648203,-0.0145335468704,0.574107902501,0.81876504492,0.00215972327315,0.0,0.818723657002,-0.574047468462,-0.0119090015899,0.0,-0.00851105440832,0.00860543414121,-0.999926751545,0.0,0.658454749782,0.2566161286,0.303452359196,1.0,-0.01152,-0.0151405714286,0.577
0.462497090014,0.528834574203,-0.124034556421,-1.38543354908,0.0777811605698,1.90497447245,0.155458687185,-0.00322751030221,-0.0582431523394,0.000328091756948,-0.0932064029079,-0.00832485222902,0.0317690664101,-0.0144582489671,0.574089810136,0.818777758331,0.00214924657734,0.0,0.818736389653,-0.574029577952,-0.0118959991556,0.0,-0.00850661219465,0.00858920364859,-0.999926928895,0.0,0.65826298787,0.256358214601,0.30345088976,1.0,-0.01186,-0.0155874285714,0.594
0.462373576931,0.527864998899,-0.124027254223,-1.38695641763,0.0776921841571,1.90556604651,0.155248278274,-0.00888121043889,-0.0626951775354,0.0013585664409,-0.102124265049,-0.0114913456717,0.0387518515674,-0.0173434871639,0.574073048652,0.818789380298,0.00219827751513,0.0,0.81874864988,-0.574012622227,-0.0118703304883,0.0,-0.00845762433906,0.00861443941414,-0.999927127357,0.0,0.658077228493,0.256120780213,0.303470494805,1.0,-0.01218,-0.016008,0.61
0.4622212462,0.526624722849,-0.124034753735,-1.38882711825,0.0775831663783,1.90627159156,0.154994853763,-0.0100390149718,-0.06980767209,-0.00221063090278,-0.103788072485,-0.00434795595805,0.0373020606858,-0.0176344086872,0.574066451663,0.818793869185,0.00224850214311,0.0,0.818753742515,-0.574005776683,-0.0118500782183,0.0,-0.00841228013792,0.00864386832067,-0.999927255896,0.0,0.65786672458,0.255858752389,0.303503591957,1.0,-0.01252,-0.0164548571429,0.627
0.462067863876,0.525384395325,-0.124035467057,-1.39077505108,0.0774560824989,1.90698043739,0.154734801389,-0.0151895497997,-0.0681742224999,0.000703232019141,-0.108511623088,-0.00115970158902,0.0390909196512,-0.0134860621979,0.574050231389,0.818805252698,0.00224430329427,0.0,0.818765107621,-0.573989612126,-0.0118478105744,0.0,-0.00841300473034,0.00863896195675,-0.999927292201,0.0,0.657630092524,0.255570091264,0.303510462905,1.0,-0.01288,-0.016928,0.645
0.461920892061,0.524267259464,-0.124035005209,-1.39253540665,0.0773456828398,1.90760154615,0.154483361522,-0.00827238456432,-0.0726019506423,0.000738557233692,-0.117094240117,-0.00950077381629,0.034426610865,-0.014304601006,0.574029036866,0.818820165609,0.0022244389452,0.0,0.818779719593,-0.573968454981,-0.0118629832026,0.0,-0.0084370545254,0.00863118849506,-0.999927156695,0.0,0.657413329997,0.255303767547,0.303512018423,1.0,-0.0132,-0.0173485714286,0.661
0.461766193704,0.523072107782,-0.124036126072,-1.39443400054,0.0772277040052,1.90831631785,0.154226327929,-0.00829897586407,-0.0760121253666,0.00652883245637,-0.108857524277,-0.00299738251706,0.0539271414595,-0.01401616204,0.574016157965,0.818829176788,0.00223081526773,0.0,0.818788828912,-0.573955568032,-0.0118577601077,0.0,-0.00842925339262,0.00863327873705,-0.999927204443,0.0,0.65718699397,0.255021195537,0.303510519826,1.0,-0.01354,-0.0177954285714,0.678
0.461595207606,0.521748808836,-0.12404366368,-1.39651409959,0.0770996166235,1.90912578194,0.153951678287,-0.0117957687277,-0.0714891637906,-0.00183969034305,-0.116149509805,-0.00708656749008,0.0426357349267,-0.019661118602,0.574013618574,0.818830848174,0.00227039020341,0.0,0.818791091354,-0.573952952353,-0.0118281065829,0.0,-0.00838228277027,0.00864863604605,-0.999927466585,0.0,0.656945693902,0.254709130275,0.303520752761,1.0,-0.0139,-0.0182685714286,0.696
0.461441448274,0.520577451672,-0.124049960799,-1.39839924776,0.0769840129991,1.9098416249,0.153694985168,-0.00396874204734,-0.070417748508,-0.000604974018767,-0.11565925207,-0.0104989377512,0.0404627663006,-0.00714886228796,0.574003383046,0.818838030196,0.00226791915563,0.0,0.818798271136,-0.573942758548,-0.0118257344954,0.0,-0.00838186674043,0.00864514633695,-0.999927500249,0.0,0.656721621421,0.254425971123,0.303508545655,1.0,-0.01422,-0.0186891428571,0.712
0.461266205384,0.519239110674,-0.12405706449,-1.40044315293,0.0768530728906,1.91056857614,0.153424257591,-0.0117481495326,-0.0774963772331,-6.30300455512e-05,-0.122121443047,-0.0155611863906,0.0435185946887,-0.0121282535434,0.574003367347,0.818838000979,0.00228239544658,0.0,0.818798454344,-0.573942711725,-0.0118153173285,0.0,-0.00836502764307,0.00865102035565,-0.999927590458,0.0,0.656472491425,0.254109954051,0.303538591577,1.0,-0.01456,-0.019136,0.729
0.461087646105,0.517881117956,-0.124063191426,-1.40254251641,0.0767184448342,1.91133549585,0.153128758778,-0.0123078892264,-0.0797446241077,-0.000418514420881,-0.12795532005,-0.00887044049763,0.0446675050423,-0.0201679139451,0.573986890753,0.81884950314,0.00229942432162,0.0,0.818810221229,-0.573926216484,-0.0118011247188,0.0,-0.00834380585564,0.00865664968958,-0.999927719048,0.0,0.656218826334,0.253788158417,0.303559075468,1.0,-0.0149,-0.0195828571429,0.746
0.460912460456,0.516622190617,-0.124068479059,-1.4045480803,0.0765888815964,1.91206861312,0.15285907074,-0.00721862810642,-0.081539365079,-0.00109837160644,-0.119154043936,-0.00903151820286,0.046119961529,-0.0158526490684,0.573984358159,0.818851327539,0.0022818584234,0.0,0.818811858408,-0.573923794364,-0.0118053248565,0.0,-0.00835735399117,0.00864465098322,-0.999927709709,0.0,0.655975948577,0.253477478931,0.303551389766,1.0,-0.01522,-0.0200034285714,0.762
0.460713277883,0.515156680034,-0.124080787627,-1.40685739171,0.0764443632504,1.91293796331,0.152540982219,-0.0151138674761,-0.0822494541455,-0.00699543983687,-0.127553690241,-0.00360754577795,0.0466253288363,-0.0187146798353,0.573978683429,0.818855262384,0.00229720188334,0.0,0.818816064647,-0.573918135998,-0.0117886534451,0.0,-0.00833495556078,0.00864758808251,-0.999927871267,0.0,0.655701391614,0.253120482921,0.303555634589,1.0,-0.01558,-0.0204765714286,0.78
0.460561751779,0.514012662212,-0.124080197214,-1.40872993426,0.0763323298683,1.91359685703,0.152291857168,-0.00974886729241,-0.0855631912182,0.00071286639531,-0.131581496882,-0.0102566616607,0.0402944579304,-0.0162615864393,0.573966525011,0.818863946193,0.00223890455573,0.0,0.818823879643,-0.573906090047,-0.0118321948255,0.0,-0.0084041985942,0.00862471831425,-0.999927489211,0.0,0.655462504715,0.252840942756,0.303523390788,1.0,-0.01586,-0.0208445714286,0.794
0.460360153589,0.512614520051,-0.124082848613,-1.41099913566,0.0761995921488,1.91437477176,0.151964660932,-0.0102272500242,-0.079262862312,-0.00060933977489,-0.132120312426,-0.00819857051394,0.0436623680756,-0.0142241267294,0.573948536089,0.818876758081,0.00216330715937,0.0,0.818835530104,-0.573888222088,-0.0118924383741,0.0,-0.00849710847757,0.00859720588279,-0.99992694093,0.0,0.655173541583,0.252487775165,0.303490497123,1.0,-0.0162,-0.0212914285714,0.811
0.460156556075,0.511183600579,-0.124093897262,-1.41329223661,0.0760562515363,1.91524930415,0.151641636395,-0.018456200228,-0.0828894732131,-0.000586762013843,-0.139156904956,-0.013609871326,0.0530156904177,-0.0196665953312,0.573940075336,0.818882678472,0.00216696158965,0.0,0.818841570412,-0.573879820943,-0.0118819434639,0.0,-0.00848650555164,0.00859408722071,-0.999927057784,0.0,0.654901148236,0.252130817429,0.303477359188,1.0,-0.01654,-0.0217382857143,0.828
0.459962680179,0.509715621748,-0.124094755275,-1.41563596703,0.0759057070423,1.9161327816,0.151305115113,-0.0138784578741,-0.090574898632,-0.000734732458767,-0.138873532187,-0.0154383650828,0.0531079063337,-0.0154425572151,0.573905512422,0.818906900494,0.00216749511261,0.0,0.818865842335,-0.573845303707,-0.0118763029634,0.0,-0.00848194286162,0.00859092885105,-0.999927123638,0.0,0.654614140354,0.251780193773,0.303466032841,1.0,-0.01688,-0.0221851428571,0.845
0.459761076953,0.508212967971,-0.124097899764,-1.41801655673,0.0757593386178,1.9169750336,0.150979616055,-0.0125236002603,-0.0865040743395,0.000267887050177,-0.139128708759,-0.0121764623792,0.0538074262608,-0.019386304208,0.573890251363,0.818917676246,0.00213677886512,0.0,0.818876135821,-0.57383008497,-0.0119018766694,0.0,-0.00852067323672,0.00858029341092,-0.999926885673,0.0,0.654312264909,0.251417271883,0.303457414427,1.0,-0.01722,-0.022632,0.862
0.459556370105,0.506693236819,-0.124095089264,-1.42042942839,0.0756096565637,1.91785164283,0.150648492108,-0.0128692887371,-0.0845089118474,0.0016348392831,-0.143098768468,-0.00680614125623,0.0520315500697,-0.0133379844645,0.573869169887,0.818932488032,0.00212198026666,0.0,0.818890685674,-0.573808996651,-0.0119175156422,0.0,-0.00854219383204,0.00857692981675,-0.999926730916,0.0,0.654008607656,0.251054047082,0.303447656996,1.0,-0.01756,-0.0230788571429,0.879
0.459336712902,0.505083097107,-0.124103936517,-1.4228778303,0.0754609210031,1.91879025499,0.150315564716,-0.014094016514,-0.094619637996,-0.00532906771401,-0.143324480913,-0.00191407595796,0.0624536287615,-0.0138076767782,0.573869105827,0.818932312939,0.0022052445214,0.0,0.818891636785,-0.573808640089,-0.0118692318417,0.0,-0.00845487190751,0.00861740767128,-0.999927125058,0.0,0.653716544577,0.250675565988,0.303489284732,1.0,-0.0179,-0.0235257142857,0.896
0.459131149206,0.503522906619,-0.124106049578,-1.42520057478,0.0753092256512,1.91967429486,0.149976736638,-0.016857760589,-0.0955521320604,-0.00107121865149,-0.141106187599,-0.00961663308997,0.0579720241247,-0.0263675213996,0.573839884417,0.818952518182,0.00230367474771,0.0,0.818913219295,-0.573779137234,-0.0118062627377,0.0,-0.00834712879824,0.00866158091092,-0.999927648611,0.0,0.653436530102,0.250320424364,0.303550224669,1.0,-0.01822,-0.0239462857143,0.912
0.458895602185,0.501832540435,-0.124099715874,-1.42770266632,0.0751507752696,1.92059972319,0.149634021694,-0.00979391622831,-0.095122090188,0.00278120913638,-0.144973628871,-0.00942819694276,0.052492766338,-0.018535673021,0.573832778062,0.818957217672,0.002401113386,0.0,0.818919171223,-0.573771648029,-0.0117572880679,0.0,-0.00825118399971,0.0087132028147,-0.999927996437,0.0,0.653130041183,0.249932908028,0.303619402929,1.0,-0.01856,-0.0243931428571,0.929
0.458677393055,0.500202071124,-0.124105009326,-1.43014789923,0.0749907849996,1.9214605924,0.149297531641,-0.013207326312,-0.103706484235,-0.000103332916177,-0.150478931499,-0.0100065610879,0.0593883399914,-0.0242196867672,0.573818975182,0.818966778176,0.00243861983104,0.0,0.818929212054,-0.573757700361,-0.0117385613449,0.0,-0.00821447301279,0.00873303439574,-0.999928125689,0.0,0.65280103052,0.249528572281,0.303668614447,1.0,-0.0189,-0.02484,0.946
0.458431278173,0.498521846802,-0.124107933423,-1.4327628158,0.0748328684297,1.92243718437,0.14891880696,-0.0156045877972,-0.0891226811278,0.000759167467889,-0.151511102787,-0.00656346135811,0.0645337219702,-0.0187735327332,0.573804820674,0.818976592015,0.00247313654828,0.0,0.818939448231,-0.573743393203,-0.0117237275772,0.0,-0.00818267024357,0.00875264899592,-0.999928214945,0.0,0.652498789041,0.249141832889,0.303679983126,1.0,-0.01922,-0.0252605714286,0.962
0.458166118203,0.496854620773,-0.12410855703,-1.43543278738,0.0746705895354,1.92339580616,0.148518906241,-0.0176069742131,-0.0966067006952,-0.000933019294549,-0.157835736064,-0.00852092051636,0.0570432918936,-0.0265419774756,0.573786383742,0.818989618235,0.00243679233416,0.0,0.81895188451,-0.573724966914,-0.0117567043931,0.0,-0.00823072870838,0.00874162087597,-0.999927916987,0.0,0.652163521926,0.248712742249,0.303654523935,1.0,-0.01956,-0.0257074285714,0.979
0.45789890056,0.495187486088,-0.124105394286,-1.43814690508,0.0745012917463,1.92432801374,0.14812624734,-0.0158215028219,-0.0954288185659,0.00232548214537,-0.16443116128,-0.00868815746202,0.0585469690415,-0.0194249293398,0.573772341263,0.818999738391,0.00234004648872,0.0,0.818960575096,-0.573711111537,-0.0118272498281,0.0,-0.00834416449405,0.00870272219711,-0.999927316131,0.0,0.65181102758,0.248276612643,0.303604992871,1.0,-0.0199,-0.0261542857143,0.996
0.457614133391,0.493483620782,-0.124115182314,-1.44092335372,0.0743151052593,1.92533539685,0.147749145467,-0.018366291025,-0.103444633834,-9.18544007156e-05,-0.166786411094,-0.0101532427682,0.0585084550438,-0.0207504560427,0.573792868346,0.818985547179,0.00227258632689,0.0,0.818945581703,-0.573731976548,-0.0118532779206,0.0,-0.00840396966091,0.00866261765103,-0.999927163522,0.0,0.651466259233,0.247817020465,0.303557653136,1.0,-0.021324,-0.0280258285714,1.013
0.457342001921,0.491705211091,-0.124119217363,-1.44375257927,0.0741444093492,1.92638780961,0.147341830493,-0.0182933961244,-0.117946851925,0.00259530817344,-0.179210716619,-0.0095838056199,0.0619910780609,-0.0259412736077,0.573780854624,0.818993960441,0.00227387986099,0.0,0.818953939168,-0.573719884394,-0.0118611413521,0.0,-0.00840979495492,0.00866806557828,-0.999927067334,0.0,0.651113024903,0.247369351698,0.303540071954,1.0,-0.023116,-0.0303810285714,1.029
0.457014410174,0.489701116297,-0.124133065383,-1.44701447847,0.0739421467592,1.92752590591,0.146866220792,-0.0205034290549,-0.119802320844,0.000353510265923,-0.200273239527,-0.0161286281778,0.0699719366304,-0.0267451916772,0.573777342833,0.818996703986,0.00216947278872,0.0,0.818955199013,-0.57371666391,-0.0119297301617,0.0,-0.00852591114132,0.00862187589018,-0.999926483345,0.0,0.650693491756,0.246832599736,0.303480572073,1.0,-0.02502,-0.0328834285714,1.046
0.45665199106,0.487445394233,-0.124163847689,-1.45050223828,0.0737254693069,1.92882467696,0.146366341698,-0.0175063664829,-0.143750094318,-0.00459590134145,-0.210116622978,-0.0163103686162,0.0800909117018,-0.0274572883617,0.573801551135,0.818979611525,0.00221872075525,0.0,0.818938841576,-0.573740765562,-0.0118934684023,0.0,-0.00846770061663,0.00864165360134,-0.999926807256,0.0,0.650268808544,0.246248432649,0.303501675075,1.0,-0.026924,-0.0353858285714,1.063
0.456258615062,0.485058511919,-0.124189353335,-1.45415346987,0.0735028640175,1.93022346145,0.145823448205,-0.0294200840327,-0.142121983564,-0.00157198746665,-0.218287104076,-0.0149671929965,0.0843716896819,-0.0348034170781,0.573817970148,0.818967803604,0.00232823864995,0.0,0.818928549778,-0.57375684593,-0.0118262000753,0.0,-0.00834959499183,0.00869291458844,-0.999927356111,0.0,0.64983212769,0.245635578652,0.303543293047,1.0,-0.028828,-0.0378882285714,1.08
0.455845723655,0.482483314554,-0.124221299779,-1.45811377598,0.0732501982854,1.93156329428,0.145208121957,-0.0216023810985,-0.158190747772,0.000122648915051,-0.238301559698,-0.021059641817,0.0824969845526,-0.0355391750696,0.573800396665,0.818980235134,0.00228607690251,0.0,0.818940364394,-0.573739367661,-0.0118559884735,0.0,-0.00839836960596,0.00867529856692,-0.999927100634,0.0,0.649318032043,0.244964075008,0.303562142217,1.0,-0.030732,-0.0403906285714,1.097
0.455402577413,0.479779928095,-0.124250175004,-1.46235437652,0.0729955107623,1.93309415197,0.144585364419,-0.022945425985,-0.160397656086,-0.00167106186296,-0.252466096123,-0.015286229694,0.0957750323295,-0.0421765488382,0.57381233534,0.818971885692,0.0022806051078,0.0,0.818931839186,-0.573751218407,-0.0118713539809,0.0,-0.00841396719107,0.00867975659901,-0.999926930821,0.0,0.648780551439,0.244255987484,0.303551518303,1.0,-0.032636,-0.0428930285714,1.114
0.454957481298,0.477074242074,-0.12425413114,-1.46645402766,0.0727373444667,1.93460109605,0.143996835949,-0.0254918858586,-0.164676082848,0.000507659878478,-0.260933824839,-0.0161945673773,0.0904862802776,-0.0347845861621,0.573826460952,0.818961716003,0.00237641210255,0.0,0.818922877317,-0.573764929284,-0.0118268268272,0.0,-0.00832237670284,0.00873281255295,-0.999927235368,0.0,0.648265104191,0.243576172377,0.303604758834,1.0,-0.034428,-0.0452482285714,1.13
0.454424946305,0.473874356474,-0.124274020389,-1.47136358956,0.0724394558008,1.93639900127,0.143295864386,-0.0249793509018,-0.180455746205,0.000761317717248,-0.279813876284,-0.019923329472,0.100698240386,-0.040179097951,0.573858889305,0.818938765765,0.00245356752604,0.0,0.818900827532,-0.57379695147,-0.0118000022213,0.0,-0.00825578863798,0.00878093370618,-0.999927365941,0.0,0.647644144306,0.242754818273,0.303638387688,1.0,-0.036444,-0.0478978285714,1.148
0.453855129103,0.470519168183,-0.124280452231,-1.47655013528,0.0721181403492,1.93820951031,0.142523616374,-0.0371022861415,-0.188742583657,-0.000284979529786,-0.290521670498,-0.0149352730193,0.0975185406999,-0.0384844822076,0.573858074947,0.818939370472,0.00244217306029,0.0,0.818901012363,-0.573795891955,-0.0118386328543,0.0,-0.00829397335216,0.00879376235836,-0.999926937206,0.0,0.646963877011,0.241884559992,0.303645792677,1.0,-0.03846,-0.0505474285714,1.166
0.453342406119,0.467354141966,-0.124281064429,-1.48127033781,0.0718098196348,1.94004699243,0.141739740371,-0.0349856001599,-0.196975235076,-0.00134974051837,-0.305200556631,-0.01915709216,0.111612782985,-0.049977480154,0.573776818546,0.818995576963,0.0026747550711,0.0,0.818960431302,-0.573713996251,-0.0116965537203,0.0,-0.00804503623366,0.00890190133741,-0.999928014181,0.0,0.646379887514,0.241111267755,0.303743131309,1.0,-0.040252,-0.0529026285714,1.182
0.452745594579,0.463884580703,-0.124284323439,-1.48662686623,0.071445838785,1.94187495814,0.140929754612,-0.0389869674772,-0.203536006017,-0.000346014670895,-0.319190014451,-0.0208033549376,0.109523549954,-0.0464127529415,0.573756207497,0.819010202611,0.00261711255772,0.0,0.818974205952,-0.573693480981,-0.0117382607711,0.0,-0.00811249110969,0.00887841859857,-0.99992767797,0.0,0.645662443098,0.240202889234,0.30374465166,1.0,-0.042156,-0.0554050285714,1.199
0.452194378568,0.460751874551,-0.12429345772,-1.49157022075,0.0711114288373,1.94359722127,0.140200547568,-0.0381864284441,-0.210612277627,-0.00389140885377,-0.327901677609,-0.0251255610542,0.114644583686,-0.0438469362232,0.573755902129,0.819010686168,0.00253132697247,0.0,0.818973517145,-0.57369342761,-0.0117888181414,0.0,-0.00820312032338,0.00883716388426,-0.999927304033,0.0,0.64500245095,0.239363056221,0.303699394538,1.0,-0.043836,-0.0576130285714,1.214
0.451540345088,0.457070858835,-0.124301138925,-1.49730102796,0.0707298727326,1.94563123752,0.139328117028,-0.0427363941181,-0.215201064943,-0.000680458330068,-0.344643253991,-0.0226314167899,0.122006828867,-0.0488727941562,0.573743197952,0.819019652509,0.0025096831361,0.0,0.818982136614,-0.573680735549,-0.0118076445227,0.0,-0.00823109452052,0.00883011139278,-0.999927136453,0.0,0.644243332026,0.238386377165,0.303680941077,1.0,-0.04574,-0.0601154285714,1.231
0.450814718782,0.453250516332,-0.124335898077,-1.50328452325,0.0703140476907,1.94772537119,0.13837513943,-0.044557468119,-0.232661130772,-0.0068791545324,-0.356010954061,-0.0198059871148,0.119539122662,-0.053879496345,0.573742012891,0.819020725749,0.00242906128326,0.0,0.818982280812,-0.573679983501,-0.0118341517688,0.0,-0.00829907151628,0.008779277235,-0.999927022189,0.0,0.6434548384,0.237319520569,0.303640774161,1.0,-0.047644,-0.0626178285714,1.248
0.450087713542,0.449183591694,-0.12441292493,-1.5093777841,0.0699036187668,1.94999431264,0.137440244582,-0.0477589876226,-0.243424193075,-0.00506999431478,-0.361282926252,-0.0277200727294,0.126480337588,-0.0473094583609,0.57379257105,0.818984754552,0.0026084711454,0.0,0.818949089672,-0.573730356869,-0.0116881577966,0.0,-0.00807601945145,0.00884295343715,-0.999928287471,0.0,0.642682905697,0.23623037414,0.303729702055,1.0,-0.049548,-0.0651202285714,1.265
0.449302606844,0.444993459051,-0.124427034163,-1.51581066049,0.0694666203425,1.95209726847,0.136486285233,-0.0492979628464,-0.245262471868,0.000572563509513,-0.382105017484,-0.0321524566457,0.128689034569,-0.0591465749104,0.573832063544,0.818957462276,0.0024869121724,0.0,0.818919936432,-0.573769981574,-0.0117852814714,0.0,-0.00822488700929,0.00879952376244,-0.999927457176,0.0,0.641788828063,0.235089709762,0.303721510073,1.0,-0.051452,-0.0676226285714,1.282
0.448563230262,0.440990581519,-0.124442179599,-1.52200837577,0.0690379999684,1.95426086788,0.135490703702,-0.0477177156803,-0.247446579115,0.000168897535411,-0.396869075231,-0.0170875529072,0.138988831744,-0.0652302309095,0.573784927697,0.818990606888,0.00244734107971,0.0,0.818952621864,-0.573723059005,-0.0117983731038,0.0,-0.00825881974576,0.00877415398178,-0.999927400424,0.0,0.640894752058,0.233936494022,0.303699324,1.0,-0.053356,-0.0701250285714,1.299
0.44755382665,0.435828758794,-0.124453626708,-1.52990124151,0.0685162300073,1.95710383451,0.134204713467,-0.0530135747287,-0.266574878847,-0.0030573774377,-0.387461331058,-0.03269463366,0.142280685819,-0.0655829987501,0.573775618377,0.818996855392,0.00253722578501,0.0,0.818959864483,-0.57371322884,-0.0117736281975,0.0,-0.00818708209959,0.00883347695641,-0.999927468055,0.0,0.639890089722,0.232606578521,0.303714576599,1.0,-0.055484,-0.0729218285714,1.318
0.446771957505,0.431777834773,-0.124475229858,-1.53595357029,0.0680781609115,1.9593175478,0.133228054951,-0.0503091209643,-0.265612849382,-0.00325622289667,-0.416182789947,-0.0343224144649,0.152637693771,-0.0605905750362,0.573772906744,0.818998264447,0.00269095164154,0.0,0.81896363383,-0.573710366405,-0.011650272284,0.0,-0.00799787991266,0.00888857326014,-0.999928511036,0.0,0.639090101872,0.231517398813,0.303788559462,1.0,-0.057164,-0.0751298285714,1.333
0.445839680331,0.427134512471,-0.124509678692,-1.54323934741,0.067546198281,1.96164269,0.132066635734,-0.0570684247083,-0.284114072327,-0.00829970782984,-0.435325977483,-0.0329418610066,0.139230309409,-0.0726145676167,0.573773379447,0.818998839574,0.00239931563839,0.0,0.818960272278,-0.573711738984,-0.0118177782544,0.0,-0.0083023909762,0.00874583913961,-0.999927287657,0.0,0.638043721523,0.230183868167,0.303685654578,1.0,-0.059068,-0.0776322285714,1.35
0.444872077732,0.422297270117,-0.124555509579,-1.55058098448,0.0670087361578,1.96413029823,0.13084283091,-0.0559490042816,-0.288564383149,-0.00246429797703,-0.431350577337,-0.0342550541435,0.146166177862,-0.0685415733205,0.573757342109,0.819010197808,0.00235693953477,0.0,0.818971257626,-0.573696052865,-0.0118179951758,0.0,-0.00832705198022,0.00871109495162,-0.999927385879,0.0,0.637021787314,0.228828641815,0.303696284412,1.0,-0.060972,-0.0801346285714,1.367
0.443847539673,0.417340690206,-0.124580079193,-1.55800354524,0.0665097529618,1.9668124318,0.129675210419,-0.0648006862483,-0.294813209439,-0.00015702251992,-0.428746056222,-0.0287240699462,0.165253634589,-0.0765969029252,0.573830704864,0.818958271953,0.00253334891273,0.0,0.818921637838,-0.573768762104,-0.0117262788554,0.0,-0.0081499335097,0.00880368260003,-0.999928034289,0.0,0.636017784436,0.227462268449,0.30375962431,1.0,-0.062876,-0.0826370285714,1.384
0.442795873568,0.412267624293,-0.124602093233,-1.56561482546,0.0659834121849,1.96952882833,0.128361807235,-0.0621932201179,-0.301583813604,-0.000636599136051,-0.45996518705,-0.0298996605381,0.154045645444,-0.0742112660856,0.573800043841,0.818979308791,0.00267364191347,0.0,0.818944534872,-0.573737650153,-0.0116492274827,0.0,-0.00800666139602,0.00887406252675,-0.999928569643,0.0,0.634971008317,0.226060352768,0.303808890589,1.0,-0.06478,-0.0851394285714,1.401
0.441625663837,0.406792431227,-0.124656925722,-1.57403996801,0.0653774156595,1.97220798228,0.126993291613,-0.066424322288,-0.304307761675,-0.0039152601117,-0.476921423744,-0.0280773747263,0.159290598556,-0.0773632161938,0.573849271504,0.818945579153,0.00242876147258,0.0,0.818907352667,-0.573787464996,-0.0118084572385,0.0,-0.00827705032252,0.00876537397228,-0.999927326688,0.0,0.633739147295,0.224464114255,0.303734508006,1.0,-0.066796,-0.0877890285714,1.419
0.440620098379,0.402141811381,-0.124695480735,-1.58115089068,0.0648946257155,1.97462981101,0.125797863982,-0.0695938541311,-0.311399029928,-0.00324157257522,-0.471772455282,-0.0315256670726,0.165462841728,-0.0869966109181,0.573872633225,0.818929311012,0.00239401383692,0.0,0.818890388729,-0.573810699546,-0.0118557679973,0.0,-0.00833548564698,0.00876430446108,-0.999926850648,0.0,0.632723509167,0.223127379916,0.303699543594,1.0,-0.068476,-0.0899970285714,1.434
0.439424691782,0.396640722357,-0.124701536985,-1.58913331598,0.0643072128827,1.97754176653,0.124397692213,-0.0672806392716,-0.326473015504,-0.00029321205679,-0.479767313801,-0.0416662254022,0.164551398882,-0.0814614821174,0.573858710591,0.818938000564,0.00273466862342,0.0,0.818903908618,-0.573795977399,-0.011632354564,0.0,-0.00795718853337,0.00891493045575,-0.999928601034,0.0,0.631627924635,0.221618141558,0.303856514391,1.0,-0.07038,-0.0924994285714,1.451
0.438269337117,0.39145183541,-0.124715699724,-1.59703091025,0.0637103386742,1.98009624823,0.123091989201,-0.0698203449541,-0.324254194003,-0.00121573202761,-0.493323274141,-0.0367949376213,0.151614159258,-0.086769249153,0.573882141913,0.818922071978,0.00258343218177,0.0,0.818885888295,-0.57381979439,-0.0117257161484,0.0,-0.00812017957896,0.0088448855472,-0.999927912743,0.0,0.630456242388,0.220115100736,0.303807630689,1.0,-0.072172,-0.0948546285714,1.467
0.437103630457,0.386154721978,-0.124724170668,-1.6051147102,0.0631032142804,1.98270596894,0.121661471895,-0.0714104503431,-0.331394290665,-4.45538970994e-05,-0.499307976302,-0.0393511832901,0.169224741463,-0.087361297085,0.573806710567,0.818975431759,0.00241826081787,0.0,0.818936861567,-0.573744730444,-0.0118384101909,0.0,-0.0083080626523,0.00877353105228,-0.999926997959,0.0,0.629238607373,0.218594364693,0.303740819795,1.0,-0.073964,-0.0972098285714,1.483
0.435826507057,0.380296491909,-0.124719669219,-1.61359529158,0.062504152454,1.98569748607,0.120154490866,-0.0769183811566,-0.33956870796,0.000617777916,-0.502169744804,-0.0403445465127,0.183142814993,-0.0840126187501,0.573764549326,0.819003988058,0.00273063789252,0.0,0.818969442812,-0.573701393467,-0.0116837397806,0.0,-0.00800261278684,0.0089401968095,-0.999928012944,0.0,0.628014979056,0.21700135809,0.303884094856,1.0,-0.075868,-0.0997122285714,1.5
0.434452246112,0.374491006865,-0.124738075519,-1.62237957283,0.0618320370731,1.98858856534,0.118579443042,-0.0836181539356,-0.345754800005,-0.00231261771748,-0.521357347258,-0.0466968074635,0.167631482691,-0.0966409644242,0.573744841974,0.819018117742,0.00263173315389,0.0,0.818982233006,-0.573681978645,-0.0117403705221,0.0,-0.00810595434836,0.00889149091371,-0.999927614827,0.0,0.626702992145,0.215286082867,0.303832799889,1.0,-0.077772,-0.102214628571,1.517
0.433025365548,0.368509660677,-0.124793942309,-1.63137090651,0.0611382297007,1.99143570912,0.117047638454,-0.0819916295962,-0.357528063788,-0.00107371668012,-0.523430759201,-0.0416171212334,0.166052568756,-0.0868224014764,0.573825972029,0.818961790664,0.00246701425066,0.0,0.818923673923,-0.573763611404,-0.0118355995824,0.0,-0.00827758019084,0.00881204046779,-0.999926912134,0.0,0.625335803015,0.213493407082,0.30378844466,1.0,-0.079676,-0.104717028571,1.534
0.431662553042,0.362694252139,-0.124839299108,-1.63975385378,0.060475964414,1.99435500189,0.115499246653,-0.0864264371232,-0.364851705466,-0.000721684822105,-0.534215038969,-0.0406033802087,0.184804706109,-0.101736371367,0.573814598734,0.81896894812,0.00272308562528,0.0,0.818934739421,-0.57375194822,-0.0116336316303,0.0,-0.00796536073431,0.00890574854599,-0.999928617788,0.0,0.624113668453,0.21182657508,0.303918347963,1.0,-0.081468,-0.107072228571,1.55
0.430124086749,0.356536123704,-0.124854110258,-1.64898190865,0.0597925871719,1.99730824054,0.113775541284,-0.0894720639028,-0.369917490194,-0.000342726535849,-0.548511818735,-0.0374491414291,0.166386908783,-0.104460465665,0.573798678773,0.818980425411,0.00262410618933,0.0,0.818944467285,-0.573735864267,-0.0117415696739,0.0,-0.00811072805075,0.00888646550294,-0.999927620791,0.0,0.622693019893,0.209982174141,0.303868788898,1.0,-0.083372,-0.109574628571,1.567
0.428525743819,0.350293221523,-0.124908713786,-1.65838883102,0.0590618230563,2.00027486895,0.112056333238,-0.0984637926538,-0.365249212817,-0.0015845368505,-0.545786633553,-0.047886951268,0.175667005205,-0.102098366168,0.573849350714,0.818945506337,0.00243459184436,0.0,0.818906872735,-0.573787010663,-0.0118636876081,0.0,-0.008318936644,0.00880184288739,-0.999926658738,0.0,0.621234359203,0.208057650008,0.303782986488,1.0,-0.085276,-0.112077028571,1.584
0.426807248948,0.343409761782,-0.124940215166,-1.66820895839,0.0583308919105,2.00364698407,0.110198696473,-0.0989604619035,-0.38751598743,-0.000119898923586,-0.545988490533,-0.0486814954212,0.176692290274,-0.103906798254,0.573876301457,0.818925477995,0.00279267218942,0.0,0.818891629319,-0.573812794338,-0.0116671927487,0.0,-0.0079522434712,0.00898259424511,-0.999928034823,0.0,0.619763226829,0.206064421053,0.303944204329,1.0,-0.087292,-0.114726628571,1.602
0.425223437931,0.337294907464,-0.124940412763,-1.67726967353,0.0575956841503,2.00645974737,0.108465894481,-0.101643872138,-0.385741990556,-0.000443462363967,-0.568953610656,-0.0384775717601,0.175303675606,-0.114267863072,0.573832460741,0.818956643556,0.00265892383832,0.0,0.818920847881,-0.57376919741,-0.0117600982218,0.0,-0.00810555802804,0.00892594611743,-0.999927311066,0.0,0.618319599259,0.20422032322,0.303902371271,1.0,-0.089084,-0.117081828571,1.618
0.423423960496,0.330252466052,-0.124940873353,-1.68759690719,0.0567266348454,2.00969160805,0.106496231574,-0.10612754553,-0.405722761876,-0.00547794941721,-0.562075966383,-0.0427801408691,0.183835547953,-0.109736033137,0.573762842596,0.819005691116,0.00257396134544,0.0,0.818968856228,-0.573699970912,-0.011794185236,0.0,-0.00818298082909,0.00887523030184,-0.999927131901,0.0,0.616662903141,0.202126956489,0.303892282425,1.0,-0.0911,-0.119731428571,1.636
0.421653075774,0.323509979963,-0.124935901326,-1.69730264902,0.0559791056211,2.01294234801,0.104551614171,-0.110043800494,-0.392270533907,-0.00164625181706,-0.587353342751,-0.0428306889647,0.191647358967,-0.114295468741,0.573699097479,0.819049571301,0.00280930696229,0.0,0.819015742643,-0.573635334436,-0.0116817503619,0.0,-0.00795656807567,0.00900284960036,-0.999927818257,0.0,0.615146474625,0.200144770841,0.303969376334,1.0,-0.093004,-0.122233828571,1.653
0.419898523159,0.317087406115,-0.124974797863,-1.70670985464,0.0552072083173,2.01580768244,0.10276431777,-0.107868482857,-0.40069825951,-0.00478489122249,-0.59794041881,-0.0466495676341,0.181159627689,-0.117374641162,0.573756464883,0.819009799869,0.00268581914853,0.0,0.818974176334,-0.57369291813,-0.0117677987243,0.0,-0.00809726295061,0.00895163946726,-0.999927148588,0.0,0.613616911713,0.198156630781,0.303936754115,1.0,-0.094796,-0.124589028571,1.669
0.417881038107,0.309696152048,-0.125048311419,-1.7172845731,0.0543072240579,2.01917087797,0.100546309797,-0.110681366236,-0.428665908122,-0.00292163620057,-0.58303843907,-0.0490693646372,0.196260843132,-0.121628402127,0.573690023573,0.819056005074,0.0027864503713,0.0,0.819022147984,-0.573626643474,-0.0116594129227,0.0,-0.00795148308696,0.00897122616672,-0.999928142927,0.0,0.611926790425,0.195890433277,0.304009846021,1.0,-0.096812,-0.127238628571,1.687
0.415758816817,0.302272986236,-0.125055178764,-1.72805851377,0.0534225431118,2.02251186689,0.0983268023125,-0.116999675867,-0.40993931623,-0.00127507753759,-0.605714169247,-0.0446847785986,0.179239967495,-0.125404852141,0.573658451528,0.819078202141,0.00276164242761,0.0,0.819043774203,-0.57359488163,-0.0117027606919,0.0,-0.00800156628116,0.00897546641955,-0.999927705357,0.0,0.610161408637,0.193589238536,0.303992417071,1.0,-0.098828,-0.129888228571,1.705
0.413794579254,0.295630523459,-0.12513333237,-1.73781544172,0.0526304930237,2.02538104592,0.0964388222477,-0.122965393971,-0.412981038436,-0.00584534604962,-0.606789758526,-0.0482292739509,0.184455577325,-0.11561967354,0.573814747277,0.81896941647,0.00254511184291,0.0,0.818931665042,-0.573751392812,-0.0118749374219,0.0,-0.00826510823525,0.00889845821781,-0.999926249994,0.0,0.608530827048,0.191437466581,0.303901355237,1.0,-0.10062,-0.132243428571,1.721
0.411796833334,0.288764433156,-0.12520308497,-1.74737386521,0.0518286560299,2.02855857475,0.0943559387383,-0.126919586776,-0.413501352179,-0.0029907128062,-0.598192760698,-0.0560666735624,0.194246231017,-0.12657451146,0.573815856092,0.818967410398,0.00291391565196,0.0,0.818935097118,-0.573751904694,-0.0116105757916,0.0,-0.00783696941979,0.00904881450274,-0.999928347866,0.0,0.607013407919,0.189317984466,0.304059354964,1.0,-0.102412,-0.134598628571,1.737
0.409871206178,0.282371451974,-0.125226283655,-1.75667721127,0.0510358893036,2.03122757286,0.0923971911265,-0.130249337542,-0.432497866651,-0.000576099105569,-0.626272078429,-0.053320987177,0.178917924199,-0.142983260056,0.573808684816,0.818973169229,0.00269966919358,0.0,0.818937577902,-0.573744917446,-0.0117796479567,0.0,-0.00809845006113,0.00897029755817,-0.999926971768,0.0,0.605414155853,0.187272569175,0.30398067153,1.0,-0.104092,-0.136806628571,1.752
0.407613093833,0.27496165176,-0.125281856396,-1.7672428719,0.0500917474033,2.03437637325,0.0901457107497,-0.134904737128,-0.439427018771,-0.00355070934176,-0.613393926172,-0.052321585535,0.196079747922,-0.121511053065,0.57383308632,0.818956360746,0.00261058206294,0.0,0.818919679001,-0.573769718219,-0.011815951131,0.0,-0.00817903287406,0.00891841243736,-0.99992677999,0.0,0.60371870535,0.185040656921,0.303966122612,1.0,-0.105884,-0.139161828571,1.768
0.405421022979,0.267904198497,-0.125344957855,-1.77713972992,0.0492339698864,2.03750630131,0.0879401332442,-0.143595812912,-0.444598636112,-0.00573243892184,-0.628937267598,-0.0547774013293,0.186335666637,-0.131542693618,0.573853653444,0.818941133262,0.00285509737808,0.0,0.818908115015,-0.573789960069,-0.0116330472599,0.0,-0.00788870657784,0.00901390262843,-0.99992825636,0.0,0.601985904143,0.182652519595,0.304060130696,1.0,-0.107788,-0.141664228571,1.785
0.403024942062,0.260375258372,-0.125445473605,-1.7879605668,0.0482808964811,2.04054184789,0.0855987788719,-0.140260606608,-0.43638133229,-0.00914715588345,-0.643506287131,-0.0658759498412,0.172633298583,-0.139374814926,0.573938833246,0.818882241875,0.0026146769542,0.0,0.818845731746,-0.573875565466,-0.0118004179256,0.0,-0.0081628106298,0.00891390678021,-0.999926952726,0.0,0.600092964907,0.180162155438,0.303979648092,1.0,-0.109692,-0.144166628571,1.802
0.400571389119,0.252628637559,-0.12545880306,-1.79864057237,0.0473168808343,2.04376638677,0.0832282284766,-0.149961492747,-0.458789734182,0.0028994842251,-0.635420210954,-0.0567484332138,0.192037337491,-0.136238585435,0.573960473965,0.818866384738,0.00282226387064,0.0,0.818832876969,-0.57389680574,-0.0116585958866,0.0,-0.00792729666947,0.00900270899563,-0.999928052011,0.0,0.598258676523,0.177726171877,0.304099352917,1.0,-0.111596,-0.146669028571,1.819
0.398086529351,0.244933411043,-0.125453911025,-1.8095579457,0.0463666931132,2.0469293189,0.0807010372064,-0.148855294787,-0.460810688579,-0.00169128571191,-0.646121635345,-0.0602200592034,0.184640110723,-0.145129155831,0.573866323933,0.818932548929,0.00276937933025,0.0,0.818897835766,-0.573802267077,-0.0117490329639,0.0,-0.00803274402973,0.00901038657461,-0.999927141324,0.0,0.596318745477,0.175269114879,0.304054868059,1.0,-0.1135,-0.149171428571,1.836
0.395515750207,0.237093062019,-0.125472743125,-1.82047796212,0.0453986109205,2.0500556839,0.0781482195732,-0.154988778442,-0.476614355336,7.02128688193e-05,-0.626833191385,-0.0584896822671,0.189964741626,-0.144583190939,0.573822482615,0.818963166975,0.00279937239319,0.0,0.81892851985,-0.573757960341,-0.011774091164,0.0,-0.00803653952165,0.00904889833205,-0.999926763054,0.0,0.59437097532,0.172757255672,0.30407958971,1.0,-0.115404,-0.151673828571,1.853
0.393060723824,0.229620410117,-0.125441689167,-1.83081300557,0.0444436790846,2.05310976634,0.0757596635821,-0.158701770602,-0.465474963763,0.0027001467312,-0.651541752545,-0.0659589647292,0.189040551618,-0.153812430925,0.573758332135,0.819007653704,0.00293025282155,0.0,0.818974825131,-0.573693493825,-0.0116943510188,0.0,-0.00789684804928,0.0091097100182,-0.999927323846,0.0,0.592523811567,0.170408143035,0.304126958654,1.0,-0.117196,-0.154029028571,1.869
0.390295309095,0.221637233564,-0.125482521923,-1.84207198638,0.0433727831003,2.05610159378,0.0730591352896,-0.166536072557,-0.471406146431,-0.00311686856344,-0.659126430399,-0.0632258270354,0.17967927601,-0.163237806001,0.573717310413,0.819037301855,0.00266323171558,0.0,0.819000563989,-0.573652948978,-0.011879276693,0.0,-0.00820195791632,0.00899670816559,-0.999925890818,0.0,0.590443930115,0.167743004964,0.304037029529,1.0,-0.1191,-0.156531428571,1.886
0.387298253883,0.213018658267,-0.125560833176,-1.85371799658,0.0423389284605,2.05957648822,0.0702038685414,-0.169716135665,-0.481732810497,-0.00326964425551,-0.649920039379,-0.0478841562115,0.19018496831,-0.15912251604,0.573782863821,0.818990137834,0.00302096292401,0.0,0.818958296555,-0.573717492831,-0.0116744945754,0.0,-0.00782826736514,0.009172844187,-0.999927285936,0.0,0.588379413894,0.164935068421,0.30417842034,1.0,-0.121116,-0.159181028571,1.904
0.384005400869,0.203916996237,-0.125587975723,-1.86642698935,0.0411031873499,2.06288272932,0.0670586507422,-0.171862265753,-0.478781304288,0.00108510820177,-0.678006661739,-0.0639469614209,0.167007847145,-0.160651747351,0.573743993417,0.81901836119,0.0027387866976,0.0,0.818982322639,-0.573679029509,-0.0118774242459,0.0,-0.00815680108998,0.00905779309972,-0.99992570873,0.0,0.585985356356,0.16186909461,0.304082427352,1.0,-0.123244,-0.161977828571,1.923
0.381348213366,0.196556492228,-0.12567913235,-1.87630414486,0.0401528746844,2.06570724218,0.0645040478296,-0.178749757909,-0.500668548262,-0.00790544851323,-0.668118341985,-0.0603298065591,0.19013654546,-0.168240743718,0.573754530047,0.819010229888,0.00295457106173,0.0,0.818977501774,-0.573689359907,-0.0117096890648,0.0,-0.00789550116455,0.00913839031566,-0.999927072783,0.0,0.584188714437,0.159420492889,0.304187670055,1.0,-0.124924,-0.164185828571,1.938
0.378199048068,0.188283718212,-0.125772104731,-1.88770307029,0.0390852145207,2.06878255419,0.0615691798708,-0.189930895939,-0.489297561158,-0.0113349009002,-0.684305764873,-0.0611364975484,0.170734721632,-0.168845244415,0.573835421665,0.818953748533,0.00290060455266,0.0,0.81891993998,-0.57376999358,-0.0117844503631,0.0,-0.00798679371425,0.00913787388178,-0.999926352482,0.0,0.582056541259,0.156563187749,0.304141150994,1.0,-0.126828,-0.166688228571,1.955
0.374767485629,0.17932002366,-0.12591930426,-1.8997666617,0.0379232328359,2.07196980241,0.0584087253019,-0.194256674938,-0.508762880896,-0.00581915235093,-0.668209202831,-0.0658474848113,0.189777521289,-0.1721454263,0.573970192637,0.818859126003,0.00294900435185,0.0,0.818825883736,-0.573904502643,-0.0117703386137,0.0,-0.00794595529838,0.00917072118084,-0.999926377124,0.0,0.579786126816,0.153468980035,0.304189904058,1.0,-0.128844,-0.169337828571,1.973
0.37189565597,0.17185398252,-0.12592432039,-1.90988433487,0.0368625534441,2.07469618277,0.0557530289137,-0.187308023237,-0.49617624285,0.000439892372773,-0.690144298402,-0.0673837125436,0.175540144295,-0.176960311158,0.573934376156,0.818884221636,0.00295132573423,0.0,0.818851423453,-0.573869161126,-0.0117166172446,0.0,-0.00790103028857,0.00914144268858,-0.999927001209,0.0,0.577851780486,0.150952524455,0.304185499076,1.0,-0.130524,-0.171545828571,1.988
0.368549468787,0.163326121369,-0.12593362866,-1.92152123564,0.035713802515,2.07757769641,0.0525723384072,-0.200531405994,-0.511532372091,-0.0022095156076,-0.6670858657,-0.0656884621272,0.178702476408,-0.187515774716,0.573843142296,0.818948821087,0.00276104699905,0.0,0.818912750849,-0.573777723663,-0.0119070242645,0.0,-0.00816717346539,0.00909399590013,-0.999925295468,0.0,0.575551891364,0.148047723455,0.304104027573,1.0,-0.132428,-0.174048228571,2.005
0.365520872989,0.155603189384,-0.125963793927,-1.93152802213,0.0346766506652,2.08034860142,0.0497647448741,-0.200120376571,-0.509129313931,-0.00403734248711,-0.676924345741,-0.0771828575135,0.182975566424,-0.189306982899,0.57381768175,0.818965404282,0.00311152711516,0.0,0.818934784275,-0.573752060404,-0.0116249381654,0.0,-0.00773532602003,0.00921891034795,-0.99992758559,0.0,0.573649650973,0.145478028046,0.30427212088,1.0,-0.134108,-0.176256228571,2.02
0.361762815037,0.146388755147,-0.125988219364,-1.94399018395,0.0334041426765,2.08327658746,0.0463176323382,-0.211198268933,-0.510846258066,-0.00507105221549,-0.701160927397,-0.0706841917366,0.158622305376,-0.196197461983,0.573797098838,0.818980807903,0.0028412237531,0.0,0.818945779439,-0.573731383264,-0.011868323339,0.0,-0.00808998555992,0.00913699361649,-0.999925530968,0.0,0.571128320488,0.142290399779,0.304175979333,1.0,-0.136124,-0.178905828571,2.038
0.357890756021,0.137019441002,-0.126095102525,-1.95620599876,0.032181277561,2.0864523536,0.0427628015393,-0.216157722043,-0.518654308766,-0.0050778983386,-0.673938991098,-0.0691052464465,0.179254522321,-0.206634738175,0.57384127092,0.818948841481,0.00312053315309,0.0,0.818917686454,-0.573774840332,-0.0117047988272,0.0,-0.0077952981113,0.00927233494629,-0.999926625874,0.0,0.568604171915,0.138877045189,0.304294778887,1.0,-0.138252,-0.181702628571,2.057
0.354345567231,0.128659105356,-0.126161152375,-1.96725208507,0.0309870696569,2.08909165093,0.0394673178393,-0.226173771096,-0.530434060819,-0.00552500407454,-0.689339405626,-0.0787329186179,0.157385080614,-0.204937025053,0.57379519674,0.818981515482,0.00301602349157,0.0,0.818948963224,-0.573729084764,-0.0117592444814,0.0,-0.00790037557553,0.00921754477848,-0.999926307752,0.0,0.566496097936,0.136124937975,0.304269573982,1.0,-0.139932,-0.183910628571,2.072
0.350460387529,0.119646504701,-0.12628426845,-1.97897055315,0.029729459665,2.09193182872,0.03602836533,-0.231116232968,-0.542811872151,-0.0103901696212,-0.683875834255,-0.0833522929639,0.17576811597,-0.213142061032,0.573918458257,0.818894885456,0.003084922643,0.0,0.818863477843,-0.573852386496,-0.0116957286438,0.0,-0.00780743246455,0.00923870290945,-0.999926842507,0.0,0.564128147368,0.132942683899,0.304321176944,1.0,-0.141836,-0.186413028571,2.089
0.346463566962,0.110671060201,-0.126344317327,-1.9907377914,0.0284515421194,2.09477258119,0.0323523416902,-0.232475306783,-0.539082261416,-0.00317847143207,-0.708102342375,-0.0768888161832,0.158963755151,-0.211991638321,0.573867001375,0.818930939252,0.00308680594931,0.0,0.818899646479,-0.573801037154,-0.0116827076756,0.0,-0.00779626841691,0.00923228247243,-0.999926988914,0.0,0.561720253565,0.129751864572,0.304304757486,1.0,-0.14374,-0.188915428571,2.106
0.342900251682,0.102647430724,-0.126350817687,-2.00121234763,0.0272806470875,2.09711257324,0.0291388804854,-0.236422406839,-0.540607531879,-0.00280217440591,-0.696939406913,-0.0769018610187,0.161783931807,-0.211436795806,0.573809299832,0.818971820922,0.00296493901581,0.0,0.818938735274,-0.573743516762,-0.0117674016861,0.0,-0.00793620864509,0.00918052468368,-0.999926364568,0.0,0.559509041245,0.126944944652,0.304273016945,1.0,-0.14542,-0.191123428571,2.121
0.338772818173,0.0934592797179,-0.126351906423,-2.01293198869,0.0260717478514,2.09991542383,0.0253438348895,-0.251884804249,-0.535584995498,-0.000410305228195,-0.701488983497,-0.0725335700833,0.16447341265,-0.231169469463,0.573721303649,0.81903258287,0.00320013081935,0.0,0.819002352684,-0.573654492645,-0.0116797374775,0.0,-0.0077304649673,0.00932200835938,-0.999926667347,0.0,0.557064975733,0.123777952724,0.304350681782,1.0,-0.147324,-0.193625828571,2.138
0.334474759964,0.0842652420603,-0.126438531682,-2.02492445567,0.0247758782527,2.10240463141,0.0214609833916,-0.254107904541,-0.541962577527,-0.00719459421781,-0.705090710822,-0.0816965278841,0.143384352005,-0.233824522129,0.573722698166,0.819032501138,0.00296219348915,0.0,0.818998062097,-0.573655418081,-0.0119324133904,0.0,-0.00807391148711,0.00927210564992,-0.999924417149,0.0,0.554470154736,0.120451576882,0.30425465399,1.0,-0.149228,-0.196128228571,2.155
0.330061945799,0.074884597278,-0.126548955348,-2.03662633227,0.0234104617188,2.1051407277,0.0175148986717,-0.26666656723,-0.540318348816,-0.00661970485443,-0.692617755106,-0.074927972274,0.156957957197,-0.227283344706,0.57374028379,0.819019173527,0.00322909461676,0.0,0.818989321809,-0.57367337758,-0.0116659127536,0.0,-0.00770230889985,0.00933797788915,-0.999926735619,0.0,0.552013657707,0.117102256979,0.304392816782,1.0,-0.151132,-0.198630628571,2.172
0.325489044506,0.0655301686263,-0.126682253334,-2.04867859099,0.0220630646646,2.10758038727,0.013472598305,-0.276351700132,-0.548674271722,-0.014027330241,-0.718677716752,-0.0891726836431,0.135841014724,-0.247183173484,0.573824809383,0.818960745685,0.00302193082661,0.0,0.818927329908,-0.573757577209,-0.0118750926892,0.0,-0.007991532916,0.00928914338656,-0.99992492079,0.0,0.549367907283,0.11364825735,0.304303781354,1.0,-0.153036,-0.201133028571,2.189
0.320767218886,0.0560088863903,-0.126805537694,-2.06047408191,0.0206805479025,2.11013508276,0.00928403527126,-0.28066418579,-0.554787205094,-0.00215223778107,-0.685200661695,-0.078321577824,0.155685648334,-0.247449497631,0.573872132447,0.818926893912,0.00320389270166,0.0,0.81889646557,-0.573804990629,-0.0117114604737,0.0,-0.00775256958828,0.00934471712036,-0.999926284246,0.0,0.546818966473,0.11017009525,0.304408403377,1.0,-0.15494,-0.203635428571,2.206
0.316014867847,0.0465213309722,-0.126836207253,-2.0724552457,0.0193375606512,2.11259449885,0.00506616666235,-0.283265754458,-0.565977318543,-0.00150720129064,-0.717389925976,-0.0799182365991,0.142577691486,-0.250344293474,0.57384880897,0.818943300783,0.00318770262406,0.0,0.818912069915,-0.573781014328,-0.011794754965,0.0,-0.00783034307635,0.00937903481841,-0.999925356931,0.0,0.544146851795,0.106747692211,0.304373548945,1.0,-0.156844,-0.206137828571,2.223
0.311127316088,0.0368839256898,-0.126865827295,-2.08432260851,0.0179622086689,2.1149672945,0.000702651881278,-0.293603884934,-0.581532574079,-0.00883136089614,-0.684172434581,-0.0815912450406,0.147232293311,-0.263346379156,0.573786359576,0.81898662104,0.00329773012067,0.0,0.818956751727,-0.573718111604,-0.0117521963739,0.0,-0.0077330729863,0.00944413015089,-0.999925501219,0.0,0.541481209435,0.10328769155,0.304438082137,1.0,-0.158748,-0.208640228571,2.24
0.306370032375,0.0278556600409,-0.126969536693,-2.095538044,0.0165849570758,2.11720925746,-0.00347829297228,-0.30300077571,-0.567825315395,-0.0138158561959,-0.712741137765,-0.0876074674492,0.133851129716,-0.260120656029,0.573809791148,0.818970219728,0.00329388566414,0.0,0.818940612635,-0.573741934358,-0.0117137797785,0.0,-0.00770354478363,0.00941915962,-0.999925964674,0.0,0.538953047599,0.0999231780425,0.304429798102,1.0,-0.15998,-0.210259428571,2.256
0.301184090677,0.0182147835911,-0.127068613357,-2.10743497055,0.0151605180837,2.11935708888,-0.00804562715872,-0.309363833246,-0.575580741223,-0.00392905673343,-0.682794290711,-0.0874583417307,0.131803943092,-0.267028647751,0.573832044436,0.818954973495,0.00320672216597,0.0,0.818923693221,-0.573763829595,-0.0118236809111,0.0,-0.00784331210486,0.00941104894114,-0.999924954491,0.0,0.536203842362,0.0963180466296,0.30440856671,1.0,-0.15998,-0.210259428571,2.273
0.296200208985,0.00915868658588,-0.127205009799,-2.11845318605,0.0137888354237,2.12141734722,-0.012378926285,-0.311552344819,-0.556698216172,-0.00449659045652,-0.705063096808,-0.0862917443861,0.121609889801,-0.277756572294,0.573917416697,0.818894976577,0.00325008461545,0.0,0.818864544107,-0.573849381525,-0.0117682891247,0.0,-0.00777208343734,0.00941558642955,-0.999925467948,0.0,0.533667658557,0.0928889883754,0.304438135108,1.0,-0.15998,-0.210259428571,2.289
0.290885509363,-0.000396678646421,-0.127233180642,-2.13013781329,0.0124226587535,2.12343040659,-0.0170759177818,-0.313010580371,-0.558688260147,-0.000428148431966,-0.680618772949,-0.0915887518764,0.118295572154,-0.280172581643,0.573877615473,0.818923076354,0.00319755753357,0.0,0.818890963009,-0.573808573171,-0.0119188488707,0.0,-0.00792598705763,0.00945859364428,-0.999923853969,0.0,0.530898246848,0.0893413540732,0.304401266232,1.0,-0.15998,-0.210259428571,2.306
0.285544516614,-0.00995604276692,-0.127223929591,-2.14144768428,0.0109929965327,2.12555169134,-0.0217932217107,-0.312502700735,-0.552667424497,0.000411836230554,-0.66588714315,-0.0815705450924,0.122183237434,-0.28363027049,0.573770483457,0.818997116982,0.00344986820254,0.0,0.818969208476,-0.573701712736,-0.0116844885203,0.0,-0.00759051325591,0.00952973393533,-0.999925781386,0.0,0.528246979555,0.0858529415977,0.304518671031,1.0,-0.15998,-0.210259428571,2.323
0.279422754634,-0.020487155342,-0.127259948966,-2.15425304202,0.00938043240051,2.12747876679,-0.027196821739,-0.324224797381,-0.553245910725,-0.00232545430769,-0.679103614853,-0.079708359483,0.101974604841,-0.290213278868,0.573682385478,0.819059892778,0.00318740278769,0.0,0.819027416269,-0.573613133004,-0.0119503952538,0.0,-0.00795990660887,0.00946648378553,-0.99992350986,0.0,0.525110150502,0.081868009481,0.304422237274,1.0,-0.15998,-0.210259428571,2.342
0.274469219657,-0.0289069850586,-0.127398142567,-2.16394905953,0.00811762493763,2.12919034507,-0.0314242014941,-0.327736269716,-0.562623386571,-0.0119905434751,-0.651322503376,-0.0799846878843,0.12598557696,-0.29140701823,0.573826317029,0.818957830926,0.00348940553091,0.0,0.81893043708,-0.573757412304,-0.0116669598391,0.0,-0.00755282125062,0.00955257290858,-0.999925848872,0.0,0.522807706823,0.0786644568709,0.304581995358,1.0,-0.15998,-0.210259428571,2.357
0.268763579435,-0.0382170385797,-0.127523190252,-2.17510711202,0.00671290281193,2.13087067086,-0.0363430001839,-0.334141438913,-0.550524306444,-0.00313505573341,-0.651177340233,-0.0733988277149,0.082742353496,-0.298757874904,0.57393314437,0.818883435621,0.00337810012056,0.0,0.818853808684,-0.573863614582,-0.0118211152045,0.0,-0.0077416957376,0.00955088385325,-0.999924420526,0.0,0.520052897169,0.0750251803636,0.304515663631,1.0,-0.15998,-0.210259428571,2.374
0.263408027369,-0.0469656551638,-0.127531375113,-2.18543522317,0.00545841276547,2.13238713635,-0.0410480375488,-0.334065755622,-0.554872777984,-0.00153018011168,-0.627448003035,-0.0830600297278,0.0989657931478,-0.290735928178,0.573888488056,0.818914719986,0.00338106036953,0.0,0.818884238832,-0.573817855307,-0.0119339525759,0.0,-0.00783292743026,0.00961764021685,-0.999923070163,0.0,0.517466226808,0.0717155822703,0.304495202227,1.0,-0.15998,-0.210259428571,2.39
0.256934265603,-0.0573145266056,-0.12755393766,-2.19738965335,0.00378453796372,2.13425662643,-0.0467261507839,-0.343002679119,-0.537646638206,0.00115333222697,-0.632824699175,-0.0814968562252,0.0861326532187,-0.302316041584,0.573770781788,0.818996689869,0.00350126433204,0.0,0.818969076253,-0.573701373691,-0.0117103743374,0.0,-0.00758222364378,0.00958668242765,-0.999925299912,0.0,0.514491692861,0.0677558743555,0.304565986068,1.0,-0.15998,-0.210259428571,2.409
0.251419821293,-0.0659555951111,-0.127589864605,-2.20763095235,0.00247327431003,2.13552165577,-0.0515586736366,-0.346774549118,-0.537049949349,-0.00257643495944,-0.643128583203,-0.0781813918845,0.0720876708859,-0.303501970254,0.57372521617,0.819029505823,0.00328509096971,0.0,0.818997683741,-0.573654851716,-0.0119854924611,0.0,-0.00793211631219,0.0095670453435,-0.999922773605,0.0,0.511833544584,0.0644157804775,0.304455909342,1.0,-0.15998,-0.210259428571,2.425
0.24538115803,-0.0751704672554,-0.127751926706,-2.21798817448,0.00107180643925,2.13702021347,-0.0567551368085,-0.357982855,-0.534397537296,-0.00661920627162,-0.610742669658,-0.0811746714466,0.0859405984289,-0.307105866734,0.573861934472,0.818932655162,0.00354025073278,0.0,0.818905082414,-0.573791794336,-0.0117554094068,0.0,-0.00759566805777,0.00964529700261,-0.999924634196,0.0,0.509213662197,0.0607750111252,0.304581349153,1.0,-0.15998,-0.210259428571,2.442
0.238971417369,-0.0848040414433,-0.127829205358,-2.22913648837,-0.000365018089341,2.13834504296,-0.0623484601292,-0.351758079024,-0.539686100298,0.00448895910691,-0.620385903417,-0.0775842023579,0.0672938777932,-0.310114286953,0.573874760779,0.818924049205,0.00345072110355,0.0,0.818894147932,-0.573803471451,-0.0119456073539,0.0,-0.0078026596216,0.00968124427436,-0.999922693018,0.0,0.506278783674,0.0569964243357,0.304517889659,1.0,-0.15998,-0.210259428571,2.46
0.233616706845,-0.0928355950678,-0.127826789399,-2.23824183499,-0.00157787316505,2.13938568434,-0.0670842733764,-0.361261117354,-0.540657427637,-0.000457411099436,-0.586180533935,-0.0765921185022,0.0780024710943,-0.319144883157,0.573764741332,0.819001140598,0.00344966734261,0.0,0.818970805256,-0.573692951053,-0.0119985396154,0.0,-0.00784791888939,0.00970970276212,-0.999922062884,0.0,0.503855857442,0.053912366043,0.304523293691,1.0,-0.15998,-0.210259428571,2.475
0.227373651367,-0.101869459437,-0.127897978308,-2.24833427992,-0.00303792956733,2.14061034744,-0.0724879652465,-0.359789092876,-0.527603130377,-0.0066841124557,-0.595216800353,-0.0867814674749,0.0619063631301,-0.323344022392,0.573759766052,0.819004293348,0.00352778093469,0.0,0.818975790527,-0.573688711677,-0.0118601655351,0.0,-0.00768982644655,0.0096942396267,-0.999923441213,0.0,0.501023503125,0.0501220468787,0.304578018915,1.0,-0.15998,-0.210259428571,2.493
0.221431576725,-0.110337459535,-0.128018018543,-2.25793103702,-0.00433817352708,2.14153992295,-0.0776271801516,-0.376994725807,-0.526055673019,-0.00827853554665,-0.596635510346,-0.0861185896178,0.0554926406285,-0.324331046041,0.573843952427,0.818945760742,0.00342142165689,0.0,0.818914872179,-0.573772028776,-0.0120348668476,0.0,-0.00789293910412,0.00970817555006,-0.999921723356,0.0,0.498562968172,0.0469335834528,0.304522549598,1.0,-0.15998,-0.210259428571,2.508
0.214985566229,-0.119348697235,-0.128143182687,-2.2677311967,-0.00574885875016,2.14265572299,-0.0832138979839,-0.378165725726,-0.52984343825,-0.00324278214573,-0.567449902177,-0.0783177457237,0.071163503178,-0.326933455119,0.573909522761,0.818898854766,0.00364310964612,0.0,0.818871946126,-0.573838168873,-0.0117999446734,0.0,-0.00757255160613,0.00975552872616,-0.999923740153,0.0,0.495922159121,0.0433132580483,0.304637526408,1.0,-0.15998,-0.210259428571,2.525
0.208217366132,-0.128687048788,-0.128150189951,-2.27815972032,-0.00716669507056,2.14358923082,-0.0891991614558,-0.376130781878,-0.522431177339,-0.000688848519955,-0.577420512154,-0.0801853753973,0.0475598853493,-0.334838173841,0.573789307677,0.818983352988,0.00358396776357,0.0,0.818954772217,-0.5737170257,-0.0119416240974,0.0,-0.00772395672796,0.00978727216213,-0.999922271877,0.0,0.492850082244,0.0394095680398,0.304595295114,1.0,-0.15998,-0.210259428571,2.544
0.201613974557,-0.13751206473,-0.12821482354,-2.2879227264,-0.00858537779596,2.14441575416,-0.0949596693123,-0.390762433775,-0.511247674445,-0.00210063914031,-0.569285790074,-0.0778314068856,0.0461795762205,-0.347243783554,0.573772931376,0.818995216301,0.0034936795302,0.0,0.818965126548,-0.573700567725,-0.0120219379249,0.0,-0.00784173469894,0.00975925215842,-0.999921629026,0.0,0.490258943181,0.0360291733769,0.304551491037,1.0,-0.15998,-0.210259428571,2.56
0.194961333878,-0.146392592059,-0.128357473663,-2.29732624349,-0.00993015811055,2.14534204119,-0.100780274137,-0.400375352671,-0.504898658399,-0.0147331912091,-0.557955855137,-0.0816902494522,0.0477633526152,-0.343727943377,0.573832976695,0.818951783997,0.00379963771263,0.0,0.818926779828,-0.573760941639,-0.0117498097875,0.0,-0.00744258726808,0.00985424312719,-0.999923747986,0.0,0.487631907545,0.0324394141769,0.304688228224,1.0,-0.15998,-0.210259428571,2.577
0.188163301921,-0.15510452144,-0.12848262547,-2.30686274995,-0.0113184516731,2.14594258038,-0.106715124897,-0.395719718817,-0.518650027151,0.000663420462195,-0.556956222064,-0.0745784788417,0.0439250345491,-0.351280507891,0.573872645234,0.818924588529,0.00366773168425,0.0,0.818896968022,-0.573799882634,-0.0119246532302,0.0,-0.00766099522784,0.0098469162321,-0.999922170668,0.0,0.484859675157,0.028816903253,0.304630213585,1.0,-0.15998,-0.210259428571,2.594
0.181794360077,-0.163276073557,-0.128505344256,-2.3156379752,-0.0126053991472,2.14649632616,-0.112299706262,-0.407308865098,-0.514447771684,-0.00122290399529,-0.536940554914,-0.0761747011616,0.0364360065257,-0.359560484324,0.573812869218,0.818966570048,0.0036462533468,0.0,0.818938446624,-0.573739906964,-0.0119618852449,0.0,-0.00770453141044,0.00985013039097,-0.999921804506,0.0,0.482287978486,0.0255112876742,0.304630726409,1.0,-0.15998,-0.210259428571,2.61
0.174877196182,-0.171944770326,-0.128545643358,-2.32472633401,-0.0138650021128,2.14716760345,-0.118413811582,-0.412700309372,-0.505616261336,-0.00309016870778,-0.544475274382,-0.0724417649055,0.0338506263558,-0.359341255698,0.573781149428,0.818987696624,0.00388487331132,0.0,0.818963031389,-0.573707814571,-0.0118170901214,0.0,-0.00744941266628,0.00996218297924,-0.999922627587,0.0,0.47963191268,0.0219772699521,0.304715068138,1.0,-0.15998,-0.210259428571,2.627
0.166985819218,-0.18150920348,-0.128737478634,-2.3349951608,-0.0154424318093,2.14761391048,-0.125293941551,-0.426761743633,-0.509217535689,-0.0170396730527,-0.537244238778,-0.0850507716078,0.0271461052375,-0.370388107679,0.573867599092,0.818927900363,0.00371747495784,0.0,0.818900201854,-0.573793721287,-0.0119988214904,0.0,-0.00769325401911,0.00993016706049,-0.9999210997,0.0,0.476529965799,0.0179073830347,0.304643748563,1.0,-0.15998,-0.210259428571,2.646
0.161512660398,-0.188042167711,-0.128804911454,-2.34182743818,-0.0164331650121,2.14794126376,-0.130075523658,-0.413715777971,-0.502210531335,-0.00312468277506,-0.520843485949,-0.0809933506795,0.0254050576349,-0.365324725975,0.573911713808,0.818896702979,0.00377908794541,0.0,0.818869628342,-0.573837370055,-0.0119979752128,0.0,-0.00765666787101,0.0099805510145,-0.999920878889,0.0,0.474459118418,0.015161745416,0.304663158297,1.0,-0.15998,-0.210259428571,2.659
0.153584536009,-0.197545498986,-0.128826393277,-2.35160290109,-0.0179363676909,2.14845009653,-0.137169545383,-0.422976937882,-0.487925599809,-0.00155654440848,-0.524346139059,-0.0889039620068,0.0159081924571,-0.376312897242,0.573739524827,0.819016610138,0.00393660659279,0.0,0.818992614056,-0.573666017577,-0.0117959865936,0.0,-0.00740295405608,0.0099920678453,-0.999922674436,0.0,0.471480902217,0.011256684694,0.304744435545,1.0,-0.15998,-0.210259428571,2.678
0.146301133176,-0.205931661781,-0.128916840638,-2.36049465561,-0.0192492238161,2.1486426652,-0.143572103931,-0.426689084659,-0.489088771087,-0.00638093789937,-0.520126368727,-0.0791539575852,0.0112545821005,-0.37478354473,0.5737554827,0.819006148046,0.00378449940075,0.0,0.818978708343,-0.573680575334,-0.0120507122989,0.0,-0.00769866189063,0.0100137794792,-0.999920224231,0.0,0.46867935968,0.00768917635283,0.304649135568,1.0,-0.15998,-0.210259428571,2.695
0.138846626287,-0.214328508139,-0.129096656235,-2.36898972196,-0.0205182222281,2.14888604123,-0.150095771426,-0.439547317556,-0.498809779532,-0.012553686075,-0.483871507556,-0.0785415497192,0.0247808397429,-0.381072026471,0.573902868533,0.818902092504,0.00395060550894,0.0,0.818876943475,-0.573827491554,-0.0119711437389,0.0,-0.00753637370667,0.0101055280581,-0.99992053753,0.0,0.46600243758,0.00405037516064,0.304718796741,1.0,-0.15998,-0.210259428571,2.712
0.131459713555,-0.22263142235,-0.129117212877,-2.37740645556,-0.0218438631898,2.149092072,-0.15666737171,-0.432663474515,-0.486717535416,0.00058522855818,-0.50123654124,-0.0920384472911,0.00659365835232,-0.39144126361,0.573796475653,0.81897633691,0.00401385235873,0.0,0.818952548096,-0.57372161628,-0.011873410669,0.0,-0.00742135139759,0.0101002702742,-0.999921450957,0.0,0.463314017259,0.000550393537226,0.304756801609,1.0,-0.15998,-0.210259428571,2.729
0.124777467483,-0.229869381331,-0.129180380665,-2.38490476323,-0.0230158045595,2.14914605368,-0.162590675445,-0.450702087047,-0.489183671426,-0.0066340878451,-0.491046774978,-0.0749309485167,0.000722092395074,-0.399958920625,0.573762071492,0.819000985025,0.0039011212336,0.0,0.81897496342,-0.573686593527,-0.0120186771322,0.0,-0.00760543388669,0.0100909759901,-0.999920161602,0.0,0.460864212904,-0.00259727859949,0.30468763039,1.0,-0.15998,-0.210259428571,2.744
0.117087398706,-0.238083563119,-0.129321461901,-2.39314450624,-0.024317909096,2.1491642706,-0.169373592249,-0.46328838163,-0.482818634736,-0.013200814338,-0.470046756383,-0.084003192185,0.00284815602244,-0.401021421034,0.57383071361,0.818952694957,0.00394239035422,0.0,0.818927156247,-0.57375499945,-0.0120108396392,0.0,-0.00757448914806,0.0101209140617,-0.999920093914,0.0,0.457990845203,-0.00642371231591,0.304708699631,1.0,-0.15998,-0.210259428571,2.762
0.108380717592,-0.247219038152,-0.129482066724,-2.40205680171,-0.0257224194918,2.14924606905,-0.177111416148,-0.447396511346,-0.486552981712,-0.00305771083865,-0.472188655094,-0.0663519770209,-0.00938055132007,-0.405358444374,0.573885400051,0.818913175526,0.0041839525139,0.0,0.818891759165,-0.573810173297,-0.0117863774479,0.0,-0.007251364878,0.0101904303686,-0.999921783359,0.0,0.455184699957,-0.0102377018697,0.3048200161,1.0,-0.15998,-0.210259428571,2.78
0.10195157177,-0.253801557985,-0.129521817282,-2.40878400095,-0.0267366317131,2.14919281017,-0.182841748585,-0.466027069014,-0.473277496369,-0.00871926545677,-0.480487081753,-0.0764612214765,-0.00639472281225,-0.410283543367,0.573854304375,0.818935319851,0.00411414046024,0.0,0.818912012793,-0.573777955761,-0.0119465345338,0.0,-0.00742297889187,0.0102248861705,-0.999920172357,0.0,0.452898065233,-0.0131384477261,0.304738926364,1.0,-0.15998,-0.210259428571,2.794
0.0944632069722,-0.261302686873,-0.129611419066,-2.41625890699,-0.0279552290387,2.14907933997,-0.189480841639,-0.466777026142,-0.461561978911,-0.00447541575333,-0.463920197766,-0.0839843295476,-0.0115037027765,-0.41239002496,0.573867226399,0.818926441453,0.00407883021443,0.0,0.818902446702,-0.573790690615,-0.0119905400191,0.0,-0.00747911945956,0.0102213387785,-0.999919790286,0.0,0.450323089073,-0.0165105921056,0.304710600912,1.0,-0.15998,-0.210259428571,2.81
0.0864032097744,-0.269303183804,-0.129767745405,-2.42384211861,-0.0291884522613,2.1490024489,-0.196691485101,-0.472949767879,-0.472940304991,-0.0057284173889,-0.442423458058,-0.074235246424,-0.00458202612747,-0.431313345088,0.573915735663,0.818891118517,0.00433719641112,0.0,0.81887178831,-0.573840142663,-0.0117146011141,0.0,-0.00710426218104,0.0102749995234,-0.999921973878,0.0,0.447694148246,-0.0201237390079,0.304839276179,1.0,-0.15998,-0.210259428571,2.827
0.0783734410147,-0.277152971612,-0.12980470556,-2.43155070377,-0.0304480753675,2.14878694951,-0.203947431177,-0.479097093333,-0.459009413712,-0.000360569002507,-0.462080121889,-0.0770769840396,-0.019382102043,-0.436262925434,0.573785939682,0.818982265564,0.00430011813815,0.0,0.818962271837,-0.573710224341,-0.0117525612396,0.0,-0.00715825530702,0.0102652865527,-0.99992168857,0.0,0.444797710889,-0.023831570906,0.304808184078,1.0,-0.15998,-0.210259428571,2.845
0.0706157471412,-0.28444438232,-0.129859305687,-2.43870749588,-0.0316446869102,2.14848762662,-0.210879495578,-0.479544396066,-0.460571910326,-0.00224819221955,-0.443843851312,-0.0768951540277,-0.0152580103678,-0.433760766725,0.57374600217,0.819010628392,0.00422640215814,0.0,0.818989416346,-0.573670166216,-0.0118162264878,0.0,-0.00725319389893,0.0102410885176,-0.999921252542,0.0,0.442217019814,-0.0271919724433,0.30477107674,1.0,-0.15998,-0.210259428571,2.861
0.0607857935164,-0.293558500256,-0.130060721984,-2.44733560642,-0.0329821906739,2.14814928371,-0.219671427079,-0.497341898271,-0.452135157016,-0.011382014734,-0.421914208765,-0.0696870204676,-0.0116712797777,-0.446298657102,0.573892137009,0.818907121122,0.00443722400662,0.0,0.818888620726,-0.573815543242,-0.011742916213,0.0,-0.00707034573179,0.0103729592384,-0.999921202859,0.0,0.439214451833,-0.0312276221425,0.304825712375,1.0,-0.15998,-0.210259428571,2.88
0.0534004022658,-0.300333612097,-0.130133874321,-2.45363055006,-0.0340163098327,2.14787418839,-0.226374974587,-0.490042450655,-0.445676698322,-0.000907398600473,-0.417806449101,-0.0740196678699,-0.0241297184614,-0.445439422019,0.573841798874,0.818941484411,0.00460237722493,0.0,0.818925971106,-0.573765966552,-0.0115592549691,0.0,-0.00682579742395,0.0104023901817,-0.999922596388,0.0,0.436877614469,-0.0343534395755,0.304906022999,1.0,-0.15998,-0.210259428571,2.895
0.0443590791281,-0.308267023246,-0.130206791392,-2.4613617516,-0.0353690484068,2.14729931429,-0.234405078724,-0.504812022945,-0.434241090663,-0.00721164474552,-0.427720148911,-0.0715825741473,-0.0345536283527,-0.442656471736,0.573866841338,0.818925177708,0.00437591477021,0.0,0.81890563358,-0.573790092575,-0.0117999938372,0.0,-0.0071525932186,0.0103552858199,-0.999920801097,0.0,0.433918876028,-0.0381330930795,0.304796950403,1.0,-0.15998,-0.210259428571,2.913
0.0367483182124,-0.314892305141,-0.130352031689,-2.46760143085,-0.0363497031009,2.14688528394,-0.241301720391,-0.513065152385,-0.443310997365,-0.0126558424506,-0.412900879227,-0.0690924179698,-0.0338848741055,-0.457478269299,0.573915541173,0.818890589784,0.0044609937006,0.0,0.81887165632,-0.573837777366,-0.0118390305522,0.0,-0.00713512137456,0.010447786079,-0.999919963702,0.0,0.431509741912,-0.0413008860613,0.30479276416,1.0,-0.15998,-0.210259428571,2.928
0.0286044706855,-0.321892994257,-0.130458421792,-2.47396965079,-0.0374559297795,2.14645327808,-0.24874093035,-0.504481656905,-0.432744344714,-0.00133104891652,-0.385379016475,-0.065793454553,-0.0230853044561,-0.470373537016,0.573855825566,0.818931621408,0.00460845118338,0.0,0.818915663685,-0.573779177013,-0.0116335162192,0.0,-0.00688295349095,0.0104500951103,-0.999921707167,0.0,0.428862731588,-0.0448614682322,0.304874749907,1.0,-0.15998,-0.210259428571,2.945
0.0182532123481,-0.330495777168,-0.13052951728,-2.48191434055,-0.038800375208,2.14581999249,-0.258136285336,-0.52490179365,-0.423005075888,-0.00282640319478,-0.407781085562,-0.0688019449259,-0.0439790013289,-0.472833927589,0.573815378898,0.818959631816,0.00466682940872,0.0,0.818944680392,-0.573738942319,-0.0115751209579,0.0,-0.00680214599134,0.0104640590024,-0.999922114106,0.0,0.425843592096,-0.0488317686601,0.304895191414,1.0,-0.15998,-0.210259428571,2.964
0.00983253021614,-0.337273243649,-0.130686384757,-2.48825285077,-0.039838091978,2.14514127159,-0.265758760778,-0.530642477096,-0.42905421325,-0.0114050285039,-0.385403570647,-0.0686741876514,-0.0382424363978,-0.4723480542,0.573897294257,0.818902431743,0.00463139634264,0.0,0.81888572842,-0.573818985948,-0.0117763345706,0.0,-0.00698622037043,0.0105511940572,-0.999919929309,0.0,0.423232385,-0.0522190636931,0.304840443581,1.0,-0.15998,-0.210259428571,2.98
0.000898968270883,-0.344449164803,-0.130793366361,-2.49478658815,-0.0409321542434,2.14450307454,-0.273933622264,-0.523959582391,-0.413647881888,-0.00164868545775,-0.382302182813,-0.0652697734789,-0.0392174184447,-0.491493378121,0.573870630113,0.818920678395,0.0047084276833,0.0,0.818904948567,-0.57379203193,-0.0117531360255,0.0,-0.00692336113582,0.0106007384036,-0.999919842495,0.0,0.420521109621,-0.0557557493777,0.30485472876,1.0,-0.15998,-0.210259428571,2.997
-0.00715052642436,-0.35067474589,-0.130886835688,-2.50032146189,-0.0419515224211,2.14390430862,-0.281250813011,-0.548289923964,-0.409355871061,-0.00298280981319,-0.365810847845,-0.0623632300032,-0.0380970320227,-0.492364588406,0.57387749592,0.818915533667,0.00476605671564,0.0,0.818901306662,-0.573799880616,-0.0116229881654,0.0,-0.00678361338744,0.0105733049844,-0.999921090792,0.0,0.41816496137,-0.0589285270304,0.304910220197,1.0,-0.15998,-0.210259428571,3.012
-0.0158488828504,-0.357248582668,-0.131024099394,-2.50616645141,-0.0429844530378,2.14324093197,-0.289193082422,-0.542813315917,-0.398919554497,-0.0153440051694,-0.373375095589,-0.0659564025919,-0.0508243811958,-0.49519096708,0.573916083189,0.818887971092,0.00485460183579,0.0,0.818875270808,-0.573838794419,-0.0115358475917,0.0,-0.00666093620799,0.0105961258673,-0.999921673955,0.0,0.415632089881,-0.0623307114887,0.304951845953,1.0,-0.15998,-0.210259428571,3.028
-0.0250251482373,-0.364112906503,-0.13111949939,-2.51247560811,-0.0441045620324,2.1423988255,-0.297695570143,-0.529783855617,-0.399711013798,-0.000402003438962,-0.360044208123,-0.0599989142267,-0.0490108975166,-0.496228312472,0.573794891815,0.818973560678,0.0047408794603,0.0,0.818958314166,-0.573716295729,-0.0117319467674,0.0,-0.00688836703776,0.010614518139,-0.999919937997,0.0,0.412853473671,-0.0658459479482,0.304875564918,1.0,-0.15998,-0.210259428571,3.045
-0.0344127434063,-0.370894706874,-0.13119845364,-2.51853686925,-0.0451805071055,2.14160521005,-0.30629935246,-0.560302121299,-0.392899702777,-0.00781143435902,-0.352207781889,-0.0586385856056,-0.0568632795406,-0.507337077607,0.573775805284,0.8189869105,0.00474474454167,0.0,0.818971602757,-0.573697028159,-0.0117465169476,0.0,-0.00689833059538,0.010625882844,-0.999919748604,0.0,0.410127931434,-0.0694087801688,0.304866962716,1.0,-0.15998,-0.210259428571,3.062
-0.0451075570701,-0.378349049949,-0.131374066155,-2.52503404692,-0.0462886169026,2.14066484854,-0.315977306307,-0.55829713427,-0.395310690902,-0.0114265396661,-0.324964683977,-0.0650169602453,-0.0440927227081,-0.515397801284,0.573984039267,0.818840225002,0.00487396004506,0.0,0.818826508624,-0.573904673122,-0.0117184403399,0.0,-0.00679847276983,0.0107173317489,-0.99991945654,0.0,0.407109650616,-0.0734583217284,0.304907824117,1.0,-0.15998,-0.210259428571,3.081
-0.0539572553826,-0.384528736943,-0.131434721784,-2.53035086726,-0.0472531148212,2.13992277216,-0.32431287118,-0.553700119337,-0.382468797129,-0.00429189620432,-0.330571723857,-0.0563246799074,-0.051771979905,-0.521230117019,0.573801295557,0.818967724135,0.0049685957196,0.0,0.818956060342,-0.573722984366,-0.0115609403075,0.0,-0.00661756681678,0.0107029501672,-0.999920824199,0.0,0.404617322865,-0.0767461128976,0.3049646633,1.0,-0.15998,-0.210259428571,3.097
-0.0637078682154,-0.390997492306,-0.131562102139,-2.53612687127,-0.0483420737636,2.13897244155,-0.333263472404,-0.574512795983,-0.378954772176,-0.0103756446602,-0.334284180192,-0.060958592121,-0.0487251209674,-0.527327492474,0.573826203968,0.818950895943,0.00486462490656,0.0,0.81893703108,-0.573746851775,-0.0117233146178,0.0,-0.0068098868959,0.0107111728266,-0.999919444864,0.0,0.401828758909,-0.0803502285219,0.304899661888,1.0,-0.15998,-0.210259428571,3.114
-0.0741041882643,-0.397771890822,-0.131698953098,-2.54194858807,-0.0494093564999,2.13798415925,-0.342821905192,-0.571675113384,-0.369478959436,-0.00319314235688,-0.317996125687,-0.0563184906936,-0.0497660634801,-0.542572247943,0.573892037259,0.818904483629,0.00491153386725,0.0,0.818891235117,-0.573812534193,-0.0117075852202,0.0,-0.00676922466268,0.0107411087679,-0.999919399842,0.0,0.398941294953,-0.0841591353371,0.304920830347,1.0,-0.15998,-0.210259428571,3.132
-0.0831993461134,-0.403602731447,-0.131745309769,-2.54699377436,-0.0503138013434,2.13710527203,-0.351419571626,-0.568900360245,-0.361437713781,-0.00923060428206,-0.310987754276,-0.0607093291407,-0.0549596360733,-0.552381057174,0.573713669191,0.819029425992,0.00491650734909,0.0,0.819015998416,-0.573633794169,-0.0117393111751,0.0,-0.00679469734751,0.0107619086633,-0.999919003425,0.0,0.396404983965,-0.0874220642293,0.304911042314,1.0,-0.15998,-0.210259428571,3.148
-0.0926947392419,-0.409341974321,-0.131881602738,-2.55184296555,-0.0512802783247,2.13623423001,-0.360130157622,-0.597846319569,-0.353795098409,-0.0194126232894,-0.294875176644,-0.0613342116747,-0.0558922822624,-0.551793382972,0.573815996419,0.818957599677,0.00493954318602,0.0,0.818944980169,-0.573736840289,-0.0116578064706,0.0,-0.00671338055806,0.0107348566118,-0.999919843475,0.0,0.393864189554,-0.0908613844304,0.304941270382,1.0,-0.15998,-0.210259428571,3.164
-0.103899614151,-0.416080300615,-0.131990654608,-2.55749939802,-0.0522513445804,2.13521882311,-0.370594764188,-0.575495473932,-0.353176090725,0.0003875910782,-0.300184837016,-0.0470359825883,-0.0618417507528,-0.55965849531,0.573820287115,0.818953664234,0.00509125069259,0.0,0.818943289894,-0.573741116563,-0.0115657254047,0.0,-0.00655085946695,0.0108063015191,-0.999920151856,0.0,0.390862883186,-0.0948340711086,0.304982200714,1.0,-0.15998,-0.210259428571,3.183
-0.112786721863,-0.421324398329,-0.132095282559,-2.56200045542,-0.0530685254271,2.1342481631,-0.378968345509,-0.593722077855,-0.35030368261,-0.00950022644147,-0.300639083163,-0.0570670893249,-0.0627247649343,-0.56141441895,0.573753153077,0.819000881391,0.00506186887813,0.0,0.818989085246,-0.573672384155,-0.0117311894798,0.0,-0.0067041292114,0.0108766317244,-0.999918373435,0.0,0.388411380948,-0.0979476572195,0.304943365281,1.0,-0.15998,-0.210259428571,3.198
-0.123156451772,-0.427076732058,-0.132268721192,-2.56688989871,-0.054034317872,2.13321070802,-0.388487370807,-0.611272423172,-0.330680313359,-0.00674429080741,-0.277915096794,-0.0571900992294,-0.0531919888585,-0.557453538767,0.573927349491,0.81887900575,0.00503173417849,0.0,0.818866229363,-0.57384570175,-0.0118302955514,0.0,-0.0068002725545,0.0109102574197,-0.999917357873,0.0,0.385647386715,-0.101595520459,0.30491349457,1.0,-0.15998,-0.210259428571,3.215
-0.133315393645,-0.432681885545,-0.132297306395,-2.57153054765,-0.054892651056,2.1322868667,-0.398134290438,-0.599007681751,-0.328898425885,-0.00285851929104,-0.271531300262,-0.0550062834351,-0.0567017534532,-0.572658197752,0.573772294253,0.818987255831,0.00509666913293,0.0,0.818975854555,-0.573691314873,-0.011729100425,0.0,-0.0066821976071,0.0109040917565,-0.999918221165,0.0,0.38299244844,-0.105085096887,0.304941168931,1.0,-0.15998,-0.210259428571,3.232
-0.143105744984,-0.437803942916,-0.132418929328,-2.57583164368,-0.0556994433756,2.13129375139,-0.407352967431,-0.61004922637,-0.318206937619,-0.0115574163269,-0.266090993246,-0.0454465463363,-0.058818192019,-0.582633131174,0.573771887128,0.818987515188,0.00510082433838,0.0,0.818975416706,-0.573689672242,-0.0118394973118,0.0,-0.00677024058976,0.0109708316758,-0.999916898894,0.0,0.380425398816,-0.108448871942,0.304915558899,1.0,-0.15998,-0.210259428571,3.248
-0.15370574194,-0.443238409245,-0.132549046995,-2.58016115404,-0.0565916141964,2.13031006977,-0.417187575264,-0.615263846831,-0.320428960721,-0.00670728970545,-0.252857591065,-0.0505956901899,-0.0556525469215,-0.580247806469,0.573894036329,0.818901413655,0.00518234314588,0.0,0.818891418507,-0.573813242829,-0.0116599292832,0.0,-0.00657476203165,0.0109355507528,-0.999918589803,0.0,0.377738038107,-0.112089836458,0.304991391921,1.0,-0.15998,-0.210259428571,3.265
-0.164758344493,-0.44888412524,-0.132611192313,-2.58477839743,-0.0575040534379,2.12922836889,-0.427712030822,-0.620557384599,-0.306790175234,-0.00888653864682,-0.262307787952,-0.0573242594954,-0.0564936187324,-0.580851124594,0.573747451242,0.819004075606,0.00518972408012,0.0,0.818994343877,-0.573666939533,-0.011629878994,0.0,-0.00654787123166,0.010923178404,-0.999918901489,0.0,0.37486370977,-0.11579594519,0.305002887754,1.0,-0.15998,-0.210259428571,3.283
-0.175526074252,-0.453986729575,-0.132798140768,-2.58904404773,-0.0582934877068,2.12815186968,-0.437796515777,-0.639565809018,-0.297087462806,-0.0169089089734,-0.246635976981,-0.049428765975,-0.0668355114252,-0.585806560411,0.573889334929,0.818904476283,0.00521889638948,0.0,0.818893855311,-0.573806595052,-0.0118149104698,0.0,-0.00668077452907,0.0110543861278,-0.99991658042,0.0,0.372081258225,-0.119412564226,0.304951340006,1.0,-0.15998,-0.210259428571,3.3
-0.185499697748,-0.45863299844,-0.1328214226,-2.59276096844,-0.0589895703189,2.12723367757,-0.447382572461,-0.625976695169,-0.286071446497,0.00309435031582,-0.226666163416,-0.0478406076697,-0.0650291901715,-0.594218796217,0.573733892007,0.819012974683,0.00528349934918,0.0,0.819003528143,-0.573651518319,-0.0117432244287,0.0,-0.00658709257,0.0110649034978,-0.999917085624,0.0,0.369582090826,-0.122702483346,0.304981951829,1.0,-0.15998,-0.210259428571,3.316
-0.195073399515,-0.462830117823,-0.132952906503,-2.5961968,-0.0596642457319,2.12637105911,-0.456463821377,-0.645026309928,-0.282097233555,-0.0118390875604,-0.230820631465,-0.0450171356496,-0.0615837883736,-0.606982792229,0.573766330098,0.818990016113,0.00531966665519,0.0,0.818980674905,-0.573683214321,-0.0117885808971,0.0,-0.00660305372227,0.011120809096,-0.999916360145,0.0,0.367184350626,-0.125877318408,0.304962934317,1.0,-0.15998,-0.210259428571,3.331
-0.206073733075,-0.467544873537,-0.13310044427,-2.60004377217,-0.0604548319154,2.12533394512,-0.466766923391,-0.634589519506,-0.269032139815,-0.00493818474231,-0.218461361908,-0.042040307801,-0.0606180246211,-0.610611834141,0.573905091707,0.818892793288,0.00531843158488,0.0,0.818882828107,-0.573820934391,-0.0118825917606,0.0,-0.00667886996575,0.0111748673622,-0.999915253927,0.0,0.364417621239,-0.129493110886,0.304934890303,1.0,-0.15998,-0.210259428571,3.348
-0.216264958215,-0.471909277625,-0.133169380939,-2.60339559523,-0.0611540279223,2.12442092747,-0.4765622587,-0.640381316301,-0.277008051056,-0.00406299383403,-0.202973911389,-0.0527709032963,-0.0602956839923,-0.615523353578,0.573802002708,0.818964555941,0.00539116891113,0.0,0.818956465113,-0.573719183607,-0.0117197915001,0.0,-0.00650520206048,0.0111401869515,-0.999916785828,0.0,0.361910844834,-0.132809348049,0.305003418179,1.0,-0.15998,-0.210259428571,3.364
-0.227446814441,-0.476375135374,-0.133349912184,-2.60683458007,-0.061880204247,2.12347062384,-0.487103222612,-0.664436463124,-0.257341080783,-0.00358891760485,-0.20025209699,-0.0395717999813,-0.0635257359802,-0.622156280067,0.573959018597,0.818853840175,0.00549366024602,0.0,0.818847758505,-0.573877017385,-0.0115872434015,0.0,-0.00633569538164,0.0111492888878,-0.99991777278,0.0,0.359033065137,-0.136675278808,0.305061224992,1.0,-0.15998,-0.210259428571,3.382
-0.239058489081,-0.480825706594,-0.133359006683,-2.61044385734,-0.0625983831243,2.12245046976,-0.498359438478,-0.641652703402,-0.243601631727,-0.0113428341057,-0.199715733631,-0.0248973143027,-0.0528170637727,-0.63055762176,0.573760847266,0.818992825083,0.0054762677197,0.0,0.818985980126,-0.573677997065,-0.0116733432203,0.0,-0.00641889362895,0.011182909088,-0.999916866719,0.0,0.356335008529,-0.14015046968,0.305024078476,1.0,-0.15998,-0.210259428571,3.399
-0.249615197041,-0.484626475449,-0.133439556593,-2.61352789104,-0.0632687453634,2.12154277379,-0.508412327249,-0.674057342841,-0.236486475845,-0.00746572540141,-0.193170475461,-0.0411569339823,-0.0559027307594,-0.624589851427,0.573778854585,0.818980463668,0.00543811203139,0.0,0.818972512714,-0.573695073867,-0.0117784779105,0.0,-0.00652665087513,0.0112121217071,-0.999915842036,0.0,0.353754081063,-0.143511043354,0.304983464455,1.0,-0.15998,-0.210259428571,3.415
-0.262216790914,-0.488951916973,-0.133533536897,-2.61699629238,-0.0640132793171,2.12045480386,-0.520517739773,-0.64853170699,-0.222129186551,0.00430870053857,-0.181574416199,-0.0269560918868,-0.0518612877873,-0.63627894247,0.573746454677,0.819003308387,0.0054160408583,0.0,0.818994214777,-0.573661299137,-0.01191372885,0.0,-0.00665053835186,0.0112713828286,-0.999914359467,0.0,0.350696159166,-0.147495052331,0.304945875313,1.0,-0.15998,-0.210259428571,3.434
-0.272838242733,-0.492408906561,-0.133636840356,-2.61973415349,-0.0645867875045,2.11964623976,-0.530755003288,-0.66941465606,-0.216876550537,-0.00911627470023,-0.166184709046,-0.0389409715232,-0.0480673211152,-0.645340459387,0.573740926786,0.819006886103,0.00546043475392,0.0,0.818998139802,-0.573655215149,-0.0119368352266,0.0,-0.00664407129422,0.0113209547752,-0.999913842438,0.0,0.348158502167,-0.150847162217,0.304931799057,1.0,-0.15998,-0.210259428571,3.45
-0.284335630177,-0.496048039553,-0.133773195997,-2.62252157844,-0.0651869405316,2.11873927388,-0.541738674496,-0.665267608485,-0.212056573479,-0.00425379569582,-0.1632499968,-0.0327355907749,-0.056236914027,-0.653555425614,0.573849471848,0.818930357025,0.00553180837014,0.0,0.818922499038,-0.573763401515,-0.0119267158751,0.0,-0.00659332744472,0.0113744809345,-0.999913570873,0.0,0.345419731844,-0.154463391694,0.304950561703,1.0,-0.15998,-0.210259428571,3.467
-0.294302842605,-0.499136406225,-0.133791006092,-2.62486192544,-0.0656672159225,2.11797809212,-0.55144300728,-0.675701069705,-0.201744793843,-0.000138471099537,-0.15465211088,-0.0337558269133,-0.0453826019605,-0.645057559581,0.573742518906,0.819004942088,0.00558334449373,0.0,0.818998005533,-0.573656712269,-0.0118739337272,0.0,-0.00652201292784,0.0113855478576,-0.999913912618,0.0,0.343058042504,-0.157543432909,0.304977931018,1.0,-0.15998,-0.210259428571,3.482
-0.304590125446,-0.502059782663,-0.133923715243,-2.6270934834,-0.0661763596208,2.11725384176,-0.561261774518,-0.68706489037,-0.194230562316,-0.0109940884797,-0.147565048927,-0.0354513312888,-0.0418984258799,-0.659782024782,0.573879580649,0.818908502108,0.00564260502834,0.0,0.818902436572,-0.573793705877,-0.0118460699336,0.0,-0.00646328057339,0.0114191805068,-0.999913910455,0.0,0.340637023581,-0.160757160407,0.30499057004,1.0,-0.15998,-0.210259428571,3.497
-0.318749373236,-0.505845451781,-0.133953025725,-2.62997980135,-0.0668327942438,2.11634545819,-0.575051605622,-0.678775961244,-0.170933078995,-0.000150018394635,-0.130372253669,-0.025674655216,-0.0373096157885,-0.658484939761,0.573761267555,0.818991179153,0.00567478848257,0.0,0.818986072468,-0.573676260914,-0.0117519218991,0.0,-0.00636935156509,0.0113905896406,-0.999914839288,0.0,0.337347451434,-0.165114406414,0.305010704431,1.0,-0.158076,-0.207757028571,3.518
-0.32965757412,-0.508567280896,-0.134017760091,-2.63203588491,-0.0673255142206,2.1156689276,-0.585515098746,-0.681302481103,-0.164328599843,-0.00354812714441,-0.128355603778,-0.0240984862294,-0.0477227873628,-0.65642553893,0.573845665543,0.818931841044,0.00570427587734,0.0,0.818927483149,-0.573761198368,-0.0116880918595,0.0,-0.00629897969645,0.011378768216,-0.999915419667,0.0,0.334820164424,-0.168469655278,0.305028078715,1.0,-0.156284,-0.205401828571,3.534
-0.341075795576,-0.511273073702,-0.13398121987,-2.63410742444,-0.0677607580802,2.11494709065,-0.596631086438,-0.662509282048,-0.15571635231,0.00113694426362,-0.115571592504,-0.0196797947603,-0.0336525865487,-0.653184338519,0.573764722335,0.818988407655,0.00572524518206,0.0,0.818984253331,-0.573680074931,-0.0116923617946,0.0,-0.00629157081509,0.0113977698115,-0.999915249899,0.0,0.332176947747,-0.171916961707,0.305028941189,1.0,-0.15438,-0.202899428571,3.551
-0.352446053194,-0.513709665138,-0.133987096927,-2.63601538677,-0.0681577922068,2.11422957086,-0.607657863951,-0.674451441726,-0.140334067069,-0.000566724545294,-0.111635016189,-0.0220613057542,-0.0458145149845,-0.648362178675,0.573773355609,0.818982170482,0.00575219330507,0.0,0.818977622081,-0.573687266325,-0.0118034693508,0.0,-0.0063669934799,0.0114836549079,-0.999913789816,0.0,0.329545116727,-0.175344873566,0.305001745508,1.0,-0.152476,-0.200397028571,3.568
-0.36387216639,-0.515943888626,-0.133992828404,-2.63776689066,-0.0685472953465,2.11358585926,-0.618622414304,-0.66682711994,-0.124701239617,0.00367434750435,-0.102310746794,-0.0236304509982,-0.0434438611573,-0.649124965087,0.573890374676,0.818900047875,0.00577029853066,0.0,0.818895197227,-0.573803226934,-0.0118852689809,0.0,-0.00642195506275,0.0115463335246,-0.999912716528,0.0,0.326923452731,-0.178786378693,0.304975509564,1.0,-0.150572,-0.197894628571,3.585
-0.374295434103,-0.51787405309,-0.133969880248,-2.63928796766,-0.0688285536938,2.11302975853,-0.628830545601,-0.6630998064,-0.120586658244,0.000341850451649,-0.0989819687606,-0.0213446950045,-0.035514197653,-0.638809728099,0.573844380661,0.818931867525,0.0058283820268,0.0,0.818927175054,-0.573755940423,-0.0119645178745,0.0,-0.00645418041901,0.011639015865,-0.99991143451,0.0,0.324535063215,-0.181893392811,0.304948782882,1.0,-0.14878,-0.195539428571,3.601
