imanlab/proactive-slip-control/data_set/data_sample_2022-02-22-11-23-11/robot_state.csv
position_joint1,position_joint2,position_joint3,position_joint4,position_joint5,position_joint6,position_joint7,velocity_joint1,velocity_joint2,velocity_joint3,velocity_joint4,velocity_joint5,velocity_joint6,velocity_joint7,ee_T_00,ee_T_10,ee_T_20,ee_T_30,ee_T_01,ee_T_11,ee_T_21,ee_T_31,ee_T_02,ee_T_12,ee_T_22,ee_T_32,ee_T_03,ee_T_13,ee_T_23,ee_T_33,v_x,v_y,time
0.465051013904,0.547734551845,-0.124025913994,-1.35583913572,0.0794114883074,1.89409457846,0.159154907219,0.000495365756474,-0.00123888768746,0.000337885125259,0.000646797580365,0.000139080065745,8.3720791497e-05,0.000888357676244,0.573823698747,0.818964854888,0.00191732019768,0.0,0.818922269088,-0.57376621981,-0.0118063160366,0.0,-0.00856902931803,0.00834504081142,-0.999928463456,0.0,0.661695190442,0.260838972881,0.303245052194,1.0,0.0,0.0,0.0
0.46505097887,0.547731365078,-0.1240275907,-1.35584342873,0.0794108779762,1.89409390707,0.159150121798,-0.000713936198278,0.000428404393332,-0.000366895303185,0.00117131989837,0.000473542485165,6.65763523058e-05,-0.000129843033762,0.573826197083,0.818963115886,0.00191239670411,0.0,0.818920513108,-0.573768783493,-0.011803524928,0.0,-0.00856954301322,0.00833943327171,-0.999928505837,0.0,0.661697016974,0.260833787371,0.303243771141,1.0,-0.00028,-0.000368,0.015
0.465042509146,0.547731814047,-0.124031009018,-1.35584016327,0.0794106619317,1.89409710009,0.15915607335,-0.00205733731353,-0.00417672195007,-0.000926862023552,-0.0012636097888,0.000244333267387,-0.000121238689344,0.00058677117899,0.573835028626,0.818956911872,0.00191919767829,0.0,0.818914386791,-0.573777576127,-0.0118011500394,0.0,-0.00856360567681,0.00834373250325,-0.999928520838,0.0,0.661698965429,0.260830348773,0.303246888899,1.0,-0.00056,-0.000736,0.029
0.465050295679,0.547707277016,-0.12402579815,-1.35587141428,0.079405508562,1.89410449034,0.159145990445,0.00090107826893,-0.000544177011242,-0.000584043492502,-0.00501636023453,-0.000344864790166,0.0050923553146,-0.00286137388512,0.573817102442,0.8189694713,0.00191961607723,0.0,0.818926947995,-0.573759646846,-0.0118012033028,0.0,-0.00856359186273,0.00834391826628,-0.999928519406,0.0,0.66169098554,0.260834796445,0.303249856762,1.0,-0.00092,-0.00120914285714,0.047
0.465055232494,0.547595644615,-0.124028330331,-1.35598560114,0.0794066976044,1.89412570696,0.159154014225,0.000501455616995,-0.0102941421438,-0.000959182657084,-0.0109941592333,-0.000102215731598,-0.000103758760403,0.00212209319348,0.573827898641,0.81896185638,0.00194098881527,0.0,0.818919523086,-0.57377027008,-0.0117999483958,0.0,-0.00855019058433,0.00836081419853,-0.999928492957,0.0,0.661671219197,0.260826147106,0.303276516673,1.0,-0.00126,-0.001656,0.064
0.4650469239,0.547460808067,-0.124023062042,-1.35617555592,0.079403276166,1.89416919441,0.159149206449,-0.000650209706709,-0.0100346746907,0.00428796228995,-0.0143805937152,-1.77576066055e-05,0.00343656582494,0.000563055508133,0.573836608271,0.818955760786,0.00193798498764,0.0,0.818913253939,-0.573778859296,-0.0118173621917,0.0,-0.00856608695239,0.00836843774948,-0.999928293131,0.0,0.661641050382,0.260805318115,0.30328521594,1.0,-0.0016,-0.00210285714286,0.081
0.465031264181,0.547315848422,-0.124026511253,-1.35635838924,0.079397273529,1.89426343777,0.159142004529,-0.000692434368234,-0.0114846302246,0.000179426683734,-0.0132621182418,0.000384481807895,0.0114192984618,-0.000748143803201,0.57385472827,0.818942945683,0.00198732493483,0.0,0.818901085401,-0.573796784388,-0.0117902271974,0.0,-0.00851536668133,0.0083934617709,-0.99992851661,0.0,0.661626970966,0.260778600267,0.303309164029,1.0,-0.0019,-0.00249714285714,0.096
0.465014439231,0.547122153483,-0.124025424663,-1.35656781428,0.0793943718961,1.89438012014,0.159127391458,-0.00108138397469,-0.0146207902207,0.000368169731481,-0.0110936840759,0.000659287762219,0.00591154832521,0.000483664672157,0.57386689785,0.818934190996,0.00207876658643,0.0,0.818893473892,-0.57380854894,-0.0117462539291,0.0,-0.0084267571613,0.00844323725351,-0.999928848223,0.0,0.661611641629,0.260753253785,0.303356774918,1.0,-0.00224,-0.002944,0.113
0.464999528451,0.546918764012,-0.124022649384,-1.35682635969,0.0793883711421,1.89450003884,0.159112994357,0.00146337854663,-0.0139273120169,0.00110329548104,-0.015950792934,0.000248799404154,0.00568589106202,-0.00160201711165,0.573878354576,0.818926005842,0.00213962747791,0.0,0.818886009292,-0.573819700191,-0.0117218753002,0.0,-0.00837174930482,0.00847920476756,-0.99992900593,0.0,0.661585220311,0.260724157679,0.303388083884,1.0,-0.00258,-0.00339085714286,0.13
0.464955919957,0.546667494785,-0.124023704288,-1.35720680671,0.079375795144,1.89464321596,0.159083447066,-0.00393658368303,-0.0139564610704,0.000398602220016,-0.0248804770525,0.000107018772618,0.0100429620723,-0.00355662229611,0.573908564395,0.818904790053,0.00215672048976,0.0,0.818864930899,-0.57384975554,-0.0117230504592,0.0,-0.00836258965506,0.00849418537361,-0.999928955431,0.0,0.661545446047,0.260660523057,0.303397404016,1.0,-0.00294,-0.003864,0.148
0.464924244912,0.546390852494,-0.124028757215,-1.35761219078,0.0793535784882,1.89479949052,0.158971958233,0.000201850873608,-0.0159215847973,0.00271620469979,-0.0236150412278,0.000193697917534,0.0103162029769,-0.00474250449426,0.573863533307,0.818936283112,0.00218088139945,0.0,0.818896742113,-0.573804642988,-0.0117091564022,0.0,-0.00833781367833,0.00850553829593,-0.999929065825,0.0,0.661501553191,0.260599171982,0.303414060464,1.0,-0.00328,-0.00431085714286,0.165
0.464880307227,0.546103809733,-0.124021573765,-1.35809623585,0.0793226908683,1.89496323117,0.158938027568,-0.00513603596958,-0.0206960984197,0.000936787413397,-0.033282797128,-0.00186669371941,0.0127420374826,0.00183992077117,0.573885515122,0.818920953338,0.00215281628894,0.0,0.818881006043,-0.573826685919,-0.0117294232842,0.0,-0.00837028821551,0.00849441003576,-0.999928889108,0.0,0.661442203588,0.260526687668,0.303400850654,1.0,-0.00362,-0.00475771428571,0.182
0.464833799217,0.545782258983,-0.124023707882,-1.35863146594,0.0792513844493,1.89514285733,0.158882883472,-0.00163786195181,-0.0178776436138,0.000407618827087,-0.0324921633649,-0.00449217984191,0.0150304066364,-0.00367386368171,0.573890826605,0.81891736441,0.00210150119964,0.0,0.818877082667,-0.573832528058,-0.0117175137092,0.0,-0.00838992723021,0.00844560740404,-0.999929137908,0.0,0.661380207629,0.260436021118,0.30338930564,1.0,-0.00396,-0.00520457142857,0.199
0.464766303116,0.545433615265,-0.124025852288,-1.35925478887,0.0792283043586,1.89534722327,0.158769781374,-0.00770942739303,-0.0185901326464,0.000994940369312,-0.0371907994576,-0.0020216129123,0.00984638214438,-0.0066276488996,0.573883576258,0.818922578737,0.0020488625182,0.0,0.818881453205,-0.573825321783,-0.0117648875412,0.0,-0.0084590057121,0.00842961354894,-0.999928690876,0.0,0.661306329557,0.2603308564,0.303357228253,1.0,-0.0043,-0.00565142857143,0.216
0.464709481409,0.545060279177,-0.124023652638,-1.35990360031,0.0792075032252,1.89555192144,0.158709481345,-0.00119116279116,-0.0203090445894,0.00114972710118,-0.0374754328624,1.86280083036e-05,0.0105596110818,-0.00484486419569,0.57390970833,0.818904388643,0.00199896141834,0.0,0.818862388391,-0.573851424063,-0.0118185820157,0.0,-0.00853134607846,0.00841983538674,-0.999928158672,0.0,0.661223335703,0.260232961396,0.303330361413,1.0,-0.00462,-0.006072,0.232
0.464642052574,0.544634871298,-0.124035413706,-1.3606172946,0.0791782875615,1.89579749066,0.15862563873,-0.0028765270353,-0.0261039226939,-0.0008622019165,-0.044270191465,0.000196096277896,0.0113618745901,-0.00205455276451,0.57393646956,0.818885710915,0.00196679159874,0.0,0.81884319596,-0.573878217087,-0.0118473324063,0.0,-0.00857307742219,0.00841027197725,-0.999927882234,0.0,0.661141307438,0.260114369264,0.303313431579,1.0,-0.00496,-0.00651885714286,0.249
0.464573890093,0.544192889993,-0.124035364183,-1.36133415275,0.0791407830865,1.89605659952,0.15852542363,-0.00154364843195,-0.0318135236432,-0.000828297672826,-0.0457465469397,-0.00340600150412,0.0131811994021,-0.00421979904097,0.573939553073,0.818883593837,0.00194834905969,0.0,0.818840754096,-0.57388129239,-0.0118671217193,0.0,-0.00859983577911,0.00840656000146,-0.999927683672,0.0,0.661054003603,0.259992239918,0.303302290539,1.0,-0.0053,-0.00696571428571,0.266
0.464492322974,0.543662541876,-0.124030341475,-1.36220852923,0.0790974700854,1.89635101904,0.158424796366,-0.00356386902779,-0.0334193233597,0.000913137037023,-0.0485981840665,-2.27963443136e-05,0.0154613281906,-0.0044810124079,0.573958050034,0.818870695931,0.0019201686773,0.0,0.818827347202,-0.573899764721,-0.0118988414877,0.0,-0.008641794639,0.00840188424446,-0.999927361225,0.0,0.660953465526,0.259866695537,0.303291876355,1.0,-0.00564,-0.00741257142857,0.283
0.464425548834,0.543189736718,-0.124035265458,-1.36296483717,0.0790521465456,1.89661637966,0.158340444613,-0.00208962717251,-0.0361026604342,2.16601014799e-05,-0.0534413527424,7.59505945671e-05,0.0137872885285,-0.00972808435699,0.573977036051,0.818857426969,0.00190349286369,0.0,0.818813857438,-0.573918814271,-0.0119083329908,0.0,-0.00865894325655,0.00839387761686,-0.999927280116,0.0,0.660865690032,0.259746817971,0.303289524688,1.0,-0.00594,-0.00780685714286,0.298
0.464348425728,0.542623366481,-0.124041061033,-1.36386958435,0.0789920700571,1.89693597494,0.158218491651,-0.00510110515428,-0.0340434337604,0.000473616212061,-0.053943598401,0.000677976354667,0.0143688850476,-0.00318008779855,0.573978589352,0.818856385525,0.00188301644237,0.0,0.818812598753,-0.573920500818,-0.0119135958012,0.0,-0.00867498927714,0.00838014784256,-0.999927256196,0.0,0.660760593178,0.259604504902,0.303287362917,1.0,-0.00628,-0.00825371428571,0.315
0.464277373058,0.542066134187,-0.12403651613,-1.36473855083,0.0789457227167,1.89725301056,0.158105291563,-0.00582195503218,-0.0365268161488,0.000522322222819,-0.0575775124997,0.000243382286673,0.0155111698981,-0.00453197042258,0.573976766285,0.81885764295,0.0018918904085,0.0,0.818813876852,-0.573918549045,-0.0119197750884,0.0,-0.0086749749553,0.00839094163165,-0.999927165802,0.0,0.660658147098,0.259478380226,0.303295157252,1.0,-0.0066,-0.00867428571429,0.331
0.464200101874,0.541442475656,-0.124037179982,-1.36569254917,0.0788833150626,1.89761569436,0.157972782214,-0.00511039920866,-0.033176009752,0.00182074488623,-0.0548400121142,-0.00208959089316,0.0134230002124,-0.00430607786299,0.573968323263,0.818863504249,0.00191629865488,0.0,0.81882010581,-0.573910053432,-0.0119009156264,0.0,-0.00864560886494,0.00840001418103,-0.999927343965,0.0,0.660550508418,0.259336416388,0.303313479307,1.0,-0.00694,-0.00912114285714,0.348
0.464121105656,0.540755749559,-0.124042499412,-1.36673582255,0.0788210964106,1.89800361869,0.15783393865,0.000256828187673,-0.0412414201562,-0.000709266995529,-0.0642308957201,-0.00897588392368,0.0231153767671,-0.00557183480445,0.573964239379,0.818866305666,0.00194223075012,0.0,0.818823255893,-0.573905873455,-0.0118857445685,0.0,-0.00861834403959,0.00841249801385,-0.999927474382,0.0,0.660430291714,0.259182595577,0.303336147732,1.0,-0.00728,-0.009568,0.365
0.464024334566,0.540023248713,-0.124044956139,-1.36784112029,0.0787618356917,1.89840853137,0.157696061515,-0.0037649380022,-0.0500398199773,-0.00062732001258,-0.0654776301159,-0.00210541621023,0.0225373873753,-0.00969306932329,0.573977593437,0.818856870545,0.00197349794337,0.0,0.818814156198,-0.573919027323,-0.0118774823436,0.0,-0.00859349545317,0.00843349915592,-0.999927511337,0.0,0.660303929161,0.259013574066,0.303362923296,1.0,-0.00762,-0.0100148571429,0.382
0.463936249566,0.539332349557,-0.124049119187,-1.36892918628,0.0786945946451,1.8988206325,0.15757485638,-0.00562341039535,-0.0484678484253,-0.00265280348866,-0.0665748867916,-0.00199067783014,0.0239902727412,-0.00496637814604,0.573995653308,0.818844187868,0.00198314902317,0.0,0.818801635824,-0.573937081576,-0.0118682123991,0.0,-0.00858017917574,0.00843627041822,-0.999927602313,0.0,0.660180259091,0.258850001102,0.30336906177,1.0,-0.00794,-0.0104354285714,0.398
0.463814591899,0.538577878017,-0.124048919875,-1.37010085639,0.0786323433934,1.89927864242,0.157418581947,-0.00786513684404,-0.0472760412708,0.000417426803056,-0.0718691446743,-0.00154117736946,0.0285521764836,-0.010431894594,0.57401538783,0.818830260511,0.00202136263893,0.0,0.818788147897,-0.573956601454,-0.0118547632815,0.0,-0.00854702903233,0.00846004719615,-0.999927685333,0.0,0.660055275535,0.25866163757,0.30338405855,1.0,-0.00828,-0.0108822857143,0.415
0.463702997442,0.537748457507,-0.124059206208,-1.37139766592,0.0785570694209,1.89976914448,0.157262311573,-0.00743794284894,-0.0485344049685,-0.0040785244114,-0.0709581827749,-0.00568428924403,0.0287097312894,-0.00194346899909,0.574037474455,0.818814732826,0.00203914900432,0.0,0.818772875717,-0.573978637596,-0.0118426548455,0.0,-0.00852667646083,0.00846789060575,-0.999927792702,0.0,0.659910023513,0.258460078082,0.303395439418,1.0,-0.00864,-0.0113554285714,0.433
0.463595804185,0.536974141252,-0.124058749413,-1.37261791208,0.0784833071021,1.90022324947,0.157109089725,-0.00415048322488,-0.0485765717408,0.00582053545499,-0.0781218475723,-0.0110354774728,0.0236813604473,-0.00853870635008,0.574046930084,0.818808088171,0.00204541169752,0.0,0.818766299725,-0.5739880542,-0.0118409024792,0.0,-0.00852154890712,0.00847211099897,-0.999927800663,0.0,0.659769838331,0.258273813439,0.303400694768,1.0,-0.00896,-0.011776,0.449
0.463472974225,0.536129938704,-0.124061400983,-1.3739320646,0.0784068655224,1.90071885555,0.156953675559,-0.00216826908959,-0.0461773003466,0.00157267588399,-0.0786548151975,-0.00353347488762,0.0202503959717,-0.0113808397218,0.574073947586,0.818789091177,0.00206731064308,0.0,0.818747572832,-0.574014966109,-0.0118312114785,0.0,-0.00850076331129,0.00848475920739,-0.999927870341,0.0,0.659622612859,0.258067597,0.303414146772,1.0,-0.0093,-0.0122228571429,0.466
0.463357287935,0.535228735627,-0.124069479821,-1.37534519173,0.0783254959951,1.90122294428,0.156787510495,-0.00568232214163,-0.0517263989344,-0.0049171976993,-0.0823940031354,-0.00242211319941,0.0310850934903,-0.0144549689537,0.574093939335,0.818775090143,0.00206094185126,0.0,0.818733451036,-0.57403494302,-0.0118392249544,0.0,-0.00851077369989,0.00848435267711,-0.999927788638,0.0,0.659454942954,0.257851744078,0.303421460052,1.0,-0.00964,-0.0126697142857,0.483
0.463225795346,0.534278224534,-0.124073042776,-1.3768918906,0.0782425608979,1.90179653401,0.156597710669,-0.00881940972767,-0.0539498702553,-0.00213473619059,-0.0902246669243,-0.00498451970201,0.0329486959461,-0.0158061844933,0.574111320664,0.818762943003,0.00204488434112,0.0,0.81872099751,-0.57405228972,-0.0118593340985,0.0,-0.00853627710013,0.00848293103177,-0.999927583305,0.0,0.659274150956,0.257617352543,0.303405704416,1.0,-0.01,-0.0131428571429,0.501
0.463110439398,0.53341413893,-0.124070888328,-1.37827337836,0.0781616714317,1.90230454932,0.156421941009,-0.00915282553802,-0.0542886342258,0.000340183208405,-0.0850846840639,-0.00318162476414,0.0344987494047,-0.0143794987288,0.574114220504,0.818760926879,0.00203797263861,0.0,0.818718833035,-0.574055159155,-0.0118698602502,0.0,-0.0085488336645,0.00848334547616,-0.999927472516,0.0,0.659110475818,0.257411307175,0.303401545733,1.0,-0.01032,-0.0135634285714,0.517
0.462972499556,0.532461747221,-0.124071233915,-1.3797959725,0.0780753773364,1.90288301888,0.156235020873,-0.00906763335304,-0.0587852887191,0.00140771861339,-0.0911365148487,-0.000392176868037,0.0411425425098,-0.00622592326604,0.574134492713,0.818746690955,0.00204627164188,0.0,0.818704654475,-0.574075344954,-0.0118715609053,0.0,-0.00854525163159,0.00849132819998,-0.999927435377,0.0,0.658936649501,0.257177254256,0.303398510533,1.0,-0.01066,-0.0140102857143,0.534
0.462838022102,0.531437772203,-0.124071955552,-1.38146148356,0.0779768814278,1.90348853792,0.156026877689,-0.00856692581855,-0.0567440885372,0.000324476146334,-0.0917425211606,-0.00369253267655,0.0341866504296,-0.00470236937587,0.574139005131,0.81874360328,0.00201538502755,0.0,0.818701106754,-0.574079925168,-0.0118947139685,0.0,-0.00858189411679,0.00847938045113,-0.999927222952,0.0,0.658736211987,0.256929139378,0.303380053815,1.0,-0.01102,-0.0144834285714,0.552
0.462715590355,0.530485193857,-0.124071290587,-1.38300001975,0.0778790156025,1.90402515765,0.155826314985,-0.0116665906519,-0.0585327059693,0.00235730848493,-0.0928774623092,-0.00722932038973,0.0309909789936,-0.0155565863075,0.574131758081,0.818748793247,0.00197099464798,0.0,0.81870568795,-0.574072831899,-0.0119217068469,0.0,-0.0086295547608,0.00845845789209,-0.999926989972,0.0,0.658545875726,0.25669936985,0.303365462205,1.0,-0.01134,-0.014904,0.568
0.462574981295,0.529440947514,-0.124081673124,-1.3846443275,0.0777776259899,1.90463782894,0.155599582725,-0.00852705634287,-0.0570509247723,-0.000578585903579,-0.0964554715086,-0.00806852100622,0.0410241855369,-0.0142247171156,0.57413060813,0.818749583936,0.00197750216834,0.0,0.818706612058,-0.574071702839,-0.0119126098052,0.0,-0.00861838221499,0.00845855086575,-0.999927085544,0.0,0.658355376236,0.256444453929,0.303371833175,1.0,-0.01168,-0.0153508571429,0.585
0.462463361435,0.528472226327,-0.124080115978,-1.38614814877,0.0776846791954,1.90520056222,0.155407298572,-0.00847702349854,-0.065643254729,-0.000458932283621,-0.0981259365696,-0.00651683541159,0.0436376409715,-0.0143328296433,0.574119958213,0.818756997642,0.00199982380019,0.0,0.818714312265,-0.574060958042,-0.0119011867353,0.0,-0.00859632465898,0.00847015627512,-0.999927177176,0.0,0.658174724854,0.256229251864,0.303386926726,1.0,-0.01198,-0.0157451428571,0.6
0.46232340263,0.527371454034,-0.124080101367,-1.38786914896,0.0775745833354,1.9058646209,0.155147916268,-0.00421406299678,-0.0705363791155,-0.00132535175609,-0.101642605075,-0.0112369548993,0.0406110934332,-0.0118202080186,0.574085752081,0.818780901319,0.00203268143928,0.0,0.818738704598,-0.574026681977,-0.0118763998144,0.0,-0.00855752072118,0.00848247020179,-0.999927405634,0.0,0.657975044497,0.255974573313,0.303400214759,1.0,-0.01232,-0.016192,0.617
0.46217234712,0.526205420507,-0.124077622023,-1.38966911829,0.0774654366519,1.90654768523,0.154919672252,-0.00580569052833,-0.0697130670783,-0.00130116142205,-0.104337175283,-0.00688826106357,0.0384098783621,-0.017048126662,0.574088602788,0.818778798488,0.00207417362746,0.0,0.818737128287,-0.574029351307,-0.0118560323641,0.0,-0.00851699537057,0.00850477975718,-0.999927562132,0.0,0.657764057221,0.255706987515,0.303423123749,1.0,-0.01266,-0.0166388571429,0.634
0.462026601915,0.525090880318,-0.124083322514,-1.39139772893,0.0773520836282,1.90716172645,0.154682553397,-0.00695104531525,-0.0737811205733,-0.000784452044991,-0.103376631893,-0.00760456015203,0.0328727021178,-0.0122198938705,0.574080093833,0.818784777309,0.00206910938045,0.0,0.818743083494,-0.574020905941,-0.0118536776553,0.0,-0.00851806277736,0.00849919301067,-0.999927600542,0.0,0.657554861219,0.255440636416,0.303437737655,1.0,-0.01298,-0.0170594285714,0.65
0.461864238617,0.523920039563,-0.124086415879,-1.3932961102,0.0772281064144,1.9078542516,0.154415773682,-0.00999818329624,-0.0758640798553,0.000915355194733,-0.109491838223,-0.00319036165999,0.0416836123909,-0.00909856051222,0.574065284069,0.818795252056,0.00203266787833,0.0,0.818753128841,-0.57400628958,-0.0118676213362,0.0,-0.00855055248113,0.00847720581135,-0.99992750989,0.0,0.657326583572,0.255149099092,0.303417614004,1.0,-0.01332,-0.0175062857143,0.667
0.461700837774,0.522708587451,-0.124090477338,-1.39521478106,0.0771138938815,1.90858174277,0.154169815071,-0.0132491437418,-0.0721008913455,0.00520729021364,-0.113339267845,-0.00147048632134,0.0444087509101,-0.0152639963177,0.574072717537,0.818790000982,0.00204845635811,0.0,0.818748075137,-0.574013650254,-0.0118602564185,0.0,-0.00853538178562,0.00848598271455,-0.999927565054,0.0,0.657100910313,0.254858401938,0.303419130435,1.0,-0.01366,-0.0179531428571,0.684
0.461534386612,0.521474579043,-0.124092881169,-1.39719597216,0.0769951252427,1.90934507741,0.15390002918,-0.0150670819776,-0.0677536799331,0.000991686300174,-0.114006207747,-0.00318528280386,0.0410492351572,-0.00956418243378,0.574063924936,0.818796136935,0.00205988545125,0.0,0.818754362652,-0.574004815529,-0.0118537879337,0.0,-0.00852361570573,0.00849153571474,-0.999927618279,0.0,0.65686824994,0.254561269221,0.303409476942,1.0,-0.014,-0.0184,0.701
0.46136536958,0.520176294585,-0.124102521628,-1.39922895566,0.0768681845278,1.9100970773,0.153622821651,-0.0103187095223,-0.0827260985722,-0.000790037016698,-0.122440014796,-0.006111565328,0.045028139672,-0.0224523092088,0.57405626118,0.818801484399,0.00207003557194,0.0,0.818759883778,-0.573997153485,-0.0118434542718,0.0,-0.00850940724471,0.00849383469566,-0.999927719768,0.0,0.656624843088,0.254250919707,0.303419169072,1.0,-0.01434,-0.0188468571429,0.718
0.461203325596,0.518932767771,-0.124111274459,-1.40117193809,0.0767417896158,1.9107908341,0.153357892115,-0.0145283856181,-0.0805539150835,0.000339297754076,-0.120404835317,-0.0115225644434,0.0454423200588,-0.018706735327,0.574048404191,0.818807032507,0.00205427936804,0.0,0.81876524445,-0.573989378146,-0.0118496902011,0.0,-0.00852363923916,0.00848443165065,-0.999927678382,0.0,0.65636942521,0.253931919605,0.303425490081,1.0,-0.01468,-0.0192937142857,0.735
0.461026351101,0.517579530716,-0.124117791193,-1.4032901714,0.0765994540856,1.91155250744,0.153067695139,-0.00927269007413,-0.0784918482,-0.000983090123998,-0.124619990328,-0.00728741807217,0.0480835889424,-0.0186570145395,0.574032708046,0.818818051907,0.002048136984,0.0,0.818776297136,-0.57397382121,-0.0118395403243,0.0,-0.00851901635025,0.00847341254963,-0.999927811214,0.0,0.656127437529,0.253626999426,0.303435428542,1.0,-0.015,-0.0197142857143,0.751
0.460829351648,0.516146906866,-0.12412061413,-1.40556370911,0.0764606800424,1.91239790395,0.152752107992,-0.0102730075281,-0.0771717246155,0.000507179736501,-0.133714132655,-0.00847095884453,0.052552385189,-0.0220551435664,0.574020380957,0.818826688982,0.00205001385486,0.0,0.818784937441,-0.573961467032,-0.0118409240642,0.0,-0.00851919970741,0.00847561538999,-0.999927790983,0.0,0.65585319036,0.253280054365,0.303431598641,1.0,-0.01536,-0.0201874285714,0.769
0.460656364029,0.514847960091,-0.12412380545,-1.4076216531,0.0763295276354,1.91317746318,0.152471940408,-0.00938405919832,-0.0802205434262,-4.65215493659e-05,-0.130867515188,-0.00343533272259,0.0536867828835,-0.0157896866156,0.574008032606,0.818835315408,0.00206195191855,0.0,0.818793771469,-0.573949124572,-0.0118283180565,0.0,-0.00850215274078,0.0084780261929,-0.999927915637,0.0,0.655606193018,0.252969291961,0.303430510277,1.0,-0.01568,-0.020608,0.785
0.460459535457,0.513446402754,-0.124122359506,-1.4098867286,0.0762020666018,1.91395502155,0.152159962628,-0.0129566557468,-0.0792040098787,0.000119451013066,-0.128788765849,-0.00474555852637,0.0496336880066,-0.0198121977606,0.5739970863,0.818843151791,0.0019961425121,0.0,0.818800517239,-0.573938213637,-0.0118906180779,0.0,-0.0085910541205,0.00845978552949,-0.999927310267,0.0,0.655316234359,0.252622955829,0.303402084981,1.0,-0.01602,-0.0210548571429,0.802
0.460274822556,0.512103781488,-0.124127823676,-1.41204888136,0.0760720755189,1.91471268608,0.151859263347,-0.0131796716684,-0.0860106631943,0.000441396604842,-0.139791047138,-0.00799229967762,0.0472748276768,-0.01563878607,0.573983969487,0.818852472153,0.00194384218911,0.0,0.81880905889,-0.573925219324,-0.0119295684814,0.0,-0.00865310318708,0.00843917914509,-0.999926949362,0.0,0.655043031013,0.252290272445,0.303379405895,1.0,-0.01634,-0.0214754285714,0.818
0.460079157057,0.51065919048,-0.124131177814,-1.41435852837,0.075932288347,1.91559718446,0.151530467846,-0.00973161773904,-0.0866715350064,0.000384380542379,-0.140541808299,-0.011438980146,0.0553031868227,-0.0194158689169,0.573960502,0.818868888009,0.0019578803055,0.0,0.818825654993,-0.57390169362,-0.011922234982,0.0,-0.00863928281204,0.00844621721464,-0.99992700944,0.0,0.654764679161,0.251942488512,0.303368429951,1.0,-0.01668,-0.0219222857143,0.835
0.459885030762,0.509170283041,-0.124134102165,-1.41671880909,0.0757880479184,1.91646633555,0.151204213842,-0.010849987725,-0.0909849298189,0.000235586691199,-0.141068758352,-0.00904776785527,0.048752180602,-0.0208044264101,0.573938318138,0.818884444384,0.00195464050437,0.0,0.818841127428,-0.5738794852,-0.0119285959298,0.0,-0.00864658003735,0.0084469809506,-0.999926939914,0.0,0.654471151638,0.251588894909,0.303362522169,1.0,-0.01702,-0.0223691428571,0.852
0.459670557718,0.507649674606,-0.124140163295,-1.41910292895,0.0756329757359,1.91730583951,0.15086891776,-0.0114226986558,-0.0885779290975,-0.00094563206689,-0.137201020494,-0.00717369121983,0.0442786032984,-0.0225615861107,0.573925123915,0.818893751916,0.00192927791449,0.0,0.818850107876,-0.573866402066,-0.011941537234,0.0,-0.00867186941415,0.00843350003615,-0.999926834702,0.0,0.654172262012,0.251214134565,0.303364416451,1.0,-0.01736,-0.022816,0.869
0.459449388208,0.506085421363,-0.124143349858,-1.42152799307,0.075478157925,1.91822109232,0.150544587616,-0.0184794294032,-0.100698577064,-5.83842844131e-06,-0.142125299045,-0.0138228177393,0.0554314372146,-0.0100003393866,0.573926526263,0.818892671066,0.00197043807976,0.0,0.818849615912,-0.573867683896,-0.0119136393301,0.0,-0.0086253872615,0.00845120881264,-0.999927087224,0.0,0.653879887595,0.25083757088,0.303383264273,1.0,-0.0177,-0.0232628571429,0.886
0.459229202169,0.504456910221,-0.124149651442,-1.42400720677,0.0753240435181,1.9191761747,0.150200710208,-0.0159343102468,-0.0964433578316,-0.000578358791895,-0.142548135294,-0.0127885331883,0.042952778491,-0.0224939062433,0.573916026748,0.81889982011,0.00205566707775,0.0,0.818857933198,-0.573856895034,-0.0118615412652,0.0,-0.00853391958627,0.00849099140658,-0.999927535015,0.0,0.65358356404,0.250457115498,0.303424182166,1.0,-0.01804,-0.0237097142857,0.903
0.459009563913,0.502878800758,-0.124152826075,-1.4263418397,0.0751702086548,1.92006519898,0.149866503859,-0.0158194533005,-0.101438728295,-0.000433700607644,-0.145482708948,-0.010710579656,0.053407639404,-0.0242914271419,0.573899825497,0.81891090707,0.00215950856553,0.0,0.818870479092,-0.573840392937,-0.0117935917187,0.0,-0.00841884973713,0.00853686240407,-0.999928119891,0.0,0.653287278303,0.250069606561,0.303490565622,1.0,-0.01838,-0.0241565714286,0.92
0.458785994257,0.501181188649,-0.124153635053,-1.42889462637,0.0750007593789,1.92096278663,0.149512607967,-0.0140622285531,-0.105311998539,0.000615639852596,-0.15425066198,-0.0134805994567,0.0493767633267,-0.0321839254499,0.573880745322,0.818924183793,0.00219505100565,0.0,0.818884224253,-0.573821184069,-0.0117738219774,0.0,-0.00838246217421,0.00855442707087,-0.99992827548,0.0,0.652980160211,0.249697727543,0.303539882175,1.0,-0.0187,-0.0245771428571,0.936
0.458543626136,0.499476236817,-0.124156831062,-1.431493535,0.0748464402591,1.92189622649,0.149152671377,-0.012371830653,-0.0955262057708,-5.22140974383e-05,-0.15527429715,-0.0119562155488,0.0537088673884,-0.0156433536068,0.573877378025,0.818926441052,0.00223294392353,0.0,0.818886855718,-0.573817550757,-0.0117678747871,0.0,-0.00835588228161,0.00858201078659,-0.999928261588,0.0,0.652654273104,0.2492902953,0.303573329136,1.0,-0.01904,-0.025024,0.953
0.458288567487,0.497798409776,-0.12415683139,-1.4341350453,0.0746852142522,1.92288191333,0.148767757579,-0.013062972664,-0.098021853792,0.000325961409854,-0.155016216489,-0.0124147539604,0.056186961904,-0.0284001043133,0.573861743193,0.818937346414,0.00225149909559,0.0,0.818897947247,-0.573801790502,-0.0117645277402,0.0,-0.00834265753902,0.00859512586725,-0.999928259365,0.0,0.652329451691,0.24887355046,0.303571455918,1.0,-0.01938,-0.0254708571429,0.97
0.45802093328,0.496140711307,-0.124159771253,-1.43680655561,0.0745137215442,1.92382913096,0.148364373903,-0.0126425698276,-0.0962901488534,-0.000254775963617,-0.153896611977,-0.00581359524422,0.0561290465497,-0.0283636706182,0.573841224975,0.818951888345,0.00219088942165,0.0,0.818911653044,-0.573781458671,-0.0118020801068,0.0,-0.00840840594962,0.00856682992169,-0.999927951472,0.0,0.651992228137,0.248439048448,0.303537449649,1.0,-0.01972,-0.0259177142857,0.987
0.457736216512,0.494372740522,-0.124153652032,-1.43970269624,0.0743336826163,1.924826492,0.147955250529,-0.0166397548918,-0.101961751142,-0.00231130995862,-0.160063184201,-0.0162818856074,0.0487597607423,-0.0284968603295,0.573831857516,0.818958738328,0.00208113357292,0.0,0.818916878761,-0.573772330135,-0.0118830027325,0.0,-0.00853775644416,0.00852328504032,-0.999927227516,0.0,0.651614796957,0.247975772515,0.303476833644,1.0,-0.02278,-0.0299394285714,1.005
0.45742262634,0.492011703048,-0.124235044455,-1.44322593693,0.0741268983296,1.92614741259,0.147447673857,-0.0222466306732,-0.162746355725,-0.00394305149415,-0.234171310088,-0.0183048765789,0.0909099883514,-0.0303385467866,0.573852649015,0.818943844897,0.00220522686237,0.0,0.818903843242,-0.573792873913,-0.011788989407,0.0,-0.00838933837423,0.00857117657496,-0.99992807438,0.0,0.651191937046,0.247393424101,0.303560080274,1.0,-0.03468,-0.0455794285714,1.022
0.457004917861,0.488793842708,-0.124274641615,-1.44836565496,0.0738593550947,1.92810613748,0.146675245334,-0.0289656849242,-0.208595252274,0.000597812876357,-0.338410271621,-0.0202872989388,0.128171050983,-0.0512139936113,0.573776281323,0.818997227797,0.00225094522067,0.0,0.818957511701,-0.573716022469,-0.0118011225053,0.0,-0.0083738445004,0.008614798545,-0.999927829383,0.0,0.650542231698,0.246621020639,0.303522716275,1.0,-0.04658,-0.0612194285714,1.039
0.456369994652,0.484480501851,-0.124359791875,-1.45513349809,0.073461216857,1.93065721492,0.145649126625,-0.0407079954132,-0.279104180004,-0.00578713520217,-0.430025247028,-0.0309738238771,0.160453371466,-0.0693366597391,0.573745408195,0.819018654453,0.0023231734333,0.0,0.818979981768,-0.573684986402,-0.0117504358139,0.0,-0.00829121604163,0.00864455756307,-0.999928261107,0.0,0.649706862736,0.245521874898,0.303521037045,1.0,-0.05848,-0.0768594285714,1.056
0.455605633755,0.479535859347,-0.124502307511,-1.46301347533,0.0729997741581,1.93336350229,0.144453588581,-0.050300976796,-0.325743847551,-0.0099963240109,-0.521398574804,-0.0364026132891,0.175568769875,-0.0799552035021,0.573756063173,0.81901174051,0.0021203256573,0.0,0.818970296105,-0.573696291886,-0.0118728966653,0.0,-0.00850778259669,0.00854879477131,-0.999927265226,0.0,0.64868482114,0.244183463844,0.303438563217,1.0,-0.06968,-0.0915794285714,1.072
0.454548225449,0.472862241204,-0.124663543084,-1.47345816962,0.0723918248096,1.93703008229,0.142942153878,-0.0654011948589,-0.389283016679,-0.00332753389014,-0.607872227032,-0.0323859699647,0.206466701784,-0.0961754314364,0.573841562433,0.818952067544,0.00202957880831,0.0,0.818909206245,-0.573781917558,-0.0119486363736,0.0,-0.00862099082285,0.00851882895037,-0.999926551338,0.0,0.647336728522,0.242406317221,0.303408909994,1.0,-0.08228,-0.108139428571,1.09
0.453602969404,0.466907245761,-0.124748246986,-1.48248313608,0.071851535798,1.94044272517,0.141520953103,-0.0650220554361,-0.449869986561,-0.00287819837785,-0.662445438262,-0.0391092808597,0.26265732958,-0.102809806214,0.57379815335,0.818981715552,0.00231855647004,0.0,0.818942677548,-0.573737424447,-0.0117900627971,0.0,-0.0083257635352,0.00866404791423,-0.999927805362,0.0,0.64620670135,0.240900367411,0.303523850958,1.0,-0.09208,-0.121019428571,1.104
0.452231364604,0.45889126174,-0.124812363087,-1.4949088503,0.0710656497483,1.94484869314,0.13958411898,-0.0859569575238,-0.495227633163,-0.00652003521655,-0.778930116461,-0.0427473812028,0.261909775431,-0.118511368624,0.573750073291,0.819015417028,0.00231235183581,0.0,0.818975990985,-0.573689054788,-0.0118296875227,0.0,-0.00836228652059,0.00868121185962,-0.999927351724,0.0,0.644571093829,0.238788162056,0.303516129944,1.0,-0.10398,-0.136659428571,1.121
0.450457940959,0.448696494533,-0.124980774014,-1.51044652983,0.0699911994735,1.95031556328,0.137150896978,-0.094099725497,-0.574979932291,-0.00895583395062,-0.859128880694,-0.0614531238268,0.316444036415,-0.130831134448,0.573748819879,0.819016175453,0.00235434368298,0.0,0.818977962839,-0.573688338913,-0.0117274498579,0.0,-0.00825447053786,0.00865693278225,-0.999928458056,0.0,0.642520943668,0.236048937763,0.303600512743,1.0,-0.11728,-0.154139428571,1.14
0.448899736843,0.439949193539,-0.12508250631,-1.5238649729,0.0691371558389,1.95499156855,0.13508165006,-0.110093418918,-0.593221414408,-0.00443630779784,-0.931091349393,-0.0665294838375,0.314651148015,-0.148074259073,0.573772076373,0.818999870986,0.00235851652135,0.0,0.818961317917,-0.573711163137,-0.0117731877442,0.0,-0.00828929158144,0.00868682742453,-0.999927910739,0.0,0.640698103936,0.233705998856,0.303609641263,1.0,-0.12778,-0.167939428571,1.155
0.446782844227,0.428430243454,-0.125211645654,-1.54111594644,0.0679760725175,1.96106145481,0.132239713559,-0.125166732715,-0.654464866799,-0.0107180279357,-0.986539137771,-0.0702595858014,0.342126719569,-0.159540792726,0.573705746145,0.819045539254,0.00262075759581,0.0,0.819010477416,-0.573643986674,-0.0116258907745,0.0,-0.00801890653217,0.0088164380149,-0.999928981258,0.0,0.638355486863,0.230628673574,0.30378389635,1.0,-0.14038,-0.184499428571,1.173
0.444523549242,0.416846489265,-0.125334428841,-1.55857306587,0.0667399709821,1.96712571769,0.129324376591,-0.138023484378,-0.70306001586,-0.00843842369018,-1.03886661802,-0.0658220935446,0.376238506333,-0.168781419674,0.573653804677,0.819081549891,0.00273384508512,0.0,0.819048258063,-0.573592010067,-0.0115283932976,0.0,-0.00787473416541,0.00885262817229,-0.999929807305,0.0,0.635940805396,0.227440989642,0.303871271247,1.0,-0.15228,-0.200139428571,1.19
0.442324619923,0.405938572329,-0.12545699353,-1.57500523462,0.0656183809644,1.97284755859,0.126587927037,-0.152939042471,-0.730455571925,-0.00292265816814,-1.11626770339,-0.06896608905,0.381882301485,-0.178623400384,0.573668031329,0.819071078568,0.00288183714574,0.0,0.819039604293,-0.573605650754,-0.011464332713,0.0,-0.00773721425434,0.0089372320029,-0.999930128259,0.0,0.633636203997,0.224409458432,0.303927855007,1.0,-0.16278,-0.213939428571,1.205
0.439563240449,0.392769644617,-0.125596425635,-1.59460769095,0.0642702732123,1.97955140095,0.12322613208,-0.169703997508,-0.781366715153,-0.00672759924569,-1.18409009401,-0.0821389771666,0.40153358928,-0.204903995098,0.573682143865,0.819060392028,0.00310143868085,0.0,0.819031450253,-0.573618736171,-0.0113919231267,0.0,-0.00755177508075,0.00907569343793,-0.999930298812,0.0,0.630832256545,0.220718731037,0.304050308678,1.0,-0.17468,-0.229579428571,1.222
0.436540995094,0.378971112929,-0.12575760985,-1.61529988034,0.062676448382,1.98643936483,0.11954989808,-0.185508219495,-0.862675463675,-0.00741533105518,-1.23447153689,-0.0907171482712,0.424868264549,-0.222493128911,0.573601360217,0.81911731894,0.00300736950296,0.0,0.8190876932,-0.573538872378,-0.0113692400881,0.0,-0.00758804423914,0.00898488391479,-0.999930844332,0.0,0.627789821661,0.216729581801,0.304048681594,1.0,-0.18658,-0.245219428571,1.239
0.433174833847,0.364483630603,-0.125910447983,-1.63691688125,0.0610753533492,1.99356330321,0.115706685094,-0.20494562651,-0.847499816231,-0.00719835602544,-1.26870291508,-0.0906620630774,0.425279598025,-0.228827817802,0.573658399938,0.819077530883,0.00296403184655,0.0,0.819047108877,-0.573595755602,-0.0114231999257,0.0,-0.00765647771418,0.00898086921563,-0.999930358744,0.0,0.624553493124,0.212472299811,0.304037002509,1.0,-0.19848,-0.260859428571,1.256
0.429671189678,0.350221603855,-0.126109029999,-1.65823595782,0.0594509305752,2.00047231857,0.111769179809,-0.225674894739,-0.891960523593,-0.0137303962232,-1.3528221145,-0.0992717036754,0.424240512973,-0.255132859891,0.573728812022,0.819028836432,0.00278608151831,0.0,0.818995977675,-0.573666562805,-0.01153300365,0.0,-0.00784773184486,0.00889877736916,-0.999929609956,0.0,0.621302898815,0.208144959296,0.303947741287,1.0,-0.20968,-0.275579428571,1.272
0.425624548932,0.334279821646,-0.126305057939,-1.68151935313,0.0576595597258,2.00803888741,0.107337157569,-0.247523935066,-0.942024296636,-0.00829525314468,-1.40449130292,-0.114174451864,0.443588895054,-0.262602743528,0.573813721523,0.818968843098,0.0029315401424,0.0,0.818937785325,-0.5737509051,-0.0114695058648,0.0,-0.00771134260617,0.00898228177286,-0.999929924449,0.0,0.617711250428,0.203332996402,0.304028935345,1.0,-0.22158,-0.291219428571,1.289
0.420828978325,0.315706684522,-0.126472993973,-1.7084668979,0.0554375114283,2.01659084179,0.102042053826,-0.262794771627,-0.993046208201,-0.011742805116,-1.45531960909,-0.129689481985,0.455377000807,-0.288347285263,0.573716406356,0.819036729654,0.00301122160997,0.0,0.81900700484,-0.57365371635,-0.0113880042867,0.0,-0.00759994164337,0.008999869762,-0.999930619209,0.0,0.613644888455,0.198055689241,0.304110879313,1.0,-0.23418,-0.307779428571,1.307
0.416750392087,0.300573211582,-0.126574335911,-1.73024032889,0.0536519456316,2.023441813,0.0975120798747,-0.278702286633,-1.00906252066,-0.0104123467598,-1.49378461946,-0.117400691151,0.449175048977,-0.308385682575,0.573523460657,0.8191714289,0.0031236278841,0.0,0.819143005143,-0.573460287887,-0.0113482264136,0.0,-0.00750501079579,0.00906734659152,-0.99993072662,0.0,0.609852097438,0.193171027129,0.304166152167,1.0,-0.24538,-0.322499428571,1.323
0.411691901359,0.282797314704,-0.126750155803,-1.75564111484,0.0515803576002,2.0312156036,0.0922389601797,-0.304984003068,-1.04823207674,-0.0077719780391,-1.52337015387,-0.120392451441,0.454323469488,-0.318612563928,0.573546565789,0.819154855714,0.00322585390786,0.0,0.819127162485,-0.573482379317,-0.0113753766318,0.0,-0.00746836841836,0.00916686925051,-0.999930093547,0.0,0.605367384648,0.187321464575,0.304222781696,1.0,-0.25798,-0.339059428571,1.341
0.405853692262,0.263316300375,-0.126984256325,-1.78326203421,0.049186613629,2.0394917227,0.0861838204344,-0.332048005501,-1.09984394539,-0.0143858433301,-1.55805401064,-0.132528909836,0.454730491223,-0.333656667121,0.573520541383,0.819172900558,0.00327024543978,0.0,0.819145676819,-0.573456103698,-0.0113668017104,0.0,-0.0074361768886,0.0091980787764,-0.999930046863,0.0,0.600919777722,0.181475962706,0.30427407285,1.0,-0.26988,-0.354699428571,1.358
0.400548181597,0.246685521142,-0.127208829631,-1.8067483411,0.0470714406516,2.04641819721,0.0809505656486,-0.356929321941,-1.10684808847,-0.00812243321035,-1.54781087246,-0.139981524751,0.438546831286,-0.3582240035,0.573638874301,0.819090135268,0.00324639788557,0.0,0.819062779417,-0.573574705969,-0.0113563615788,0.0,-0.00743997527162,0.00917363076827,-0.9999302432,0.0,0.596854450269,0.176045190675,0.304266062173,1.0,-0.28038,-0.368499428571,1.373
0.394221601839,0.227230618217,-0.127392236443,-1.83384499218,0.0446719185171,2.05422219182,0.0745851787564,-0.377750332876,-1.15634461196,-0.00506704924469,-1.60700335824,-0.143683797293,0.446020055624,-0.385267733026,0.573568547651,0.81913892907,0.00335900711707,0.0,0.819112342656,-0.573503217035,-0.0113919734772,0.0,-0.00740535014235,0.00928566064859,-0.99992946616,0.0,0.59201892649,0.169777817426,0.304309379817,1.0,-0.29228,-0.384139428571,1.39
0.386575957222,0.204840250229,-0.127659334641,-1.86484695834,0.0417033444127,2.06279353395,0.067020805141,-0.424063009561,-1.18721163613,-0.0148644216911,-1.64286617833,-0.167268611494,0.435533547456,-0.407692767967,0.57346758163,0.819210163944,0.00322288850691,0.0,0.819181740629,-0.573402567257,-0.0114681552236,0.0,-0.00754696207946,0.00921692411316,-0.999929043319,0.0,0.586324413883,0.162394551728,0.304279708522,1.0,-0.30558,-0.401619428571,1.409
0.379591660447,0.18543869291,-0.127947628873,-1.89129940188,0.0391665749069,2.06988413908,0.0602599599528,-0.446543072805,-1.22364399367,-0.0235832231938,-1.67270824702,-0.163288938998,0.42539272726,-0.427989765781,0.57348335364,0.819199184167,0.00320728212601,0.0,0.819170100842,-0.573417827131,-0.0115363909678,0.0,-0.00761163586891,0.00924341576809,-0.999928308562,0.0,0.581358700085,0.155882778338,0.304302729802,1.0,-0.31678,-0.416339428571,1.425
0.371536944055,0.164403520122,-0.128352324685,-1.91970842595,0.036346873919,2.07730756917,0.0526761719548,-0.482826792647,-1.24205472133,-0.0189423637718,-1.68550770394,-0.175570932634,0.418014300769,-0.458824104939,0.573655359393,0.81907885338,0.00317922718174,0.0,0.819049167045,-0.573589608355,-0.0115831797129,0.0,-0.00766411344164,0.00924887456568,-0.99992785724,0.0,0.575933481884,0.148607030894,0.304310300931,1.0,-0.32868,-0.431979428571,1.442
0.364114532851,0.145392033458,-0.128606791168,-1.9449619765,0.0336927382046,2.08379641648,0.0456041725786,-0.507389608877,-1.27330579332,-0.0197674493227,-1.70802638506,-0.182630547521,0.417510377917,-0.469640715943,0.573543124768,0.819157037301,0.00328316509186,0.0,0.819129164783,-0.573477638776,-0.0114697919037,0.0,-0.00751288363602,0.00926793500493,-0.999928828447,0.0,0.570981942406,0.142133602221,0.304382352479,1.0,-0.33918,-0.445779428571,1.457
0.355623643032,0.124720053018,-0.128940342028,-1.97222438028,0.0308202339233,2.09047766977,0.0376393315242,-0.545962985631,-1.2954111944,-0.0270052021967,-1.71088490985,-0.192727627846,0.412796896992,-0.510650957292,0.57351573206,0.819176184356,0.00329104305958,0.0,0.819148123896,-0.573449868449,-0.0115041902963,0.0,-0.00753685560927,0.00929386480314,-0.99992840738,0.0,0.565153957415,0.134483462403,0.30440524502,1.0,-0.35108,-0.461419428571,1.474
0.344705753875,0.0996034894906,-0.129454864858,-2.00468091003,0.0272169904924,2.09813255104,0.0276072747989,-0.585335547649,-1.3248486454,-0.02328015573,-1.67904122231,-0.197778156879,0.399928425194,-0.543792379336,0.573622538061,0.819100800921,0.00343637307131,0.0,0.819075215579,-0.573556985275,-0.0113544162476,0.0,-0.00732959678081,0.0093279766728,-0.999929630455,0.0,0.558839488308,0.126012928385,0.304521588782,1.0,-0.36368,-0.477979428571,1.492
0.335604958939,0.079378464182,-0.129771502667,-2.03061587738,0.0244041629301,2.10385166875,0.0191757757053,-0.61705130696,-1.33977247093,-0.0207680694504,-1.68945804212,-0.183665033513,0.357113987055,-0.577419432899,0.573549403424,0.819151901407,0.0034628245588,0.0,0.819125472326,-0.573482277827,-0.0115015001991,0.0,-0.00743575040269,0.00943334800118,-0.999927858178,0.0,0.553306044803,0.118862827115,0.304535841036,1.0,-0.36998,-0.486259428571,1.507
0.324644344632,0.0565856273295,-0.130209277208,-2.0596154818,0.0209503877217,2.11011573796,0.00929598455335,-0.661701645386,-1.35959511113,-0.0320341632847,-1.66944791855,-0.200070376555,0.366041320789,-0.592208113191,0.573598166875,0.819118052044,0.0033921489655,0.0,0.819091085148,-0.573531720827,-0.0114850484396,0.0,-0.00746224914342,0.00936646204198,-0.999928289542,0.0,0.547026973115,0.110515801369,0.304494125243,1.0,-0.36998,-0.486259428571,1.524
0.312517905964,0.0325498975456,-0.130636297435,-2.08959896604,0.0174143793044,2.11608009883,-0.00139297213047,-0.683449899906,-1.35868647647,-0.0276671050573,-1.66176530246,-0.197756125279,0.348615317279,-0.608835319484,0.573811027801,0.818968945881,0.00339366451849,0.0,0.818941119183,-0.573743447068,-0.0116037562351,0.0,-0.00755616871276,0.00943775641658,-0.999926913863,0.0,0.54031802294,0.101664410596,0.304498006113,1.0,-0.36998,-0.486259428571,1.542
0.30062890391,0.0101608110194,-0.131035628337,-2.11694182403,0.013933155749,2.12125055243,-0.0118649239442,-0.715696891745,-1.31190715188,-0.0273372469581,-1.61119389356,-0.214542293324,0.298449015039,-0.620243339124,0.573906653944,0.81890164014,0.00346456864978,0.0,0.818875358475,-0.573839633049,-0.0114878076842,0.0,-0.00741942059838,0.00943016072405,-0.999928009542,0.0,0.534058998433,0.0933007972885,0.304577380493,1.0,-0.36998,-0.486259428571,1.559
0.287607454089,-0.0132700299644,-0.131416376459,-2.14507314504,0.0104319695069,2.12621083187,-0.0233369604103,-0.723494528531,-1.3144156555,-0.0127116737727,-1.57243992399,-0.194129689635,0.264919594212,-0.648936469847,0.574005720807,0.818831245887,0.00368376731951,0.0,0.818807327572,-0.573937438276,-0.0114509458145,0.0,-0.00726228007072,0.00958938870592,-0.999927648839,0.0,0.527430052751,0.0845102996177,0.304676964338,1.0,-0.36998,-0.486259428571,1.577
0.274172808831,-0.0363180738822,-0.131788637513,-2.17241126034,0.00677895621312,2.13060053095,-0.0351140206961,-0.758027649741,-1.27977420473,-0.0268797842877,-1.49592467074,-0.195184879572,0.229863129987,-0.653208500046,0.574035918129,0.818810011464,0.0036982056313,0.0,0.818786432876,-0.57396779308,-0.0114235172649,0.0,-0.0072311786007,0.00958573437342,-0.999927909278,0.0,0.5207831311,0.0757393862052,0.304718061698,1.0,-0.36998,-0.486259428571,1.595
0.262562335676,-0.055362770321,-0.13210652633,-2.19461110218,0.00380631205846,2.13392151846,-0.0452664393296,-0.776044320673,-1.26152492705,-0.0126630256488,-1.46774302267,-0.211981050532,0.221339946704,-0.680608125836,0.574101074001,0.818763767859,0.00382049394672,0.0,0.81874168602,-0.574032490943,-0.0113797107275,0.0,-0.00712434434121,0.00966128781557,-0.999927949022,0.0,0.515253352215,0.068416743996,0.304777773603,1.0,-0.36998,-0.486259428571,1.61
0.249962774993,-0.0754000121576,-0.132371942356,-2.21774412734,0.000657651124628,2.13703998595,-0.0564482594795,-0.798940913156,-1.27832352543,-0.025924083473,-1.42725043348,-0.199087426081,0.200375858442,-0.715258647045,0.573950741634,0.818868995126,0.00385511342602,0.0,0.818846809993,-0.573881336956,-0.011439395027,0.0,-0.00715512602191,0.0097225837805,-0.999927135113,0.0,0.509314413177,0.0607290807944,0.304787166025,1.0,-0.36998,-0.486259428571,1.626
0.236052376566,-0.0963041972762,-0.132712542703,-2.24165591178,-0.00269628873079,2.13990578276,-0.0686755769889,-0.825712425328,-1.24431694655,-0.00940666353254,-1.37404398272,-0.198820391848,0.168534276071,-0.725559745786,0.57392021307,0.818890794571,0.00376862000795,0.0,0.818866602499,-0.573849874479,-0.0115998178597,0.0,-0.00733650319593,0.00974355459327,-0.999925616666,0.0,0.503009542931,0.0524855324822,0.304729054896,1.0,-0.36998,-0.486259428571,1.643
0.222635958655,-0.115784404442,-0.132999464445,-2.26361701004,-0.00594757670627,2.14219491146,-0.0804804842307,-0.847689650504,-1.2079358376,-0.0239889942428,-1.34125658766,-0.19243708519,0.121647936314,-0.737152420635,0.573790691247,0.818982348229,0.00359205070481,0.0,0.818955439351,-0.573720377594,-0.0117330128985,0.0,-0.00754844309965,0.00967420930309,-0.999924712506,0.0,0.497045125811,0.0447772890341,0.304663493888,1.0,-0.36998,-0.486259428571,1.659
0.208725560317,-0.135114145404,-0.133349051624,-2.28507347301,-0.00908602974602,2.14420716621,-0.0927138220005,-0.86884084072,-1.19217883905,-0.0164647539051,-1.34390756108,-0.197487762757,0.120450156106,-0.772748743234,0.573772752164,0.818995192296,0.00352856510392,0.0,0.818966297607,-0.573701186831,-0.0119121162822,0.0,-0.00773177283783,0.00972481087508,-0.999922820893,0.0,0.490705659615,0.0365281707169,0.304591322237,1.0,-0.36998,-0.486259428571,1.676
0.192576975616,-0.156640271146,-0.133825369151,-2.30839477415,-0.0126618699613,2.14605624396,-0.106963326893,-0.910357714613,-1.1951117185,-0.0349423161706,-1.28429519983,-0.208818421723,0.097957622477,-0.801115373432,0.57374771505,0.819012421405,0.00359999447114,0.0,0.818984686884,-0.573676192903,-0.0118513816198,0.0,-0.00764134475429,0.00974823115291,-0.999923287978,0.0,0.484417150356,0.0282396094357,0.304631309099,1.0,-0.36998,-0.486259428571,1.693
0.177832498266,-0.175430207299,-0.134175970635,-2.32847756952,-0.0156975002193,2.14722934355,-0.119981017741,-0.928572046332,-1.16030879814,-0.0213464413268,-1.26005881212,-0.18952786426,0.0599521721832,-0.815111239535,0.573724550966,0.819028610949,0.00360845783658,0.0,0.818999762538,-0.573651444948,-0.0120064804373,0.0,-0.00776380342025,0.00984392823499,-0.999921407128,0.0,0.478477931801,0.0205225875572,0.304616750844,1.0,-0.36998,-0.486259428571,1.709
0.161514839417,-0.195285020873,-0.134739870866,-2.34913581334,-0.0190333719051,2.14823696966,-0.134294937071,-0.97065437227,-1.18016255701,-0.0320898488107,-1.19990289529,-0.197979822759,0.0638233322324,-0.852619196877,0.57390351242,0.818902452395,0.00377872936997,0.0,0.818876372375,-0.573830477972,-0.0118666009315,0.0,-0.00754938387296,0.0099047868516,-0.999922447993,0.0,0.472222540902,0.0121381835463,0.304710180351,1.0,-0.36998,-0.486259428571,1.726
0.145874103076,-0.213532206743,-0.135129617354,-2.36808148843,-0.0220095946415,2.14871825067,-0.148229622123,-0.997071999537,-1.14501933927,-0.0290787485626,-1.14997027502,-0.188220355657,0.0182265243238,-0.87616069604,0.573849344939,0.818940527117,0.00375356625014,0.0,0.818912494539,-0.57377429502,-0.0120884888716,0.0,-0.00774620275795,0.0100110064645,-0.999919884837,0.0,0.46626167794,0.00441175254879,0.304665473864,1.0,-0.36998,-0.486259428571,1.742
0.12669441609,-0.234922786523,-0.135708265988,-2.38978422978,-0.0257082652711,2.14904682678,-0.165242593011,-1.005396311,-1.11429464377,-0.0264391003375,-1.12922428173,-0.186896510483,0.00306168107925,-0.903028741654,0.573881745922,0.818917685112,0.00378333318593,0.0,0.818890312777,-0.57380693113,-0.0120419403653,0.0,-0.00769060319126,0.0100089773609,-0.999920334324,0.0,0.459236280151,-0.00485000941186,0.30468328694,1.0,-0.36998,-0.486259428571,1.761
0.108947551249,-0.253741833674,-0.136253620717,-2.40839359657,-0.0288051568729,2.14908012804,-0.181058365912,-1.04397568731,-1.08671694619,-0.0344234527828,-1.08953466297,-0.179165570555,-0.00718039798761,-0.937198730365,0.573994819639,0.818837070049,0.00406775636328,0.0,0.818813725174,-0.573919390777,-0.0118896282121,0.0,-0.00740124657229,0.0101555152672,-0.999921040412,0.0,0.45301011914,-0.0131475502112,0.304773352907,1.0,-0.36998,-0.486259428571,1.778
0.090808549406,-0.272175763787,-0.136714453123,-2.42638007067,-0.0319657113394,2.14889094145,-0.197362506786,-1.08222530216,-1.0826769728,-0.0354253402697,-1.0351709331,-0.194077737621,-0.0160364570703,-0.970683905603,0.573908629772,0.818896473397,0.00426584481494,0.0,0.818876943669,-0.573834307949,-0.0116398044642,0.0,-0.00708404310937,0.0101735820681,-0.999923154328,0.0,0.446793312584,-0.0213664041296,0.304842167657,1.0,-0.36998,-0.486259428571,1.795
0.0721957513129,-0.290184980783,-0.137223964152,-2.44389326786,-0.0350046654745,2.14814787599,-0.214209664723,-1.09603672427,-1.05762607618,-0.0331178863059,-1.02062153928,-0.181910535888,-0.0568516553055,-0.995688987681,0.573833129061,0.81894949272,0.00424443949391,0.0,0.81892831633,-0.573756937505,-0.0118379169823,0.0,-0.00725951927033,0.0102690783436,-0.999920919578,0.0,0.440456757098,-0.0295685982723,0.304781294212,1.0,-0.36998,-0.486259428571,1.812
0.0529090424674,-0.307821867105,-0.137784522914,-2.4605648923,-0.0381074695336,2.14727637067,-0.231598649431,-1.13950241945,-1.01896471272,-0.022984937675,-0.986247547985,-0.18394820066,-0.0630478049674,-1.02837317765,0.573865789288,0.818926103448,0.00434049284685,0.0,0.818906945313,-0.573790380801,-0.0116944738637,0.0,-0.00708651330695,0.0102657158593,-0.999922195177,0.0,0.434208399036,-0.0378797883876,0.304823552229,1.0,-0.36998,-0.486259428571,1.829
0.0355090124226,-0.323036528459,-0.138321250639,-2.47475715934,-0.040638975573,2.14620206461,-0.247334743245,-1.18132004655,-1.0243516559,-0.0440282549694,-0.918254496794,-0.159782091414,-0.0622722895787,-1.0564856382,0.574010423431,0.818823771367,0.00451797941208,0.0,0.818806337919,-0.573933578582,-0.011712184285,0.0,-0.00699732953554,0.0104224667027,-0.999921201679,0.0,0.428296246627,-0.0456723369729,0.304850463844,1.0,-0.36998,-0.486259428571,1.845
0.0166182293057,-0.338945772232,-0.13876882843,-2.48936069627,-0.0433923866241,2.1449276578,-0.264683914319,-1.18773559294,-0.998182689217,-0.0200303336687,-0.887069672771,-0.159439330133,-0.0918355387387,-1.08940233997,0.573822002738,0.818955531879,0.00457087306888,0.0,0.818939012032,-0.573745362364,-0.0116576429402,0.0,-0.00692470727142,0.0104328791596,-0.999921598657,0.0,0.422761299636,-0.0528830134398,0.304867302837,1.0,-0.36998,-0.486259428571,1.86
-0.00415106896993,-0.355406417717,-0.139384154096,-2.50410653629,-0.0462803235242,2.14330568997,-0.283599491388,-1.23124946664,-0.970939286625,-0.0306862421354,-0.817804644116,-0.154743521598,-0.0929939019477,-1.13612974069,0.57393337666,0.818876683471,0.00471204040145,0.0,0.818862657591,-0.573857315452,-0.0115098395598,0.0,-0.00672122979541,0.0104645964851,-0.999922655654,0.0,0.416499751876,-0.0612083757804,0.304948924186,1.0,-0.36998,-0.486259428571,1.877
-0.0252571254828,-0.371240476079,-0.13994045054,-2.518294749,-0.0490979875854,2.14151388886,-0.303140710887,-1.2370140078,-0.920551047716,-0.0166686723792,-0.831492174516,-0.176572207639,-0.111945572602,-1.16633787061,0.573789529544,0.818977478478,0.00471300679144,0.0,0.818963229592,-0.573713122604,-0.011542461993,0.0,-0.0067492325189,0.0104829249285,-0.999922275052,0.0,0.410208649959,-0.0694253321181,0.304925003959,1.0,-0.36998,-0.486259428571,1.894
-0.0469584248153,-0.386556440269,-0.14055356818,-2.53162138113,-0.0517964917205,2.13952645797,-0.323139072046,-1.28554833105,-0.908814277164,-0.0395699890849,-0.766936881194,-0.16671896674,-0.108194124217,-1.20646054324,0.57386455646,0.818924237365,0.00482816695119,0.0,0.818911744931,-0.573788226807,-0.0114617491106,0.0,-0.0066160861758,0.0105315369572,-0.999922654075,0.0,0.40396159698,-0.0777026592634,0.304982234831,1.0,-0.36998,-0.486259428571,1.911
-0.0691189922851,-0.401303607752,-0.141081481771,-2.54448660924,-0.054307121676,2.13742174223,-0.343806975608,-1.32130364727,-0.879492376805,-0.0475983992071,-0.759380283167,-0.151734900827,-0.127439765049,-1.23749205866,0.573784322773,0.8189799962,0.00490547301469,0.0,0.818967421718,-0.573706054868,-0.0115961922476,0.0,-0.00668287857851,0.0106713413591,-0.999920727662,0.0,0.397650215427,-0.0858950329318,0.304937032924,1.0,-0.36998,-0.486259428571,1.928
-0.0917192885316,-0.415516665687,-0.141597572348,-2.55641586677,-0.0568552342362,2.1351856263,-0.364982527569,-1.33780929765,-0.832126862082,-0.0329067618632,-0.684402047434,-0.146450147693,-0.118777976834,-1.27446197451,0.5736429092,0.819078486695,0.00499922590165,0.0,0.819067999623,-0.573565807618,-0.0114290518409,0.0,-0.00649403047465,0.0106511055731,-0.999922187732,0.0,0.391419744503,-0.0940970965036,0.305023084399,1.0,-0.36998,-0.486259428571,1.945
-0.116310372443,-0.429752896049,-0.142230306362,-2.56847645402,-0.059433337087,2.13266532354,-0.388050799029,-1.38012931377,-0.789943264239,-0.0386649646847,-0.663304343187,-0.1384157618,-0.150649614021,-1.29783770579,0.573630679891,0.819087162618,0.00498096622893,0.0,0.819075183032,-0.573551591205,-0.0116259910674,0.0,-0.00666598727056,0.0107490179379,-0.999920008414,0.0,0.38471836766,-0.102835270968,0.304968137601,1.0,-0.36998,-0.486259428571,1.963
-0.138535466769,-0.441789591653,-0.142818311033,-2.57842304132,-0.0615935895337,2.13040512421,-0.408989985,-1.39642143791,-0.750710120604,-0.0368122485529,-0.595540771704,-0.126070025759,-0.138167209018,-1.34400188734,0.573662462238,0.81906439471,0.00506395479522,0.0,0.819052895221,-0.573582140339,-0.0116888842786,0.0,-0.00666948330466,0.0108533299326,-0.999918858319,0.0,0.378807034569,-0.110585061023,0.304973248069,1.0,-0.36998,-0.486259428571,1.979
-0.162728932591,-0.453851595823,-0.143421822218,-2.58823542859,-0.0638772420373,2.12813876518,-0.43184360952,-1.43172559665,-0.696962283545,-0.039944006202,-0.581603772636,-0.132124943476,-0.134745403944,-1.36143654213,0.573687910096,0.819046133457,0.00513419716904,0.0,0.819036228141,-0.573608488567,-0.0115631197179,0.0,-0.00652583506003,0.0108389241519,-0.999919962397,0.0,0.372557040697,-0.118887581481,0.305002684476,1.0,-0.36998,-0.486259428571,1.996
-0.185766984931,-0.464443749882,-0.143845922352,-2.59690659612,-0.0657959521945,2.12581210309,-0.453799868758,-1.44634369457,-0.643782296346,-0.0154562327726,-0.532529870966,-0.115722911027,-0.140005281778,-1.37151754992,0.573578691996,0.819122741084,0.00511527393254,0.0,0.819110928279,-0.573496620117,-0.0118178166305,0.0,-0.00674677993711,0.0109686357647,-0.999917081557,0.0,0.366632959836,-0.126563645281,0.30494037127,1.0,-0.36228,-0.476139428572,2.012
-0.210302447362,-0.474685833399,-0.144128050474,-2.60506823352,-0.0675861162083,2.12362437198,-0.477033764367,-1.42937743359,-0.588336768802,-0.000966542311903,-0.462692606573,-0.0980578153859,-0.132111513757,-1.36193961914,0.573619318091,0.819093697967,0.00520948797434,0.0,0.819083192606,-0.573537052687,-0.0117779322097,0.0,-0.0066595238857,0.0110232657165,-0.999917065738,0.0,0.360563317013,-0.134586353221,0.304956949411,1.0,-0.35038,-0.460499428572,2.029
-0.233206272287,-0.483411508171,-0.144327988905,-2.61191738237,-0.0690182002046,2.12166735299,-0.498707084512,-1.42237893139,-0.530810463401,-7.09367792566e-05,-0.41485272759,-0.0981727625385,-0.126437700572,-1.36258537454,0.573763473672,0.818991713053,0.00536629588295,0.0,0.818983226916,-0.57368062168,-0.0117373438044,0.0,-0.00653437315775,0.0111295797506,-0.999916713743,0.0,0.355002229388,-0.141941556636,0.304986068454,1.0,-0.33918,-0.445779428572,2.045
-0.258550534462,-0.492122641828,-0.144307987727,-2.61886681497,-0.0704086210811,2.11950564728,-0.522787757629,-1.3975563958,-0.465298260536,0.00898918555961,-0.360099180094,-0.0803661381227,-0.114564373422,-1.32489454915,0.573783331833,0.818977552995,0.0054039523758,0.0,0.818968005933,-0.573697714069,-0.0119618155459,0.0,-0.00669635222579,0.0112893718355,-0.999913850764,0.0,0.348893258792,-0.149863314009,0.30492923265,1.0,-0.32658,-0.429219428572,2.063
-0.284719600016,-0.500160870446,-0.144121670773,-2.62504420511,-0.071566422643,2.1175995322,-0.547677359421,-1.3562101576,-0.392043574429,0.0142874433452,-0.310290340309,-0.0607611054835,-0.102048960169,-1.30400448287,0.573836654116,0.818939069226,0.00557155184145,0.0,0.818932233897,-0.573751317306,-0.011839302159,0.0,-0.00649910700989,0.0113567675868,-0.999914389054,0.0,0.342787153842,-0.157917241396,0.304975358999,1.0,-0.31328,-0.411739428572,2.082
-0.304855377493,-0.505606245847,-0.14393650145,-2.6291837539,-0.0722435507783,2.11620804431,-0.566876254875,-1.34580055862,-0.35573665685,0.00041134693127,-0.26331789245,-0.0383397921264,-0.083202693355,-1.27006439192,0.573934964323,0.81886891141,0.00575409017856,0.0,0.818864388076,-0.573848837326,-0.0118056233275,0.0,-0.00636540251761,0.0114877007101,-0.999913753472,0.0,0.338162892869,-0.164036204354,0.305009199509,1.0,-0.30278,-0.397939428572,2.097
-0.328490452515,-0.511317831341,-0.143596514678,-2.63344931371,-0.073015448863,2.11480270114,-0.589436416337,-1.30480042349,-0.302099779361,0.0120265434908,-0.232787841652,-0.0388830954951,-0.085615664613,-1.25891720878,0.573986169157,0.818832177883,0.0058727319858,0.0,0.818830351178,-0.573901745141,-0.0115926621215,0.0,-0.00612219150819,0.0114630196144,-0.999915555411,0.0,0.332820614993,-0.171147577037,0.305078333616,1.0,-0.29018,-0.381379428572,2.115
-0.346319953685,-0.515048742191,-0.143265707011,-2.63638481891,-0.0735434562582,2.11369813961,-0.606553095535,-1.25642956148,-0.247192252381,0.0242148675596,-0.201711707982,-0.0183263470928,-0.0756779468098,-1.23641894356,0.573949895962,0.818857768198,0.00584972546794,0.0,0.818854566916,-0.573863562967,-0.0117709915073,0.0,-0.00628194448259,0.0115462560668,-0.99991360684,0.0,0.328479775042,-0.176794268052,0.305029807906,1.0,-0.27968,-0.367579428572,2.13
-0.367373345003,-0.518865210296,-0.142763024455,-2.63946085468,-0.0740388703868,2.11260109582,-0.62674922591,-1.22217800461,-0.208165115313,0.0352347672024,-0.164374772508,-0.0280066067401,-0.0632896493556,-1.1761483046,0.573881761701,0.818905822967,0.00580720229491,0.0,0.818901115165,-0.573793866605,-0.0119293389533,0.0,-0.00643699200607,0.0116017778599,-0.999911978068,0.0,0.324035804366,-0.182580584268,0.304965160316,1.0,-0.26848,-0.352859428572,2.146
-0.387703997826,-0.521956741801,-0.142288060144,-2.64190063596,-0.0743377378038,2.1116931302,-0.646225198423,-1.17880519058,-0.16967633192,0.0344910783149,-0.130444737379,-0.0226778830753,-0.0568783938072,-1.12030667567,0.573970746122,0.818842980817,0.00587386288471,0.0,0.818838400444,-0.573881229672,-0.0120314209499,0.0,-0.00648106971957,0.0117156537111,-0.99991036558,0.0,0.319532515647,-0.188507305568,0.304927387246,1.0,-0.25658,-0.337219428572,2.163
-0.406070138114,-0.524378102144,-0.141689734825,-2.64375615535,-0.0745000125913,2.11095158008,-0.663966797029,-1.14868205796,-0.14365738526,0.0248708560537,-0.105354971621,-0.00775512869586,-0.047105720356,-1.09167216693,0.57390035334,0.818891974095,0.00592166365744,0.0,0.818887831595,-0.573810318108,-0.0120492737759,0.0,-0.00646926643521,0.0117644872922,-0.999909868653,0.0,0.315255664858,-0.194123641558,0.304927378518,1.0,-0.24468,-0.321579428572,2.18
-0.42600112383,-0.526482425836,-0.141038085992,-2.64538624589,-0.0746316208194,2.110296013,-0.683166994604,-1.0785700414,-0.104974822405,0.0466267328952,-0.0785162922489,-0.0031077520985,-0.0396640044909,-1.03947978067,0.57386108084,0.818919469106,0.00592536218621,0.0,0.8189151924,-0.573770706718,-0.01207603703,0.0,-0.0064896275298,0.0117825636279,-0.999909523871,0.0,0.311168465954,-0.199505495949,0.304915203153,1.0,-0.23278,-0.305939428572,2.197
-0.442979470945,-0.527961316854,-0.140490568513,-2.64655348871,-0.0746944676776,2.10983410177,-0.699545217291,-1.03822856924,-0.0846268306145,0.0452076460408,-0.0668998476423,-0.0034667372734,-0.0274427860457,-1.01577028314,0.573869176089,0.818913606187,0.0059515744722,0.0,0.818909538193,-0.573778447387,-0.0120916695286,0.0,-0.00648727243842,0.0118130649706,-0.999909179272,0.0,0.307461411306,-0.204351328699,0.30490034008,1.0,-0.22158,-0.291219428572,2.213
-0.462175067084,-0.529157875832,-0.139811789427,-2.64749405128,-0.0746758686168,2.10940839486,-0.71797201439,-1.00802873636,-0.0535514915081,0.0316021653,-0.0430296041716,-0.000554268444381,-0.0232528225918,-0.958629819138,0.573971441412,0.818841771072,0.00597371684905,0.0,0.818837860806,-0.573880357933,-0.0121094752586,0.0,-0.00648767031171,0.0118422264942,-0.999908831747,0.0,0.303303630616,-0.209809467001,0.304891449942,1.0,-0.20828,-0.273739428572,2.232
-0.475603672966,-0.529774765711,-0.139203408963,-2.64794796958,-0.0746255780122,2.10917529079,-0.730944466676,-0.943299831509,-0.0411021037691,0.0462807980479,-0.0269370180239,0.00699656313395,-0.0146238777197,-0.914915634054,0.573894985062,0.8188956748,0.00593016154469,0.0,0.818891556879,-0.573804758687,-0.0120608407996,0.0,-0.00647394009451,0.0117780420342,-0.999909678834,0.0,0.300226474918,-0.213850921836,0.304908186529,1.0,-0.19778,-0.259939428572,2.247
-0.492990153,-0.530204969782,-0.138466191645,-2.64823864618,-0.0744998141824,2.10895707972,-0.747661670897,-0.894508849419,-0.0178574087844,0.0419022909124,-0.0140661508388,0.011695314329,-0.0117279739182,-0.864745347671,0.573974255385,0.818840234532,0.00591365944444,0.0,0.818836282318,-0.573884774352,-0.0120064744431,0.0,-0.00643774917962,0.0117339520576,-0.999910430866,0.0,0.29670457957,-0.218502758507,0.304932198089,1.0,-0.18518,-0.243379428572,2.265
-0.50656841124,-0.530327344649,-0.137700313067,-2.64831761065,-0.0742578252799,2.10885026036,-0.760910984721,-0.828018639347,-0.0082222226015,0.0465551355923,-0.00429696811286,0.00838651725871,-0.00759669329467,-0.814075850936,0.573801842814,0.818961127456,0.00590455755992,0.0,0.818957372493,-0.573713009724,-0.0119562291036,0.0,-0.0064042886804,0.011696312428,-0.999911086728,0.0,0.293834064534,-0.222270571347,0.3049521272,1.0,-0.17398,-0.228659428572,2.281
-0.520417665312,-0.530226518769,-0.136980112036,-2.64829208827,-0.0739947100741,2.10881120167,-0.774133666746,-0.794370634976,0.012267235933,0.0474253632406,0.00384073822855,0.0173453074619,-0.00303551544139,-0.755276335539,0.5739209755,0.818877581064,0.00591337570237,0.0,0.818873909447,-0.5738320255,-0.0119613476949,0.0,-0.00640171836276,0.0117074028206,-0.999910973398,0.0,0.290880590918,-0.226117029641,0.304942649285,1.0,-0.16208,-0.213019428572,2.298
-0.532397270261,-0.529969997579,-0.136183094484,-2.64817331633,-0.0736252043568,2.10881608313,-0.785782498846,-0.731998374549,0.0243401832745,0.0465050926096,0.00722345352441,0.0130640075007,0.000840662124243,-0.713440697698,0.573794519948,0.818965996533,0.0059407324708,0.0,0.818962427022,-0.573705020114,-0.0119933282917,0.0,-0.00641402350433,0.0117471689017,-0.999910428151,0.0,0.288356546496,-0.229380389289,0.304924484497,1.0,-0.15088,-0.198299428572,2.314
-0.544514973454,-0.529569773086,-0.135473207986,-2.6479599188,-0.0732728195663,2.10882108463,-0.797287062207,-0.688790568823,0.0318092017344,0.0509936015139,0.0173098507041,0.0211463612472,0.00467813964799,-0.658244114974,0.573958940267,0.81885046446,0.00598319675679,0.0,0.818846859955,-0.573868151967,-0.0120793626144,0.0,-0.00645774995322,0.0118326078564,-0.999909139301,0.0,0.285765902969,-0.232697451303,0.304894488788,1.0,-0.13898,-0.182659428572,2.331
-0.555470575978,-0.529046314509,-0.134621322846,-2.64767359373,-0.0728303664426,2.10889971591,-0.807952011082,-0.628792150037,0.030294139705,0.047750956791,0.0154182308003,0.0249475800841,0.00329193977205,-0.608603741362,0.573801600219,0.818960523945,0.00601088235544,0.0,0.818956821039,-0.573709883767,-0.0121425468282,0.0,-0.00649588896094,0.0118902948312,-0.999908207945,0.0,0.283473972052,-0.235637855069,0.3048624912,1.0,-0.12708,-0.167019428572,2.348
-0.565217679397,-0.528501522675,-0.133949011267,-2.64731334902,-0.0724554491569,2.10896961233,-0.817145965013,-0.597189270496,0.0372105351355,0.0377523219138,0.0262529091683,0.0176733000072,0.00129876566624,-0.557927041434,0.573960785492,0.818848677535,0.00605036513518,0.0,0.818845233707,-0.573868391126,-0.0121778406436,0.0,-0.00649982054209,0.0119441455964,-0.999907540585,0.0,0.281415150784,-0.238280744689,0.304850692342,1.0,-0.11588,-0.152299428572,2.364
-0.575043380039,-0.527809165228,-0.133099070285,-2.64680316441,-0.0719691741774,2.10912394176,-0.82658039848,-0.513141452818,0.0443451479674,0.048662817045,0.0342694249287,0.0296665499451,0.00879122031786,-0.512762485498,0.573917423557,0.818878855652,0.00607927668854,0.0,0.818876131287,-0.573825542228,-0.0121192242355,0.0,-0.00643585614134,0.0119338382878,-0.999908077405,0.0,0.279404977571,-0.240919633822,0.304864706635,1.0,-0.10328,-0.135739428572,2.382
-0.583418611114,-0.527130022499,-0.132309271729,-2.64630779806,-0.0715451937108,2.10924343817,-0.834495586469,-0.47345568892,0.0370809810901,0.0493216074973,0.0264761677742,0.031562284889,0.0085815693457,-0.440698111503,0.573942882992,0.818861104197,0.00606679470954,0.0,0.81885831653,-0.573851235172,-0.0121063719721,0.0,-0.00643212332161,0.0119164407633,-0.999908308911,0.0,0.277601598207,-0.243276329745,0.304874370947,1.0,-0.0906800000001,-0.119179428572,2.4
-0.592216025916,-0.526333011126,-0.131387526287,-2.64571063228,-0.0710032419592,2.10939316566,-0.842672980793,-0.417554176573,0.03673164511,0.0476436835663,0.0317136610988,0.0300875027773,0.00793978121228,-0.383844576868,0.574066055436,0.818774608479,0.00608698670055,0.0,0.818772242051,-0.573974587608,-0.012080369533,0.0,-0.00639744732413,0.0119190153121,-0.999908500685,0.0,0.275930976423,-0.245472084708,0.304888061049,1.0,-0.0773800000001,-0.101699428572,2.419
-0.5968074439,-0.525846337058,-0.1308064395,-2.64536950642,-0.0706674033663,2.10948359147,-0.847027517761,-0.366615391324,0.0398094596803,0.0474237393686,0.029560422362,0.033463380602,0.00138739153202,-0.346126943064,0.574003381862,0.818818555956,0.00608579786156,0.0,0.818816092832,-0.573911781231,-0.0120921621128,0.0,-0.00640869901595,0.0119243207537,-0.999908365377,0.0,0.274968237971,-0.246745865323,0.304886356395,1.0,-0.0682800000001,-0.0897394285716,2.432
-0.602442599419,-0.52521315616,-0.129906247978,-2.64498968069,-0.0701765394032,2.10959710703,-0.852358560453,-0.322116684987,0.0351726120456,0.0513921363743,0.0175558611654,0.028303581199,0.00181474933635,-0.292441472224,0.573855173594,0.81892258955,0.00606456644569,0.0,0.818919354421,-0.573762781167,-0.0121699960354,0.0,-0.00648678704841,0.011950436109,-0.999907550062,0.0,0.273962537508,-0.248047986101,0.304860417168,1.0,-0.0570800000001,-0.0750194285716,2.448
-0.607645613808,-0.524706690029,-0.129038469309,-2.64461561297,-0.0696698994665,2.10970031407,-0.857042225057,-0.268182984703,0.0247981008623,0.0508396506854,0.0176474086601,0.0296387021997,0.013201740491,-0.243280339691,0.573903353909,0.818888804134,0.00606743244154,0.0,0.818885785442,-0.573811268859,-0.0121426946068,0.0,-0.00646207997258,0.0119374971746,-0.999907864597,0.0,0.272986162858,-0.249320487207,0.304875321167,1.0,-0.0444800000001,-0.0584594285716,2.466
-0.611349405242,-0.5242769878,-0.128261335417,-2.64433019072,-0.069195354936,2.10981806847,-0.860306945623,-0.212188040127,0.0286635568421,0.0460995536103,0.0128614122468,0.0322319256774,0.0115026243229,-0.185580276796,0.573931291611,0.818869126927,0.00608049143363,0.0,0.818866394298,-0.573839357321,-0.0121230021288,0.0,-0.0064380508249,0.0119371101922,-0.999908024221,0.0,0.272340812389,-0.250185877275,0.30487685969,1.0,-0.0332800000001,-0.0437394285716,2.482
-0.614731718086,-0.523922081851,-0.127383952143,-2.64409404553,-0.0686566302209,2.10986907768,-0.863265610164,-0.158341554207,0.0110182117571,0.0458500604602,0.0167272966848,0.0316896777949,0.00302194105527,-0.135555521433,0.573900143128,0.818890773883,0.00610516734366,0.0,0.818888210054,-0.573807822373,-0.0121420476029,0.0,-0.00643994196826,0.0119680028365,-0.999907642763,0.0,0.271779151401,-0.250913014229,0.304880016987,1.0,-0.0199800000001,-0.0262594285716,2.501
-0.616766703627,-0.523752381223,-0.126829826224,-2.64395624915,-0.0683050698621,2.10989900681,-0.864842123864,-0.125815287792,0.0109730378638,0.0277203292288,0.0144250272787,0.0290619974378,-5.61222913814e-05,-0.100788430525,0.574040713124,0.818792067653,0.00612833800836,0.0,0.818789975286,-0.57394857551,-0.0121142867389,0.0,-0.0064018542725,0.0119721460259,-0.999907837744,0.0,0.271448065785,-0.251340687083,0.304896536501,1.0,-0.01968,-0.0258651428571,2.516
-0.618601152353,-0.523597052571,-0.126319268394,-2.64377008098,-0.0680515688282,2.10994306996,-0.866539904627,-0.102332520782,0.0095804632109,0.0278622069719,0.0133198158328,0.0120261523769,0.00358483120824,-0.106018534186,0.573908965207,0.818884743385,0.0060847027423,0.0,0.818882744064,-0.573818281167,-0.0120157635181,0.0,-0.00634813397733,0.0118788411898,-0.99990929305,0.0,0.271163283515,-0.251747703916,0.304940337962,1.0,-0.01934,-0.0254182857143,2.533
-0.620404935292,-0.523385455538,-0.125966143613,-2.64354274708,-0.0678569792062,2.11003155964,-0.868313180328,-0.0940440028457,0.00821498201179,0.0135648496138,0.0103306479806,0.00937688207321,0.00389844965404,-0.0886787641007,0.573778667598,0.818976210964,0.00606245701523,0.0,0.818974717645,-0.57368959482,-0.0118914908352,0.0,-0.0062610001419,0.011788309751,-0.999910913847,0.0,0.270863115961,-0.252202732252,0.304982142591,1.0,-0.01896,-0.0249188571429,2.552
-0.62174663627,-0.523204747533,-0.125815395213,-2.64338567267,-0.0677629837307,2.11004896571,-0.869612913156,-0.0894184170574,0.0110321037507,0.00773152427134,0.0126190854058,0.00228673902599,-0.000281254413331,-0.079647256459,0.573754645051,0.818993028677,0.00606408789846,0.0,0.818991588666,-0.573665631221,-0.0118856279454,0.0,-0.00625560805653,0.0117860981437,-0.999910973666,0.0,0.270600183849,-0.25256123519,0.304992355593,1.0,-0.01866,-0.0245245714286,2.567
-0.623330768106,-0.522996667221,-0.125691108397,-2.64322821548,-0.0677410473732,2.11005805636,-0.871117661098,-0.0869492226774,0.011908916127,0.00620177637776,0.00626964103769,0.00640242779034,0.00107127596724,-0.0772118905606,0.573749436496,0.818996993635,0.00602124899376,0.0,0.8189948406,-0.573660302004,-0.0119187195494,0.0,-0.00630736539908,0.0117699570932,-0.999910838651,0.0,0.270261746768,-0.252996886019,0.304991289567,1.0,-0.0183,-0.0240514285714,2.585
-0.624667268108,-0.522792299242,-0.125623284435,-2.64307672069,-0.0677025437163,2.11008794074,-0.872402461107,-0.0774226327535,0.0115677334061,0.0016886758092,0.0102446107652,0.00493923943393,0.0030672989779,-0.0841605714993,0.573768247535,0.818983846047,0.00601705370341,0.0,0.81898155425,-0.57367896904,-0.0119331965823,0.0,-0.00632135977311,0.0117749719892,-0.999910691235,0.0,0.269976923251,-0.253377480877,0.304989304028,1.0,-0.01798,-0.0236308571429,2.601
-0.626025984534,-0.522554825242,-0.125597005074,-2.6429250653,-0.0676643498789,2.11017055503,-0.873809294775,-0.0817656779283,0.0136339431143,-0.000562355650823,0.0101411123353,0.00159870593363,0.00102667670941,-0.0736808871431,0.573734715694,0.819007236778,0.00603067276886,0.0,0.819005140235,-0.573645423064,-0.0119271022049,0.0,-0.00630903665626,0.0117823714365,-0.999910681901,0.0,0.269684918849,-0.253779712763,0.30497873405,1.0,-0.01764,-0.023184,2.618
-0.627203310495,-0.52237293848,-0.125593967797,-2.64280734308,-0.0676366507435,2.11017094421,-0.87498361371,-0.079085226595,0.00913956570058,0.000821150514144,0.0107510808267,0.00189111640897,-0.000217963811797,-0.0784389260613,0.573753222163,0.81899409351,0.00605489510652,0.0,0.818991932127,-0.573663117404,-0.0119828937916,0.0,-0.00634057131175,0.011834362014,-0.999909868454,0.0,0.269412602196,-0.254120146566,0.304965562322,1.0,-0.01734,-0.0227897142857,2.633
-0.628527989755,-0.52217175121,-0.125596077688,-2.64267046111,-0.0676118921836,2.1101750798,-0.876332421256,-0.0786449617791,0.0132214186113,-0.00702457991918,0.00857634142502,0.00123527718147,-0.000244964632802,-0.0826832345568,0.573752883762,0.818994151924,0.00607901220595,0.0,0.818991949458,-0.573662015386,-0.0120343561492,0.0,-0.00636889153565,0.011883637399,-0.99990910406,0.0,0.269105672089,-0.254506408443,0.304954195164,1.0,-0.017,-0.0223428571429,2.65
-0.629757357332,-0.521985455211,-0.125593136908,-2.64253954104,-0.0675795064243,2.1102185266,-0.877517050151,-0.0761036809351,0.0156518480404,-0.00253071687297,0.00346753454573,5.06989923723e-05,0.00331366827076,-0.075563278872,0.573808287254,0.818955157851,0.00610293445775,0.0,0.818953230231,-0.573717236872,-0.012036848059,0.0,-0.00635640248869,0.0119050902666,-0.99990892834,0.0,0.268813609399,-0.254889630903,0.30494856711,1.0,-0.01666,-0.021896,2.667
-0.631106871277,-0.521798030203,-0.125571890201,-2.64238720831,-0.0675540298724,2.1102738496,-0.87883006267,-0.0720359296723,0.0104831590041,0.00077790670522,0.00698274985115,0.000427363386778,0.00606175125197,-0.0765643026094,0.573841944108,0.818931537482,0.00610794566708,0.0,0.818929844292,-0.573751182739,-0.0120098848628,0.0,-0.00633095431553,0.0118939836683,-0.999909221965,0.0,0.268532365233,-0.255267051662,0.304954670679,1.0,-0.01632,-0.0214491428571,2.684
-0.632316911929,-0.52161823554,-0.125518396799,-2.64224110283,-0.0675183829278,2.11029513282,-0.88013848563,-0.0724743780781,0.0107753819359,0.00381946157358,0.0118697783931,0.0018325763314,0.00133490712501,-0.0679658721789,0.573746362162,0.818998489342,0.00611009507613,0.0,0.818996787282,-0.57365554259,-0.0120136496521,0.0,-0.00633419296325,0.0118971650788,-0.999909163606,0.0,0.268271328,-0.255613129342,0.304958113262,1.0,-0.01598,-0.0210022857143,2.701
-0.63343226589,-0.521449921813,-0.125461476461,-2.64212672846,-0.0674990653517,2.11031405746,-0.881242289124,-0.0738335915457,0.00898949082793,0.00452011868257,0.00834879324707,5.98646035449e-05,0.000189619629728,-0.0737230994453,0.573729882797,0.819010120938,0.00609838399406,0.0,0.81900809593,-0.573638796986,-0.0120422711354,0.0,-0.00636459481923,0.0119038658567,-0.999908890805,0.0,0.26802585739,-0.255926333509,0.304951213925,1.0,-0.01566,-0.0205817142857,2.717
-0.634588081267,-0.521273453498,-0.125413989755,-2.6420179507,-0.0674739133021,2.11034610297,-0.882450895558,-0.0626735964334,0.0118443975678,0.00170638766314,0.00827181110729,0.00129976653661,0.000251646116109,-0.0822997991703,0.573669638729,0.81905232748,0.00609732327831,0.0,0.819050104073,-0.573578225388,-0.012070347171,0.0,-0.00638907708783,0.0119186344372,-0.999908558743,0.0,0.267768769405,-0.256251879304,0.30493966489,1.0,-0.01532,-0.0201348571429,2.734
-0.635649583103,-0.521091304659,-0.125380582992,-2.6418934725,-0.0674448771926,2.11038767916,-0.883543147125,-0.0639597273752,0.0127985796349,0.000806131516226,0.00653173094346,0.000640901392323,0.00392767162542,-0.0622921508399,0.573639823039,0.819073172258,0.006102361173,0.0,0.819070948172,-0.573548270465,-0.012079329789,0.0,-0.00639397937641,0.0119276809995,-0.999908419533,0.0,0.26753787255,-0.256559844082,0.30493363461,1.0,-0.015,-0.0197142857143,2.75
-0.636755367414,-0.520909560618,-0.125358116554,-2.64175077906,-0.0674228377189,2.11042026535,-0.884626988971,-0.0652119776976,0.00380879326282,0.00520259171545,0.00895634303532,0.000259758243131,0.000324660467752,-0.0636948356124,0.573658780594,0.819059873175,0.00610528484752,0.0,0.819057686117,-0.573567209334,-0.0120793249434,0.0,-0.00639202223026,0.0119302209915,-0.999908401744,0.0,0.267295099002,-0.25688595451,0.304934988937,1.0,-0.01466,-0.0192674285714,2.767
-0.637858013277,-0.520718545426,-0.125352456002,-2.64160590973,-0.0673886928827,2.11043972469,-0.885777817761,-0.0603951649557,0.0117283646374,0.000203179105789,0.00918825602135,0.00107649877303,-8.31957455319e-05,-0.0739165575389,0.573637522029,0.819074585512,0.00612891414565,0.0,0.8190725598,-0.573545578265,-0.012097864998,0.0,-0.0063939652547,0.0119600449653,-0.999908033037,0.0,0.267048399577,-0.257212046773,0.304932402413,1.0,-0.01432,-0.0188205714286,2.784
-0.639084494559,-0.520528473482,-0.125323690445,-2.64145061763,-0.0673624866784,2.11048591454,-0.887002779658,-0.0645016775339,0.0105499507309,0.00524462906344,0.00567802773028,0.000644274801709,0.00318342089564,-0.0658742698694,0.573637672553,0.819074463577,0.00613112106126,0.0,0.819072584342,-0.573545939506,-0.012079062747,0.0,-0.00637729503336,0.0119510687085,-0.999908246823,0.0,0.266780395006,-0.257573037539,0.304937710663,1.0,-0.01394,-0.0183211428571,2.803
-0.640146626507,-0.520374672143,-0.12530916839,-2.64130746422,-0.0673315624528,2.11051406466,-0.888043555054,-0.0610862661809,0.00825203229517,0.00106114445229,0.010040018929,0.00093539386176,0.000201205449525,-0.0624084374443,0.573665441745,0.819054913688,0.00614460846472,0.0,0.819053355141,-0.573573916533,-0.0120544848799,0.0,-0.00634902016851,0.0119482336132,-0.999908460638,0.0,0.266546770369,-0.257887621027,0.304948959214,1.0,-0.0136,-0.0178742857143,2.82
-0.641102035561,-0.520216586869,-0.125291333781,-2.64118485176,-0.0673134504067,2.11053068365,-0.889029073076,-0.0575245524871,0.0107540852428,-0.000325549828102,0.00863155126605,0.000798776846596,-0.000423458838421,-0.0710952860555,0.573642318829,0.819071075116,0.00614905343015,0.0,0.819069484873,-0.573550610673,-0.0120674292473,0.0,-0.00635741129741,0.0119591203713,-0.999908277174,0.0,0.266333220008,-0.258167254079,0.304948376785,1.0,-0.01328,-0.0174537142857,2.836
-0.642037480822,-0.520071709476,-0.125244659008,-2.64106687271,-0.0672922188873,2.11056900503,-0.890004727471,-0.053732474138,0.00795400584379,0.00446868546039,0.00793666521801,1.85240053678e-05,0.00368843462107,-0.052550428848,0.573591508008,0.819106728661,0.0061396990813,0.0,0.819105129082,-0.573500062777,-0.0120504110991,0.0,-0.00634957725491,0.01194130239,-0.9999085399,0.0,0.266133727775,-0.258436803163,0.304953076815,1.0,-0.01296,-0.0170331428571,2.852
-0.642952231911,-0.519916273809,-0.125201347612,-2.64096020616,-0.0672804670641,2.11059531412,-0.890879801902,-0.0527804874778,0.0050100483579,0.00285029617924,0.00237184048474,0.000541905532085,0.00404391315322,-0.0600661670171,0.573604002153,0.819098082273,0.0061259474065,0.0,0.819096204898,-0.573512428531,-0.012068485565,0.0,-0.00637208909051,0.0119405017837,-0.999908406254,0.0,0.265932987902,-0.258697669746,0.304947633982,1.0,-0.01264,-0.0166125714286,2.868
-0.644026498854,-0.519734576623,-0.125162882809,-2.6408318902,-0.0672639343451,2.11062733722,-0.891944044555,-0.0542389814207,0.00942281514658,0.00392094656428,0.0066845855144,7.54187074841e-05,0.00116279915921,-0.0505015098516,0.573598805121,0.81910177966,0.00611818786915,0.0,0.819099709326,-0.573507094416,-0.0120841109387,0.0,-0.00638941564362,0.0119430674417,-0.999908265046,0.0,0.265695385178,-0.259007221174,0.304942732712,1.0,-0.01226,-0.0161131428571,2.887
-0.644985893212,-0.51957177048,-0.12515957378,-2.64072121798,-0.0672569375525,2.11065973363,-0.892918856224,-0.0591719467626,0.0081032118801,-0.000799037041196,0.00304892758499,7.30916443818e-05,0.000143854775637,-0.054189234155,0.573592716931,0.819106025099,0.00612059074801,0.0,0.819103889217,-0.57350081603,-0.0120987430643,0.0,-0.00640011277356,0.0119533807313,-0.999908073398,0.0,0.265475159097,-0.259290607622,0.304935951868,1.0,-0.01192,-0.0156662857143,2.904
-0.645872210325,-0.519436880137,-0.125150628499,-2.6406320278,-0.0672501434508,2.1106863717,-0.893747318152,-0.0549145471573,0.00809580424291,0.000536059240547,0.00774863332506,-0.000395712622264,0.000320724166349,-0.043913788276,0.573641432353,0.819071906052,0.00612100529554,0.0,0.819069686451,-0.573549352915,-0.0121134391791,0.0,-0.00641120252632,0.0119625308054,-0.999907892928,0.0,0.265269564581,-0.259547387433,0.304929319337,1.0,-0.0116,-0.0152457142857,2.92
-0.646776371616,-0.519287068439,-0.125143881855,-2.64052492238,-0.0672437570253,2.11071722078,-0.894605347613,-0.0555252542638,0.00792922238792,-0.000571626676257,0.00840149699766,0.000103933507135,0.00484057114457,-0.0510611971154,0.573682826699,0.819042920862,0.00612005212479,0.0,0.819040646063,-0.573590662891,-0.0121209917798,0.0,-0.00641733130941,0.0119664066633,-0.999907807235,0.0,0.265063037127,-0.259814178057,0.304925635749,1.0,-0.01126,-0.0147988571429,2.937
-0.647652793385,-0.519148192922,-0.125130238613,-2.64041702228,-0.0672308273323,2.11075636522,-0.89548319001,-0.0492873599605,0.00277124561258,-0.000131166018203,0.00534135164428,0.00039343833013,0.00219070370274,-0.0484475982041,0.573683147393,0.819042696269,0.0061200479476,0.0,0.819040504728,-0.573591138968,-0.012108006195,0.0,-0.00640669211625,0.0119589565095,-0.999907964592,0.0,0.264867287084,-0.260072835842,0.304927207359,1.0,-0.01092,-0.014352,2.954
-0.648448246085,-0.519016716021,-0.125114274944,-2.64032145756,-0.0672244708692,2.11079343301,-0.896258560118,-0.0555768791051,0.00993640885845,0.00159473284195,0.0101451146087,-0.000285155935748,0.000232214251271,-0.0525051450929,0.573696022038,0.819033724809,0.00611382237302,0.0,0.819031491378,-0.573604111491,-0.0121031529941,0.0,-0.00640610016588,0.0119511738802,-0.999908061435,0.0,0.264689284036,-0.26030675227,0.304925765985,1.0,-0.0106,-0.0139314285714,2.97
-0.649203662751,-0.518885684714,-0.125104554793,-2.64022393276,-0.0672153771768,2.11081219897,-0.896986912919,-0.0445773748495,0.0106719287181,0.00208465373904,0.00659164738251,0.00132369671266,-0.000542740395781,-0.0408611670875,0.573720309587,0.819016709344,0.00611417070485,0.0,0.819014413021,-0.573628266598,-0.0121140383561,0.0,-0.00641446218643,0.0119578939934,-0.999907927484,0.0,0.264517956214,-0.260528990776,0.304923666796,1.0,-0.01028,-0.0135108571429,2.986
-0.64999915782,-0.518769522653,-0.125104423008,-2.64013935325,-0.0672038682135,2.11083331142,-0.897765546211,-0.0462731264938,0.00464687869905,0.00133072550277,0.00571714514424,-0.000279496956743,0.000265918862736,-0.040158636375,0.573743399043,0.819000468745,0.00612300186277,0.0,0.818998243695,-0.573651230377,-0.0121198024626,0.0,-0.00641377983089,0.0119686148653,-0.999907803593,0.0,0.26433185095,-0.260760823771,0.304921131847,1.0,-0.00994,-0.013064,3.003
-0.650782789046,-0.51866073509,-0.125104869323,-2.64005653307,-0.0671922279411,2.11085200975,-0.898543272542,-0.0509997591191,0.00186423357939,0.000537596202819,0.00473801393059,-0.000470632901802,0.00115866692969,-0.0493825204165,0.573757864424,0.818990264115,0.00613247073741,0.0,0.818988137999,-0.573665604988,-0.0121223088224,0.0,-0.00641018878449,0.0119779214245,-0.999907715181,0.0,0.264147906132,-0.260988839765,0.304920289857,1.0,-0.0096,-0.0126171428571,3.02
-0.651497420506,-0.518546228584,-0.125099135471,-2.63996722339,-0.0671771494176,2.11087794488,-0.899260372398,-0.0461756602821,0.00855902404116,0.00103797288232,0.00692548529792,0.000242761310031,0.000161547782379,-0.0443753402215,0.573762875847,0.818986700553,0.00613950474882,0.0,0.818984692638,-0.573670633741,-0.0121170998462,0.0,-0.00640181329794,0.0119807331306,-0.999907735154,0.0,0.263985952413,-0.26119940439,0.304921051785,1.0,-0.00928,-0.0121965714286,3.036
-0.652218573155,-0.518412660071,-0.125092060759,-2.63986620686,-0.0671648451096,2.11089931977,-0.899951061478,-0.0374518647353,0.00518411930951,0.000907496943576,0.00820276724408,0.000382991152746,0.00146886693075,-0.0387259969951,0.573793955913,0.818964912262,0.0061412982169,0.0,0.818962851068,-0.573701555788,-0.0121293181529,0.0,-0.00641033705413,0.0119894553766,-0.999907575998,0.0,0.263815515551,-0.261425959057,0.304918334895,1.0,-0.00892,-0.0117234285714,3.054
-0.652908003988,-0.518272271519,-0.125077190313,-2.63976286195,-0.0671481806358,2.11093461847,-0.900620566392,-0.0365536635592,0.00735305614044,0.000367158806161,0.0050480734769,-0.000159859945265,0.00107090847858,-0.0327280265798,0.573811668497,0.818952482114,0.00614394309028,0.0,0.818950500326,-0.573719336899,-0.0121221856386,0.0,-0.00640271833383,0.0119876676346,-0.999907646247,0.0,0.263674272855,-0.261619681423,0.304918358738,1.0,-0.0086,-0.0113028571429,3.07
-0.653549691966,-0.51813566177,-0.125034634039,-2.63967010373,-0.0671352533907,2.11096042692,-0.901270941716,-0.0338019163716,0.0118896494746,0.00642193435988,0.00332444536225,-0.000492350332871,0.000179152998265,-0.0425422202556,0.573784801644,0.818971406412,0.00613056137399,0.0,0.818969165106,-0.573692376346,-0.0121371672604,0.0,-0.00642306028191,0.0119850935893,-0.99990754664,0.0,0.263539070804,-0.261803423387,0.304913387096,1.0,-0.00826,-0.010856,3.087
-0.654158642093,-0.51801046017,-0.12499103469,-2.63960576954,-0.0671177221053,2.11098134144,-0.901916808018,-0.0365386555842,0.00427281903757,0.0021678147528,0.00115548697647,0.00383837507223,0.00139724573527,-0.0439067065957,0.573734670455,0.819006569218,0.00612489976901,0.0,0.819004021752,-0.573641848615,-0.0121732810823,0.0,-0.00645662265926,0.012000782006,-0.999907142316,0.0,0.263405946236,-0.261969966657,0.304899309883,1.0,-0.00792,-0.0104091428571,3.104
-0.654728473108,-0.517914367157,-0.124958261612,-2.6395529345,-0.067105880729,2.11099811329,-0.902495933941,-0.0383402241701,0.00850088795176,-2.80138913379e-06,0.00094193211969,7.05420700572e-05,0.00259449390986,-0.0259556213754,0.573711743437,0.819022666472,0.00611997944475,0.0,0.819019907067,-0.573618674578,-0.0121965119693,0.0,-0.00647880999441,0.0120098983696,-0.999906889346,0.0,0.263277454442,-0.262126025316,0.304890117436,1.0,-0.0076,-0.00998857142858,3.12
-0.65534445684,-0.517823027975,-0.124937649476,-2.63949328935,-0.0670901855655,2.111016176,-0.903075731814,-0.0360297824281,0.00345293624587,0.000190738869999,0.00247248781384,0.000219046198501,0.000544829992391,-0.0287996459683,0.573736629872,0.819005210991,0.00612297426294,0.0,0.819002426571,-0.573643423213,-0.0122063580552,0.0,-0.00648479179034,0.0120181969003,-0.999906750862,0.0,0.263136309941,-0.26229844254,0.304885593481,1.0,-0.00724,-0.00951542857143,3.138
-0.655889183313,-0.517764805193,-0.124930556966,-2.63943436337,-0.067080332855,2.11102460023,-0.9035764093,-0.0361290698344,0.00808529626142,0.000923707304688,0.00449289610026,0.000781986202069,0.000534353615481,-0.0280785950863,0.573774870201,0.818978394634,0.00612652834363,0.0,0.818975736299,-0.573681786966,-0.0121941608221,0.0,-0.00647220113584,0.0120144124188,-0.999906877917,0.0,0.263009317728,-0.262454594045,0.304891799409,1.0,-0.00692,-0.00909485714286,3.154
-0.656454343595,-0.517724903523,-0.124939676887,-2.63936508916,-0.0670686998648,2.11104789378,-0.90407814737,-0.036982408861,-0.000450171203194,-0.000227675479326,0.00567041161769,-0.000266514057851,0.00189541377362,-0.0351597020357,0.573841617396,0.81893156095,0.00613543199806,0.0,0.818929378145,-0.573749148901,-0.0121381484439,0.0,-0.00642023757468,0.0119900910925,-0.999907504855,0.0,0.262878574934,-0.262624487544,0.304910344578,1.0,-0.00658,-0.00864800000001,3.171
-0.657006055839,-0.517686267847,-0.124942496554,-2.63927283895,-0.0670536344715,2.11106755944,-0.904620564191,-0.0326812661671,0.000300169227266,0.000643590088189,0.00438720645311,0.000272944565787,7.00410702623e-05,-0.0284499188165,0.573862084118,0.818917174366,0.00614140376888,0.0,0.818915555811,-0.573770496669,-0.0120613641274,0.0,-0.00635362426646,0.0119510807316,-0.999908397368,0.0,0.262757648167,-0.262794508696,0.304939635815,1.0,-0.00622,-0.00817485714286,3.189
-0.657424684572,-0.517632076458,-0.124936085448,-2.63917701482,-0.0670360255476,2.11108186894,-0.905051338673,-0.0250347477129,0.00326308635756,0.00100306960574,0.0108656269136,0.000183273294583,0.00242937113489,-0.0218233031593,0.573859768568,0.818918774892,0.00614435100316,0.0,0.818917563489,-0.573768864468,-0.0120025529551,0.0,-0.00630380003131,0.0119197287055,-0.999909086954,0.0,0.262673493971,-0.26292715764,0.304964580159,1.0,-0.00592,-0.00778057142858,3.204
-0.657869279874,-0.517555962829,-0.124916014926,-2.63907684498,-0.0670181612653,2.11111164888,-0.905511594723,-0.0259200086526,0.0035942712417,0.00124433915236,0.00947229764638,-0.000303786253644,0.00322489453067,-0.0283064721729,0.573845281527,0.818928962434,0.00613956484787,0.0,0.818928047115,-0.5737550794,-0.0119461044532,0.0,-0.00626052494271,0.0118833063146,-0.999909792361,0.0,0.262588408886,-0.263066543463,0.30498505996,1.0,-0.00558,-0.00733371428572,3.221
-0.658336961301,-0.517459815113,-0.124882631313,-2.63899192286,-0.0669961358484,2.11113375981,-0.905984620455,-0.0277683959198,0.00877765009884,0.00489770905919,0.00402885978737,6.83656299005e-05,0.00167380993299,-0.0241659597849,0.573838717473,0.818933569003,0.00613863096682,0.0,0.818932724586,-0.573748678278,-0.0119328821772,0.0,-0.00625032672435,0.0118749042159,-0.999909955979,0.0,0.262489545663,-0.263210826536,0.304991297449,1.0,-0.00518,-0.00680800000001,3.241
-0.658726852652,-0.517367271882,-0.124834809425,-2.63896447928,-0.0669708331633,2.11114823564,-0.906351397512,-0.0243687063964,0.00869153816053,0.00490283603332,0.00106521512544,0.000747689350439,0.000442911791151,-0.0165742947772,0.573828443887,0.818940783214,0.00613656871304,0.0,0.818939620968,-0.573737863692,-0.0119794773073,0.0,-0.00628982180325,0.0118998731871,-0.999909411477,0.0,0.262412017015,-0.263300241779,0.304971614117,1.0,-0.00488,-0.00641371428572,3.256
-0.659083170398,-0.517290160989,-0.124798942904,-2.63895325371,-0.0669518773233,2.11116125239,-0.906707435407,-0.0193861149442,0.00174736889916,0.00162539089231,0.00407858792003,-0.000267864963466,0.000993248133723,-0.0172533311423,0.573812179803,0.818952157153,0.00613950370192,0.0,0.818950713909,-0.573720987824,-0.0120292651136,0.0,-0.00632915234094,0.0119307194793,-0.999908795723,0.0,0.262330689346,-0.263387461243,0.30495025144,1.0,-0.00456,-0.00599314285715,3.272
-0.65940356196,-0.517214545949,-0.124770485871,-2.63895644723,-0.0669266461983,2.11116360431,-0.907036564566,-0.02058572498,0.00685031638319,0.00298224797191,0.000930731898869,-8.50203108296e-05,0.000155345984891,-0.0180611474956,0.573795806606,0.818963515865,0.00615458410191,0.0,0.818961790703,-0.573703652442,-0.0121017124627,0.0,-0.00638007644414,0.01198451182,-0.999907828803,0.0,0.262252810064,-0.263460994566,0.304921808518,1.0,-0.00424000000001,-0.00557257142858,3.288
-0.659723937317,-0.517141998276,-0.124742133947,-2.63895297078,-0.0669046652376,2.11116953535,-0.907356501177,-0.0208812953646,0.00879630683706,0.000361427676638,0.000745107265931,0.000424086517675,-0.000157942302752,-0.0158764429372,0.573785925921,0.818970358076,0.00616528257564,0.0,0.818968378481,-0.573692987288,-0.0121613438768,0.0,-0.00642292443241,0.0120274109956,-0.999907039392,0.0,0.262176742492,-0.263537134627,0.30489782705,1.0,-0.00390000000001,-0.00512571428572,3.305
-0.66001003136,-0.517092976154,-0.12470371127,-2.63894277542,-0.0668776040205,2.11117232291,-0.907651801587,-0.0155187411087,0.00392056910555,0.0010421808822,0.000924832513139,0.00669893598399,-0.000222291590909,-0.0173867227068,0.573763360613,0.818986107482,0.00617322203538,0.0,0.818984011732,-0.573669979515,-0.0121938522252,0.0,-0.0064453275031,0.0120523878252,-0.999906594488,0.0,0.262113927286,-0.263603270772,0.304885542417,1.0,-0.00356000000001,-0.00467885714286,3.322
-0.66028589793,-0.517058798321,-0.124675621042,-2.63892323877,-0.066858648679,2.11118147645,-0.907924257387,-0.0175643233129,0.00249991184849,0.00170249629832,-0.000657168186685,0.000223114465917,0.000305705900096,-0.0202833156032,0.573755356344,0.818991692688,0.00617618619939,0.0,0.818989613265,-0.573661921575,-0.0121967208946,0.0,-0.00644609435488,0.0120563984131,-0.999906541195,0.0,0.262054230209,-0.263673342814,0.304883268442,1.0,-0.00322000000001,-0.00423200000001,3.339
-0.66053982863,-0.517032494491,-0.124652862815,-2.63888778635,-0.0668338634243,2.11118351269,-0.908183944759,-0.0141308461085,0.00293238408516,6.31803227346e-06,0.00514005085459,0.00320488715348,-0.000146378783784,-0.0198641889781,0.573746815546,0.81899761296,0.00618453857507,0.0,0.818995725101,-0.573653499004,-0.0121824565478,0.0,-0.00642974443181,0.0120549884004,-0.999906663465,0.0,0.262002327014,-0.26374147093,0.304890398331,1.0,-0.00288000000001,-0.00378514285715,3.356
-0.66077274767,-0.517012212413,-0.124640782082,-2.63882916248,-0.0668122814233,2.11119125903,-0.908422294007,-0.00837583572002,-0.000627388776004,0.00264851908975,0.00267217911593,0.000102554532513,0.000529537048247,-0.0145894513663,0.573745785073,0.81899828945,0.00619054844016,0.0,0.818996785246,-0.573653015246,-0.0121338681925,0.0,-0.00638651347555,0.0120320266573,-0.999907217086,0.0,0.261959595725,-0.263813634991,0.304910508596,1.0,-0.00252000000001,-0.00331200000001,3.374
-0.660981083313,-0.516996954778,-0.124625594462,-2.63879292038,-0.0667921406638,2.11119485721,-0.908632117746,-0.0153071910524,-0.0010848239157,-0.0012317444716,0.00435792887285,0.00136085337665,-0.000235261624369,-0.0209115026701,0.573744112479,0.818999410696,0.00619722323284,0.0,0.818998158899,-0.573651625272,-0.012106834624,0.0,-0.00636056570339,0.0120219709645,-0.999907503431,0.0,0.261918264938,-0.263872526274,0.304922022682,1.0,-0.00218000000001,-0.00286514285715,3.391
-0.661161580634,-0.516990221578,-0.124601456585,-2.63876816247,-0.0667736924158,2.11120435483,-0.908811566462,-0.00986464882648,-0.00108498103451,-0.000998928618413,0.00112826346415,-0.000197556309297,0.00132119004944,-0.0138067460307,0.573736865777,0.819004478899,0.00619832987588,0.0,0.819003426881,-0.573644726019,-0.0120773328542,0.0,-0.00633587244252,0.0120058956587,-0.999907853349,0.0,0.261884597553,-0.263920361661,0.304932175527,1.0,-0.00184000000001,-0.00241828571429,3.408
-0.661315010711,-0.516985529626,-0.124555704857,-2.63876565648,-0.0667554237219,2.11120677916,-0.908960370602,-0.00489080485387,-0.000803667428613,0.00709512074683,-0.000417014946823,0.00066546928968,-9.4483590637e-05,-0.0082146467467,0.573716098877,0.819019070319,0.00619251523097,0.0,0.819017957876,-0.573624018169,-0.0120754858206,0.0,-0.00633799972723,0.0119999128311,-0.999907911686,0.0,0.261856709401,-0.263949706506,0.304932876077,1.0,-0.00152000000001,-0.00199771428572,3.424
-0.661489342759,-0.516972081019,-0.124520090091,-2.6387602513,-0.0667380415698,2.11120998308,-0.909099680433,-0.0124143956801,0.000881788614307,0.00156585877628,-0.000111229086428,0.00146485374266,0.000266072749952,-0.00448693835978,0.573727221756,0.81901129223,0.00619072839671,0.0,0.819010139518,-0.573635114358,-0.012078652371,0.0,-0.00634145558763,0.0120003520392,-0.999907884503,0.0,0.261821566529,-0.263987516984,0.30493149227,1.0,-0.00116000000001,-0.00152457142858,3.442
-0.661613437241,-0.516972801619,-0.124502103185,-2.63875941639,-0.0667227381879,2.11120948198,-0.909161134377,-0.00720007445111,0.00031110152177,0.00119419418567,-0.00102620104572,0.00143721031361,-7.09386240112e-05,-0.0052976412902,0.573762967656,0.818986210455,0.00619604163935,0.0,0.818985111237,-0.573670799433,-0.0120809085492,0.0,-0.00633973141044,0.0120062749504,-0.999907824336,0.0,0.261794583234,-0.264013738072,0.304929866677,1.0,-0.000860000000005,-0.00113028571429,3.457
-0.661706219587,-0.516952150311,-0.124485249529,-2.63874852551,-0.066708191174,2.11121395024,-0.909222974912,-0.00327080338111,-0.000144556121042,0.00168113930827,0.00106701958716,0.000299590786591,0.000303044705466,-0.000502259127294,0.573791760124,0.818965998757,0.00620127364567,0.0,0.818964983491,-0.5736995926,-0.0120780862522,0.0,-0.00633399575551,0.012009163552,-0.999907825996,0.0,0.261778228661,-0.264036583467,0.304931064199,1.0,-0.000520000000005,-0.000683428571436,3.474
-0.661732268892,-0.516934825516,-0.124479613535,-2.6387562392,-0.0666871640645,2.11121935641,-0.909277299885,0.000598533974181,0.00332599198616,0.000236436703916,-0.00161371257951,0.00311385132332,0.000256108251676,-0.000447361020801,0.573774037221,0.818978304329,0.00621595933467,0.0,0.818977341892,-0.57368154579,-0.0120972884974,0.0,-0.00634155775558,0.0120320715685,-0.999907502672,0.0,0.261772539832,-0.264038973231,0.304921357512,1.0,-0.000160000000005,-0.000210285714293,3.492
-0.661732157028,-0.516929809974,-0.124456226094,-2.63875306164,-0.0666731995633,2.11121871916,-0.90929327774,0.000412479572399,-0.00186757917979,0.00237580396055,-0.000155955159239,0.00440801922993,-0.000174983529992,-0.00241926617337,0.573750382949,0.818994873853,0.00621623435289,0.0,0.818993902151,-0.573657871015,-0.0120988496622,0.0,-0.00634302621113,0.012033009329,-0.999907482073,0.0,0.261779514185,-0.264033123826,0.304921454325,1.0,0.0,0.0,3.508
-0.66173517607,-0.51691813,-0.1244260816,-2.6387505009,-0.0666616763426,2.11121977735,-0.909297033323,-0.00235684657389,0.00218109701822,0.00330449315016,0.000236027803747,0.000529248027296,-0.00120611191515,0.000983083006078,0.573733465442,0.819006763494,0.00621119017741,0.0,0.819005680691,-0.573640893631,-0.0121064879877,0.0,-0.00635242516409,0.0120331290217,-0.999907420965,0.0,0.2617869118,-0.26402684096,0.304919114653,1.0,0.0,0.0,3.524
-0.661722090015,-0.516915196425,-0.124396887323,-2.63874757787,-0.0666548900619,2.11122342564,-0.909302595771,0.00107691237677,-0.0003096892995,0.000232875765314,0.00124278844155,-0.000410547899189,-5.47009416523e-05,0.000158575987372,0.573700501996,0.819029925208,0.00620181621213,0.0,0.819028748618,-0.573608032753,-0.0121029169733,0.0,-0.0063553619469,0.0120231467974,-0.999907522382,0.0,0.261798603865,-0.264017635222,0.304920360478,1.0,0.0,0.0,3.541
-0.661724595668,-0.516908407963,-0.124379499497,-2.63874987974,-0.0666481758555,2.11122488257,-0.909308502272,-0.000286715889073,-0.00175173640578,-0.000964960824362,0.00029558744878,0.000506856945748,0.000515435522539,-0.00346202052693,0.573688161089,0.819038586925,0.00619950441021,0.0,0.819037334645,-0.573595618647,-0.0121102282215,0.0,-0.00636285814711,0.0120253516523,-0.999907448194,0.0,0.261801948501,-0.26401334466,0.304917347365,1.0,0.0,0.0,3.557
-0.661727379728,-0.516907922357,-0.124373096506,-2.63875516935,-0.0666473077722,2.11122267373,-0.90931092625,-1.51890602367e-05,-0.000621108202613,-0.000678435809775,-0.00101139055788,0.000161525709756,-0.000256449795252,-0.000906926364696,0.573684041433,0.819041482055,0.00619824012215,0.0,0.819040163513,-0.573591411475,-0.0121181737887,0.0,-0.00637015236456,0.0120288421095,-0.999907359767,0.0,0.261801149245,-0.264010906755,0.304914727511,1.0,0.0,0.0,3.574
-0.661732251416,-0.516905048597,-0.124371672916,-2.63874737398,-0.0666486109881,2.11122505266,-0.909311749125,-0.000348245941945,-0.000743696224082,0.00134301607672,0.000584331547692,1.0739085402e-05,0.000296599050821,-0.00260168373973,0.573686159358,0.819040022593,0.00619506680017,0.0,0.81903871076,-0.57359363389,-0.0121111658558,0.0,-0.00636620124716,0.0120222392156,-0.999907464342,0.0,0.261802138671,-0.264014312264,0.304917444459,1.0,0.0,0.0,3.591
