imanlab/proactive-slip-control/data_set/data_sample_2022-02-22-15-15-00/robot_state.csv
position_joint1,position_joint2,position_joint3,position_joint4,position_joint5,position_joint6,position_joint7,velocity_joint1,velocity_joint2,velocity_joint3,velocity_joint4,velocity_joint5,velocity_joint6,velocity_joint7,ee_T_00,ee_T_10,ee_T_20,ee_T_30,ee_T_01,ee_T_11,ee_T_21,ee_T_31,ee_T_02,ee_T_12,ee_T_22,ee_T_32,ee_T_03,ee_T_13,ee_T_23,ee_T_33,v_x,v_y,time
0.465060035158,0.547766411221,-0.12397178165,-1.35583520397,0.0796039898439,1.89410477111,0.159165197871,0.000574812135224,0.00173386335412,0.000167700344433,0.000605141227002,-3.09090814018e-05,0.000562980265754,0.00047625889795,0.573837833613,0.81895470333,0.0020202747376,0.0,0.818911438962,-0.573777950082,-0.0119860768164,0.0,-0.00865703156044,0.00853265472638,-0.999926122075,0.0,0.661671688782,0.260908209097,0.30322380361,1.0,0.0,0.0,0.0
0.465060928418,0.547750954896,-0.123975346463,-1.35583985539,0.0796007463241,1.89410264345,0.159164479958,6.21587188587e-05,-0.00162658742486,-0.000811828435085,-0.00670533694626,-0.00030557556959,-0.00050495893163,-0.00186621300413,0.573838356541,0.818954323606,0.00202566309839,0.0,0.818911170974,-0.573778491171,-0.0119784817174,0.0,-0.00864771397174,0.00853271468366,-0.999926202189,0.0,0.661671376189,0.260905719722,0.303232466273,1.0,-0.00014,-0.000184,0.008
0.465057795048,0.547763075994,-0.123972562523,-1.3558436991,0.0796028124672,1.89410430599,0.15916367053,-0.000857437455176,0.00195317601864,0.00376476330996,-0.00154229647725,-0.000269565909875,0.000259526978135,-0.000281003146307,0.573839105738,0.818953824915,0.00201501483653,0.0,0.818910496597,-0.573779248803,-0.0119882904639,0.0,-0.00866184939782,0.0085296309014,-0.999926106151,0.0,0.661670565783,0.260905086809,0.303222106323,1.0,-0.00036,-0.000473142857143,0.019
0.465062680417,0.547759751924,-0.123972890642,-1.35585213695,0.0796023169969,1.89410355149,0.15916367053,0.00193627421743,0.00240969710705,-0.000206827711025,-0.00437775032979,0.000211264040488,0.000134393128878,-0.000323525189741,0.573835652378,0.81895625692,0.0020100277702,0.0,0.818912859033,-0.573775812473,-0.0119913815719,0.0,-0.00866727852242,0.00852728403188,-0.999926079123,0.0,0.661667396517,0.260907038733,0.303220389562,1.0,-0.0007,-0.00092,0.036
0.465058929518,0.547725849958,-0.123972676806,-1.35587199831,0.0796008863776,1.89410686957,0.159159410193,-0.000430860130992,-0.00127698290533,-0.000186014871378,-0.00128972355797,0.000108744044384,0.000111229555228,-0.0013771747533,0.573835753864,0.818956147646,0.00202551784605,0.0,0.818912949866,-0.573775846754,-0.0119835355694,0.0,-0.00865196348499,0.00853546829596,-0.999926141927,0.0,0.661665414322,0.260902765629,0.303235231335,1.0,-0.00096,-0.00126171428571,0.049
0.465063766299,0.547578957284,-0.123967915957,-1.35605235661,0.0796025478333,1.89413098367,0.159163567112,0.00116683168829,-0.0119363797868,0.00125920044946,-0.0081709965696,0.000343979781017,0.00375584975853,0.00106341477888,0.573842065238,0.818951719392,0.0020278975355,0.0,0.818908357769,-0.573781955054,-0.0120048545116,0.0,-0.00866799211646,0.00854971735489,-0.999925881376,0.0,0.661630308233,0.26089114673,0.303255386709,1.0,-0.00138,-0.00181371428571,0.07
0.465053109396,0.547480670054,-0.123970498748,-1.35620495402,0.0795994497223,1.89416689613,0.1591603966,-0.000837133471493,-0.00789756905525,0.000608098703778,-0.0114260891999,0.000471891115068,0.000410923381812,0.00108308648835,0.573857587454,0.818940873172,0.00201555725239,0.0,0.818897278922,-0.573797457161,-0.0120196352495,0.0,-0.00868701621225,0.00854825781631,-0.999925728761,0.0,0.661608624779,0.260867710976,0.303255579732,1.0,-0.00164,-0.00215542857143,0.083
0.46502717191,0.547268735757,-0.123977847157,-1.35647854597,0.0795958762641,1.89431326703,0.159142057193,-0.00109340602741,-0.00881716865023,0.0036291453828,-0.0112550539108,-0.000403122312419,0.0116440753118,-0.00249941397368,0.573883579431,0.8189224678,0.00209186356681,0.0,0.818879860098,-0.573823115464,-0.0119813933475,0.0,-0.00861163833953,0.0085890752121,-0.999926031,0.0,0.661589344095,0.260825980624,0.303288431992,1.0,-0.00208,-0.00273371428571,0.105
0.46501999087,0.547135113873,-0.123967742359,-1.35664217864,0.0795909899862,1.89439382565,0.159139611216,-0.00358201274736,-0.0129063800256,0.00193655935546,-0.0168943275878,8.36591933299e-05,0.00271366845508,0.000582450401051,0.573888352843,0.818918998694,0.00213984818313,0.0,0.818876954474,-0.573827626911,-0.0119639009519,0.0,-0.00856972677693,0.00861838170466,-0.999926138912,0.0,0.661571245064,0.260814096441,0.303311847959,1.0,-0.00232,-0.00304914285714,0.117
0.464991104867,0.54688415182,-0.123975401241,-1.35698922178,0.0795869908557,1.89454085545,0.159117435084,-9.56275080097e-05,-0.0121922596557,-0.000703943784991,-0.0217461296305,4.88373214641e-05,0.00686345756063,-0.00257687498657,0.573917654262,0.818898330444,0.00219030220889,0.0,0.818856862601,-0.573856635468,-0.0119476944424,0.0,-0.00852719175017,0.00865070331601,-0.999926223445,0.0,0.661537113702,0.260761996842,0.303337432246,1.0,-0.00272,-0.00357485714286,0.137
0.464967618658,0.546692394086,-0.123973273431,-1.35727978006,0.0795811739972,1.89464705092,0.159094945776,0.00104951220001,-0.0148124381446,-0.00080430942196,-0.022942964084,-0.00154457765271,0.0112228970679,0.000564435695598,0.573931692769,0.818888456134,0.00220348507692,0.0,0.81884704332,-0.573870499773,-0.0119547495904,0.0,-0.0085252554908,0.00866569375074,-0.999926110155,0.0,0.661502656237,0.260721987337,0.303344085307,1.0,-0.00298,-0.00391657142857,0.15
0.46492174917,0.546346613131,-0.123973868938,-1.35780485839,0.0795706235246,1.89484236198,0.158941337399,3.11985859073e-05,-0.0132872130788,0.000451885112422,-0.026981866286,0.000453524810734,0.00957930329205,-0.00391583483207,0.573870471729,0.818931289725,0.00222963883335,0.0,0.818890024285,-0.573808982544,-0.0119635521223,0.0,-0.00851810437873,0.00869152563718,-0.999925946898,0.0,0.661442924114,0.260645063637,0.30335599773,1.0,-0.0034,-0.00446857142857,0.171
0.464886606745,0.546122750474,-0.123970452682,-1.35817186278,0.0795552259001,1.89496807664,0.158937482733,-0.00123706835787,-0.0163668375422,0.000645188783099,-0.0272563144165,-0.00578613543767,0.00814513390384,0.000402239339646,0.573910108665,0.818903542027,0.0022187672493,0.0,0.818862042131,-0.573848564501,-0.0119803120978,0.0,-0.00853764798666,0.00869265385918,-0.999925770413,0.0,0.661398891188,0.260589207912,0.303350609763,1.0,-0.00366,-0.00481028571429,0.184
0.46482212929,0.545738642678,-0.123973933757,-1.3588305217,0.0795346447318,1.89519340607,0.158862198679,-0.00397453303993,-0.0186963673663,0.00241408472751,-0.0343531223383,0.00087476392117,0.00738585016448,-0.00301108275194,0.573935020843,0.818886170909,0.00218582818088,0.0,0.818844048234,-0.573873414047,-0.0120198262657,0.0,-0.00858864618305,0.00868861891752,-0.999925368744,0.0,0.661321458026,0.260483359749,0.303328719236,1.0,-0.00406,-0.005336,0.204
0.464758420336,0.545433247304,-0.123971178909,-1.35934881041,0.0794831736527,1.89537060875,0.158776606929,-0.0105912322887,-0.0207730567685,-0.000394132240607,-0.0426226035484,0.000131643133105,0.0123306355482,0.000265378842941,0.573930420643,0.81888950353,0.00214480067495,0.0,0.818846981492,-0.5738691235,-0.012024844979,0.0,-0.00861635034288,0.00865785458606,-0.999925397248,0.0,0.661264626432,0.260388997709,0.303313442366,1.0,-0.00434,-0.005704,0.218
0.464681263684,0.544950840145,-0.123974370811,-1.36016821174,0.0794316727382,1.89563847199,0.158698209551,-0.00751450380965,-0.0254118731723,0.00207650877679,-0.0452361726714,-0.00234832877814,0.015430112943,-0.00810469408565,0.573963550926,0.818866440782,0.00208357169641,0.0,0.818823089368,-0.573902479099,-0.0120598384178,0.0,-0.00867979711264,0.00862815041389,-0.999925105267,0.0,0.661166134678,0.260255031748,0.303288193772,1.0,-0.00474,-0.00622971428571,0.238
0.464624265311,0.544615759026,-0.123977156333,-1.36071939052,0.0794094586076,1.89582936184,0.158617031557,-0.0055504210769,-0.0254527953388,0.000535709384569,-0.0458944538937,-0.000603456692628,0.017580991182,-0.00604443357547,0.573970504771,0.818861607539,0.00206742677551,0.0,0.818817930909,-0.573909387891,-0.0120812835865,0.0,-0.0087065512916,0.00862731265555,-0.999924879899,0.0,0.661103011388,0.260164063317,0.303279646826,1.0,-0.005,-0.00657142857143,0.251
0.464540973881,0.54405941577,-0.12398604702,-1.36162907937,0.0793729212684,1.89616094121,0.15850966531,-0.00804659729466,-0.0325838482067,-0.00039006334352,-0.0480513625922,-0.00223276362925,0.0168710415593,-0.00330337479233,0.57399805583,0.818842324603,0.0020557829111,0.0,0.818798354704,-0.573936846155,-0.012103630084,0.0,-0.0087312431372,0.00863089797345,-0.999924633657,0.0,0.661000271372,0.260019759138,0.303269406682,1.0,-0.0054,-0.00709714285714,0.271
0.464479693811,0.54363967624,-0.123990695346,-1.36231185701,0.0793376599414,1.89639729932,0.158433940825,-0.00397100804081,-0.029462620055,-0.00128867167619,-0.0482399853522,-0.00189732323954,0.0133873572644,-0.0101508876171,0.574018070808,0.81882834605,0.00203494288748,0.0,0.818784040307,-0.573956886859,-0.0121216445697,0.0,-0.00875774530352,0.00862438783633,-0.999924458063,0.0,0.660920274183,0.259911354194,0.303262042664,1.0,-0.00568,-0.00746514285714,0.285
0.464379992771,0.542996909339,-0.123990986321,-1.36332614032,0.0792797525896,1.89675639011,0.158289657523,-0.00911840757202,-0.0371203492183,0.00121042706369,-0.0528975921584,-0.00132928742167,0.0141153019457,-0.00752056098726,0.574022726566,0.818825103564,0.00202634141844,0.0,0.818780621605,-0.573961517019,-0.0121333246004,0.0,-0.00877219766993,0.00862409919621,-0.999924333868,0.0,0.660804430499,0.259748332688,0.303265097283,1.0,-0.00608,-0.00799085714286,0.305
0.464331444922,0.54251844971,-0.123995345314,-1.36407400001,0.079237128196,1.89702495387,0.158197063673,-0.00465130813426,-0.0354992717345,9.09669452765e-05,-0.0548161096674,-0.00075926426354,0.0124695615526,-0.00420725763184,0.574019905301,0.818827082389,0.00202592332515,0.0,0.818782575085,-0.573958678412,-0.0121357782569,0.0,-0.00877447656419,0.00862513506344,-0.999924304938,0.0,0.660714239844,0.259642562808,0.303270959482,1.0,-0.00636,-0.00835885714286,0.319
0.46423728491,0.541805801055,-0.124000968632,-1.36517759616,0.0791799365243,1.89743616017,0.158053132864,-0.00318637437988,-0.045158781493,-0.00151760978801,-0.0598018020177,-0.00153642643613,0.0181551683294,-0.00261012288156,0.574029195778,0.81882051796,0.00204662262491,0.0,0.818776220632,-0.573967817032,-0.0121322891434,0.0,-0.00875964041038,0.00864018046808,-0.999924305126,0.0,0.660589463027,0.259474098839,0.303285458774,1.0,-0.00676,-0.00888457142857,0.339
0.464169219109,0.541273885919,-0.124002011151,-1.36599333532,0.0791319995616,1.89774109871,0.157933965473,-0.00678753210561,-0.0342060306221,-0.00284566624141,-0.0632034021927,-0.00583790036792,0.020456437278,-0.00341233948526,0.574020590284,0.81882650444,0.00206505635569,0.0,0.818782440613,-0.573959124565,-0.0121237442427,0.0,-0.00874215349444,0.0086502772542,-0.999924370868,0.0,0.6604966335,0.259351620663,0.30329971594,1.0,-0.00704,-0.00925257142857,0.353
0.464076034751,0.540443773211,-0.124003001988,-1.36724180601,0.0790587528653,1.89819754653,0.157790323203,-0.00460083992595,-0.043786197198,0.000316934918416,-0.0601772954024,0.000236006010784,0.0196458359621,-0.00275396521546,0.574029556092,0.818820133212,0.00209882856467,0.0,0.818776486424,-0.573967918123,-0.0121095477032,0.0,-0.00871104891639,0.00866987669232,-0.99992447258,0.0,0.660349718798,0.259171325549,0.303331827515,1.0,-0.00744,-0.00977828571429,0.373
0.463998020604,0.539881254943,-0.124003093949,-1.36808949961,0.0790045659538,1.89851464891,0.157669910677,-0.0089983996073,-0.0405400877424,-0.000433568375767,-0.0712802051847,-0.00514088187412,0.0281047548644,-0.0128846536543,0.574027367336,0.818821601269,0.00212455767158,0.0,0.818778321081,-0.57396564891,-0.0120930434441,0.0,-0.0086827892451,0.00868144679943,-0.999924617985,0.0,0.660255150336,0.259039268255,0.30335335007,1.0,-0.0077,-0.01012,0.386
0.463883813902,0.539011621122,-0.124013671482,-1.36945920455,0.0789291574423,1.89903748394,0.157498445341,-0.00545086546401,-0.0440898814726,-0.00154845772873,-0.0725762540464,-0.00704311918344,0.0203216071126,-0.00874326142937,0.574043663669,0.818810126138,0.00214393002306,0.0,0.818767097391,-0.573981858414,-0.0120835980739,0.0,-0.00866376232839,0.0086920596197,-0.999924690825,0.0,0.660101769394,0.258829826692,0.30336150865,1.0,-0.0081,-0.0106457142857,0.406
0.46379696541,0.538419649275,-0.123998459762,-1.37037261082,0.0788743706026,1.89939537978,0.157387885405,-0.00815699753667,-0.0478454578847,0.00170745666974,-0.0675195954187,-0.00258880144293,0.0265187306164,-0.0116717377958,0.574047836843,0.818807129647,0.00217079628477,0.0,0.818764435223,-0.573985899776,-0.0120720078232,0.0,-0.00863880593982,0.00870744841669,-0.999924772857,0.0,0.659990481648,0.258683005731,0.303373822927,1.0,-0.00838,-0.0110137142857,0.42
0.463665724956,0.537447120283,-0.124014824695,-1.3719199538,0.0787809031649,1.89997371562,0.157200136892,-0.00441741946399,-0.0447813875927,-0.000930671603138,-0.0725558191272,-0.00982923268085,0.0230156897281,-0.0111923343015,0.574075162678,0.818787959253,0.00217538019088,0.0,0.818745360227,-0.574013238473,-0.012065822221,0.0,-0.00863081909479,0.0087079389472,-0.999924837556,0.0,0.659824793198,0.258453184606,0.303376388615,1.0,-0.00878,-0.0115394285714,0.44
0.463584404849,0.536798865556,-0.124017282959,-1.37291313718,0.0787305816134,1.90034917016,0.157077361323,-0.00597092520993,-0.0457018889357,-0.000681135148166,-0.0731097908549,-0.00666745835413,0.0286477052332,-0.00928648512855,0.574084237663,0.818781515294,0.00220571568245,0.0,0.818739244473,-0.574022115287,-0.0120585082458,0.0,-0.00860731978946,0.008728673559,-0.999924859329,0.0,0.659710859898,0.258306044566,0.30339397115,1.0,-0.00904,-0.0118811428571,0.453
0.463436361298,0.535796047994,-0.124012686378,-1.37449880125,0.0786383854663,1.90092634075,0.156894140948,-0.00505389633255,-0.0508674743105,0.00190155108967,-0.0840195318581,-0.0137999799532,0.0285341518406,-0.00369758028358,0.574114690752,0.818760169062,0.00220325247445,0.0,0.818717779755,-0.574052487358,-0.0120700361388,0.0,-0.00861784818667,0.00873359518811,-0.999924725671,0.0,0.659526715162,0.258060238406,0.30339693464,1.0,-0.00944,-0.0124068571429,0.473
0.4633427247,0.535106716416,-0.124023703286,-1.37557720906,0.0785784115605,1.90132221621,0.156758801735,-0.0101857560346,-0.0518473976255,-0.00023942596983,-0.0805515593195,-0.00482303639097,0.027338795174,-0.00552597485515,0.574131442174,0.818748407393,0.00220893615542,0.0,0.818706084921,-0.57406920508,-0.0120681892974,0.0,-0.00861289436945,0.00873736461873,-0.999924735423,0.0,0.659403350013,0.257890280774,0.303404738924,1.0,-0.0097,-0.0127485714286,0.486
0.463184206784,0.533994149143,-0.124024481638,-1.37739932671,0.0784850194685,1.90197852864,0.15653842849,-0.00352633651992,-0.0552160196622,0.000879490835154,-0.0878120852442,-0.00630488255111,0.0322264589919,-0.0104724106824,0.574156228393,0.818731127042,0.00217115423316,0.0,0.818688102496,-0.574093938516,-0.0121114611382,0.0,-0.00866975066257,0.00873153709598,-0.999924294976,0.0,0.659186113435,0.257613037099,0.30337926477,1.0,-0.01012,-0.0133005714286,0.507
0.463083417389,0.533292923843,-0.124030101751,-1.37853295317,0.0784178339346,1.90240750811,0.156381169924,-0.00701101835832,-0.0580219053316,-0.000459961201027,-0.0873020481738,-0.00164629259383,0.0349114276549,-0.0173387542523,0.574158093186,0.818729832128,0.00216631334601,0.0,0.818686754827,-0.574095834482,-0.0121126876172,0.0,-0.00867351422332,0.0087282977156,-0.999924290619,0.0,0.65905726588,0.257436205674,0.303371596228,1.0,-0.01038,-0.0136422857143,0.52
0.462932103436,0.532187197776,-0.124028052543,-1.38035326701,0.0783116370554,1.90308723412,0.156163026734,-0.00615317152912,-0.0525124848367,0.000370298573934,-0.0935024581157,-0.00330181892491,0.0279302179266,-0.0111519662995,0.57417305015,0.818719421033,0.00213658748896,0.0,0.818675882457,-0.574110845176,-0.012136055202,0.0,-0.00870955372545,0.0087175363197,-0.999924071235,0.0,0.658842210112,0.257165048175,0.303343634894,1.0,-0.01078,-0.014168,0.54
0.462802827039,0.531183971583,-0.124028208795,-1.38195672572,0.0782249577517,1.90366754264,0.155953988954,-0.00531373691509,-0.0561686037164,-0.000234440257529,-0.0975137499124,-0.0087083616494,0.0329087281907,-0.00999651363706,0.574171990998,0.81872019462,0.00212475322651,0.0,0.818676361401,-0.574109697986,-0.0121579958678,0.0,-0.00873432347268,0.00872043382968,-0.999923829913,0.0,0.658648425882,0.256927973143,0.303337834828,1.0,-0.01112,-0.0146148571429,0.557
0.462669391454,0.530141212997,-0.124033301299,-1.38360901822,0.0781183924573,1.90425030841,0.155741967276,-0.00699844544806,-0.0622298112894,-0.00128506379364,-0.0965785044763,-0.00256857936643,0.0340274751978,-0.0138577050698,0.574172316822,0.818720036556,0.00209743624372,0.0,0.818675860371,-0.574110158167,-0.0121699974328,0.0,-0.0087598299433,0.00870496364062,-0.999923741586,0.0,0.658447602909,0.256677010514,0.303336749427,1.0,-0.01146,-0.0150617142857,0.574
0.462563633351,0.529350167479,-0.124030740611,-1.38486037626,0.0780444835209,1.90471740955,0.155573512019,-0.010591078845,-0.0667615937868,0.000893072980625,-0.101970687784,-0.00171475836891,0.0435438581727,-0.0111241486986,0.574167332477,0.818723514898,0.00210413184403,0.0,0.818679384444,-0.57410510332,-0.0121713897944,0.0,-0.00875717880678,0.00871119149108,-0.999923710571,0.0,0.658299742657,0.256490444976,0.303338731942,1.0,-0.01172,-0.0154034285714,0.587
0.462393037975,0.528072238634,-0.124033984171,-1.38686460054,0.0779241634275,1.90548111601,0.155299482011,-0.00866345582179,-0.0615086643018,-0.00103720170939,-0.0967462831562,-0.00210891199303,0.0373894708269,-0.0137094311695,0.574161390831,0.818727603571,0.00213432211131,0.0,0.81868388309,-0.574099044893,-0.0121545515767,0.0,-0.00872612260415,0.00872617735799,-0.999923851407,0.0,0.658067851994,0.256187481753,0.303350910247,1.0,-0.01212,-0.0159291428571,0.607
0.462265242433,0.527124017115,-0.124031478517,-1.38831148803,0.0778300120212,1.90602950625,0.155095479077,-0.0117005226297,-0.0672609329314,0.00115311990383,-0.104987169577,-0.0119778154747,0.0316107948745,-0.0197260523324,0.574150169172,0.818735369891,0.00217352955763,0.0,0.818692217562,-0.574087709884,-0.0121285268768,0.0,-0.0086824244962,0.00874321582561,-0.999924082959,0.0,0.65790058522,0.255967531412,0.30337708738,1.0,-0.0124,-0.0162971428571,0.621
0.462097638797,0.525749807338,-0.124040715014,-1.3904341389,0.0776996135668,1.90681742218,0.154804093343,-0.0102628253774,-0.0697186201728,8.93373663628e-06,-0.106377951911,-0.00870717791537,0.0425454909399,-0.0182963538487,0.574134783661,0.818746077745,0.00220392121755,0.0,0.818703363873,-0.574072237211,-0.0121084824852,0.0,-0.00864872907303,0.00875642727498,-0.999924259365,0.0,0.657648203031,0.255650359837,0.303402255151,1.0,-0.0128,-0.0168228571429,0.641
0.461975972557,0.524795909198,-0.124049563271,-1.39195310434,0.0775942887389,1.90736333509,0.154590686127,-0.0050711157694,-0.0672277077406,-0.00342458060552,-0.107072034597,-0.00881280784162,0.0428226259375,-0.015521981556,0.574119201114,0.818757073392,0.00217820643253,0.0,0.818714131607,-0.574056876233,-0.0121086934596,0.0,-0.00866383084472,0.00873532998559,-0.999924313158,0.0,0.657464365378,0.255417458749,0.303397786614,1.0,-0.01308,-0.0171908571429,0.655
0.461784924687,0.52338152296,-0.124050205414,-1.39419550407,0.0774583153606,1.9081844948,0.154294467419,-0.00479528906195,-0.0759735511613,-0.00466211890421,-0.114927447627,-0.00268612222176,0.0449848002345,-0.00560951801396,0.574117336329,0.818758398627,0.00217156751265,0.0,0.818715321434,-0.574054991243,-0.0121176061868,0.0,-0.00867495968709,0.00873499155644,-0.999924219627,0.0,0.657194475075,0.255077632304,0.303396114158,1.0,-0.01348,-0.0177165714286,0.675
0.461668347634,0.522460561878,-0.124050944245,-1.39568551392,0.0773727532706,1.90876078707,0.154094421697,-0.00977651879912,-0.072843521889,-0.000220702185372,-0.115153863507,-0.00170465694425,0.0475335083069,-0.0127139340794,0.574106568517,0.818765931941,0.00217797607977,0.0,0.818722906283,-0.574044164744,-0.0121180259197,0.0,-0.00867173928373,0.00874036546292,-0.999924200602,0.0,0.657017453334,0.254861064944,0.303384202983,1.0,-0.01374,-0.0180582857143,0.688
0.461467228936,0.520994228274,-0.124047873224,-1.39803868988,0.0772263637885,1.90966400443,0.153784113286,-0.00851874342298,-0.0747839663417,0.00136413091688,-0.121659747413,-0.00648813010139,0.0388639103779,-0.0221264859001,0.574101577227,0.818769405838,0.00218769054968,0.0,0.818726529797,-0.574039155174,-0.0121105175259,0.0,-0.00866006793728,0.0087439558529,-0.999924270362,0.0,0.656740016097,0.254508270759,0.303372565279,1.0,-0.01414,-0.018584,0.708
0.461327603692,0.519917099696,-0.124058854773,-1.39971577348,0.0771186885403,1.91028036947,0.15355057603,-0.00957711662434,-0.0780470183388,0.000171706234427,-0.121568649847,-0.0111552026814,0.0498434955429,-0.0152601108533,0.574092763068,0.818775563947,0.00219594586313,0.0,0.818732869843,-0.574030381634,-0.0120977560592,0.0,-0.00864497384054,0.00874329559702,-0.999924406748,0.0,0.656539315808,0.254249694804,0.30338451557,1.0,-0.01442,-0.018952,0.722
0.461126227981,0.518331288045,-0.124064199849,-1.40216731519,0.0769627254528,1.91115224907,0.153220624991,-0.00771097407052,-0.0769221588289,-0.000181080904347,-0.124184047029,-0.00785118484451,0.0446964383945,-0.0194204979868,0.574079208527,0.818785062993,0.00219769375871,0.0,0.818742390802,-0.574016820441,-0.0120968696775,0.0,-0.00864338942928,0.0087440747629,-0.999924413631,0.0,0.656236327047,0.253878234537,0.303406542924,1.0,-0.01482,-0.0194777142857,0.742
0.460985971183,0.51729274712,-0.12407021041,-1.40380904572,0.076856117285,1.91173732041,0.15299143867,-0.00898443015152,-0.0842686962597,-0.00145283073967,-0.123403515042,-0.00695190867698,0.0504688726561,-0.0153146041576,0.574068752572,0.818792447566,0.0021776203278,0.0,0.818749536135,-0.574006475047,-0.0121041556682,0.0,-0.00866098982786,0.00873171129117,-0.999924369377,0.0,0.656034498327,0.253623983967,0.303404739888,1.0,-0.01508,-0.0198194285714,0.755
0.460774424515,0.515694559706,-0.124071637445,-1.40634756786,0.0767002040874,1.91269918356,0.152648542293,-0.00868119021668,-0.0794860986456,0.000323126706723,-0.125825277769,-0.00918894405606,0.0519541226358,-0.014262518586,0.57405660038,0.818800929682,0.00219180594917,0.0,0.818758241846,-0.573994302323,-0.0120925271015,0.0,-0.00864345471956,0.00873652238841,-0.999924479082,0.0,0.655715384813,0.253220088156,0.303399979683,1.0,-0.0155,-0.0203714285714,0.776
0.460628638853,0.514630497755,-0.124076965887,-1.40805334201,0.0765958208337,1.91332638763,0.152405268515,-0.010176522729,-0.0913342094965,-0.000988155796379,-0.139013088472,-0.00557369842274,0.0435547508041,-0.015995872578,0.574036518991,0.818815026927,0.00218482152351,0.0,0.818772210601,-0.573974215778,-0.0121001516598,0.0,-0.00865392140136,0.00873496826182,-0.999924402129,0.0,0.655505156875,0.252963462531,0.303396776821,1.0,-0.01576,-0.0207131428571,0.789
0.460389717065,0.512888999997,-0.124073022845,-1.41085270015,0.0764294270035,1.91429112964,0.15202727196,-0.0107403355102,-0.0869525693124,0.00139798229586,-0.136012920249,-0.00986661003005,0.0468394906481,-0.0178930216067,0.574025449222,0.818822999994,0.00210362256998,0.0,0.818778876686,-0.573963254412,-0.0121688363835,0.0,-0.00875688965488,0.00870779114831,-0.999923742721,0.0,0.655162338494,0.252557708756,0.303361005507,1.0,-0.01616,-0.0212388571429,0.809
0.460243615925,0.511810551148,-0.124081225803,-1.41260137947,0.0763228273998,1.91493161991,0.151775077102,-0.0117193861533,-0.0848118489856,-0.00057615756988,-0.135922105865,-0.00712625591281,0.0523587884724,-0.0249308956953,0.574007300119,0.81883579447,0.00207557372233,0.0,0.818791287086,-0.573945214795,-0.0121846422627,0.0,-0.00878612478174,0.00869370266839,-0.999923608855,0.0,0.654946631772,0.252290104096,0.303339902233,1.0,-0.01642,-0.0215805714286,0.822
0.46000820195,0.51009643996,-0.124081603729,-1.4153298638,0.0761576409575,1.91597788608,0.151396219099,-0.00958640756149,-0.0851574855167,-0.00039230973214,-0.132061342685,-0.00820896556855,0.0529073425686,-0.0131329333472,0.57398970482,0.818848080606,0.0020944089295,0.0,0.818803808124,-0.573927526863,-0.0121763956245,0.0,-0.00876874807422,0.00870420332038,-0.999923670038,0.0,0.654600948735,0.25185426162,0.303327180448,1.0,-0.01684,-0.0221325714286,0.843
0.459838688551,0.508853489154,-0.124084670615,-1.4172908663,0.0760261179009,1.91668363046,0.151119981149,-0.0116096253477,-0.08981036602,-0.000590245782979,-0.137024485654,-0.00593542930653,0.0508970415391,-0.0214345472181,0.573969488677,0.818862279319,0.00208338134776,0.0,0.818817914253,-0.57390741339,-0.0121758390236,0.0,-0.00877483623789,0.00869463746708,-0.999923699853,0.0,0.654373847222,0.251576324041,0.303329741095,1.0,-0.0171,-0.0224742857143,0.856
0.459581443226,0.50705701591,-0.124085913,-1.42009771176,0.0758511895147,1.91768654371,0.150732673115,-0.0191759792176,-0.0910447368441,0.00131634051628,-0.138093129447,-0.00575648095616,0.0517281879441,-0.0186646673043,0.573961985219,0.818867556787,0.00207626265898,0.0,0.818823025611,-0.573899870237,-0.0121876401244,0.0,-0.00878866543014,0.00869550120868,-0.999923570889,0.0,0.654024149697,0.251137732909,0.303337244258,1.0,-0.0175,-0.023,0.876
0.459422451754,0.505871195345,-0.124097589012,-1.42197231519,0.0757352540177,1.91839364263,0.150469003082,-0.0115379691719,-0.0896185581788,-0.00118537315665,-0.144729800689,-0.0113218514774,0.0577769106115,-0.018046571958,0.573950372473,0.818875668116,0.0020873447211,0.0,0.818831331993,-0.573888259409,-0.0121763032398,0.0,-0.00877314473208,0.00869794450049,-0.999923685935,0.0,0.653796108839,0.25084935145,0.303335674788,1.0,-0.01776,-0.0233417142857,0.889
0.459142273599,0.503831529145,-0.124106632902,-1.42503382537,0.0755375656144,1.91956299132,0.150041947,-0.0103075869296,-0.096122228083,-0.00247167764947,-0.143114137156,-0.00458908878837,0.0531446932237,-0.0291586316146,0.573940934189,0.818881974103,0.00220532369361,0.0,0.818839349145,-0.573878478293,-0.0120979066403,0.0,-0.00864133623923,0.008749458111,-0.999924384287,0.0,0.65343134793,0.25037192715,0.303405147522,1.0,-0.01818,-0.0238937142857,0.91
0.45896456222,0.50255310448,-0.12411276814,-1.42693040692,0.0754199953153,1.92028216808,0.149777741603,-0.00916730780524,-0.096279526292,-0.000990829830998,-0.145644739543,-0.00768011772883,0.0475884282042,-0.029295436343,0.573940127277,0.818882307596,0.00228987112712,0.0,0.818840845396,-0.573877374364,-0.0120489006109,0.0,-0.00855269097195,0.00879055680517,-0.999924785966,0.0,0.653204799977,0.250073845945,0.303457629181,1.0,-0.01844,-0.0242354285714,0.923
0.458674887888,0.500416227147,-0.124114592824,-1.43012257542,0.0752161893608,1.9214018579,0.149340377522,-0.0153929878,-0.100807512207,0.00041669388926,-0.154680865709,-0.0171167619938,0.0470441945835,-0.0253793101385,0.573928057059,0.818890611866,0.0023447854129,0.0,0.81884982112,-0.573865031375,-0.0120267667414,0.0,-0.00850317973365,0.00882269584874,-0.999924925168,0.0,0.652799542057,0.249576270029,0.303526601132,1.0,-0.01886,-0.0247874285714,0.944
0.458501576886,0.49923839202,-0.124116118151,-1.43195596994,0.0751023494365,1.92208045178,0.149080255852,-0.0147177639321,-0.0970051815103,0.000206571509961,-0.153329673697,-0.0136566551172,0.0542242457911,-0.0191355036081,0.573920765583,0.818895668808,0.00236333271928,0.0,0.818855106835,-0.573857650875,-0.012019045074,0.0,-0.00848629077921,0.00883337668668,-0.999924974348,0.0,0.65257345118,0.249287974489,0.303534440518,1.0,-0.0191,-0.0251028571429,0.956
0.458188502751,0.497138126515,-0.124117071928,-1.43522987744,0.0749019739654,1.92328558523,0.148591989427,-0.0178220932254,-0.105127722232,0.00191875010569,-0.159451777172,-0.00520070411036,0.0572939783549,-0.0176057615235,0.57389013674,0.818917054126,0.00239088147943,0.0,0.818876778255,-0.573826836817,-0.0120137539603,0.0,-0.00846647905158,0.00885258266575,-0.999924972442,0.0,0.652167189188,0.248771990231,0.303544934282,1.0,-0.01952,-0.0256548571429,0.977
0.457974770632,0.495782647679,-0.124117064188,-1.43745080946,0.0747677440984,1.92404867738,0.148277776412,-0.0163882447779,-0.101416243401,-0.000257101385242,-0.158207366964,-0.0118602877502,0.0525769938533,-0.0213870420288,0.573883743711,0.818921777621,0.00230602337078,0.0,0.818880207465,-0.573820602508,-0.0120776181432,0.0,-0.00856754575107,0.00881967541752,-0.999924402385,0.0,0.651877886852,0.248417354211,0.303498608562,1.0,-0.0198,-0.0260228571429,0.991
0.457623847173,0.493700367628,-0.124150895139,-1.44081196932,0.0745617932894,1.92523269938,0.147795426026,-0.0223235711722,-0.122366757963,-0.00562282218317,-0.18546915467,-0.0122816686581,0.0748689338809,-0.0209122537091,0.573913994179,0.818900818031,0.00221910223947,0.0,0.818858066947,-0.573851172477,-0.0121262089895,0.0,-0.00865689471122,0.00877669978426,-0.99992401097,0.0,0.651459617133,0.247844985215,0.30345273771,1.0,-0.0291228571429,-0.038275755102,1.011
0.457368880418,0.491472545226,-0.124222581742,-1.44406477148,0.0743930751163,1.92646682322,0.147316681368,-0.0196960917358,-0.184284142371,0.000228024712063,-0.271888739028,-0.0165861665019,0.0988491005434,-0.0431850436064,0.573900577132,0.81890970856,0.00240076947958,0.0,0.818869420023,-0.573837087199,-0.0120256894984,0.0,-0.00847046639986,0.00886763758437,-0.999924805274,0.0,0.651062406213,0.247336964459,0.303563794468,1.0,-0.0410085714286,-0.0538969795918,1.024
0.456759429912,0.486799551791,-0.124275444075,-1.45147502176,0.0740060072309,1.92932928634,0.146191269403,-0.0354286642671,-0.266728385846,-0.00258927852762,-0.417610048076,-0.0284237678259,0.160949019799,-0.0637605541605,0.573788682093,0.818987687707,0.0025421620672,0.0,0.818948896281,-0.57372426681,-0.011996576837,0.0,-0.0083667097411,0.0089655734471,-0.999924805503,0.0,0.650079425538,0.246149147415,0.303538517479,1.0,-0.0602085714286,-0.0791312653061,1.045
0.456162074552,0.482752782921,-0.124378066836,-1.45787230906,0.0736285067235,1.93167629275,0.145206730257,-0.0516823346564,-0.326777024442,-0.00721381948882,-0.517684783578,-0.0294021852849,0.181779938706,-0.0782294887503,0.573754389085,0.819011804222,0.00251245938286,0.0,0.818972714416,-0.573690192485,-0.012000124564,0.0,-0.00838703183944,0.00894293199797,-0.999924838007,0.0,0.649330666204,0.245169220765,0.303505776869,1.0,-0.07118,-0.0935508571429,1.057
0.454889781883,0.474559855792,-0.124599685103,-1.47088428554,0.0728341735032,1.93617520579,0.143293717418,-0.0639371851177,-0.427345253023,-0.0122592837537,-0.667152726923,-0.0429903500592,0.236288337553,-0.102198804047,0.573807592206,0.818975396565,0.0022122046612,0.0,0.818932330297,-0.573744586314,-0.0121546275389,0.0,-0.00868526767888,0.00878623264274,-0.999923681208,0.0,0.647638990393,0.242959016692,0.3033846906,1.0,-0.09038,-0.118785142857,1.078
0.453927749333,0.468495701101,-0.124711570842,-1.48021898367,0.072301116411,1.93954761288,0.141886169295,-0.0737485086969,-0.495118844024,-0.00667259525766,-0.743550164164,-0.0416384717979,0.287436967267,-0.116838409015,0.573827765099,0.818960992823,0.00230979158589,0.0,0.818918920269,-0.573764047759,-0.0121394573603,0.0,-0.00861663257924,0.00885766025557,-0.999923644834,0.0,0.646440599815,0.2413890997,0.303427624869,1.0,-0.102265714286,-0.134406367347,1.091
0.452264323831,0.458370500712,-0.124847454528,-1.49582855739,0.0713311166771,1.94520305427,0.139414218195,-0.0946903461143,-0.5639528006,-0.00830858944907,-0.881821337993,-0.0505240481569,0.311778909678,-0.133342886838,0.573735267761,0.819025403898,0.00244483097021,0.0,0.818985033293,-0.573670928124,-0.0120800814732,0.0,-0.00849152864417,0.00893322074432,-0.999924042869,0.0,0.644410916337,0.238752017124,0.303469267847,1.0,-0.119637142857,-0.157237387755,1.11
0.45067770114,0.449253839556,-0.12502627448,-1.50976626393,0.0704073655207,1.95010738551,0.13721492623,-0.10575392538,-0.629184733483,-0.00876649775645,-0.963751568214,-0.0591327218877,0.35519657355,-0.153392004338,0.573751134669,0.81901419808,0.00247501713054,0.0,0.818974602158,-0.573687070856,-0.0120205097429,0.0,-0.00842524503172,0.00892392908739,-0.999924686532,0.0,0.642574481894,0.236286601255,0.303526618291,1.0,-0.133351428571,-0.175261877551,1.125
0.448245157448,0.43575299096,-0.125187936065,-1.53050893567,0.0690286331556,1.95723983403,0.133960349622,-0.136146406021,-0.72357354587,-0.011402942716,-1.05788564968,-0.0669470803074,0.370021997477,-0.175606482007,0.573742998076,0.819020249485,0.00235584263209,0.0,0.818978778267,-0.573679095148,-0.0121162469395,0.0,-0.00857211896155,0.00888116795511,-0.999923818914,0.0,0.639735904405,0.232632901049,0.303512308112,1.0,-0.151637142857,-0.199294530612,1.145
0.446435229699,0.4260058577,-0.125321413683,-1.54512273723,0.0680397640244,1.96237702994,0.131560168147,-0.145268333156,-0.757393324185,-0.0115104570253,-1.14868928402,-0.0812668129412,0.400142452997,-0.193997108648,0.573700402837,0.819049452146,0.00256702647665,0.0,0.819011040605,-0.573635959958,-0.0119769658945,0.0,-0.0083373491769,0.00897378595754,-0.999924977073,0.0,0.637587741194,0.229793191651,0.303659508695,1.0,-0.164437142857,-0.216117387755,1.159
0.443137509455,0.409059542179,-0.125532960419,-1.57040171987,0.0662210772578,1.97125419921,0.12731691239,-0.16046068877,-0.830547165949,-0.00786681300997,-1.2477708833,-0.0797505654341,0.430370935472,-0.208159880666,0.573650483164,0.819083195034,0.00293081546282,0.0,0.81905047754,-0.573585776825,-0.0116798444312,0.0,-0.00788584205716,0.00910080942445,-0.999927491753,0.0,0.634252335838,0.22536076519,0.303875700934,1.0,-0.182722857143,-0.240150040816,1.179
0.440985535017,0.398721682965,-0.125654345325,-1.58588322426,0.0652025641608,1.97649424418,0.124687064705,-0.18568964778,-0.911196109714,-0.0192353683279,-1.30341984048,-0.0891717654361,0.466883614164,-0.222233838761,0.573706711209,0.819043159943,0.0031078232831,0.0,0.819012207855,-0.573640778762,-0.0116622136846,0.0,-0.00776923176159,0.00923621329286,-0.999927163048,0.0,0.63186218453,0.222198829364,0.303981925937,1.0,-0.194608571429,-0.255771265306,1.192
0.436806238363,0.379417507017,-0.125891088383,-1.61460950791,0.0630731491204,1.98622130314,0.11962384889,-0.207366699748,-0.9499960327,-0.0165740102257,-1.39673633926,-0.107145152178,0.484726536788,-0.257588897667,0.573650692557,0.819082044499,0.00319909497129,0.0,0.81905273131,-0.573585019205,-0.0115583726678,0.0,-0.00763244951361,0.00925087406767,-0.999928080936,0.0,0.627872649714,0.216935687071,0.304063899923,1.0,-0.212894285714,-0.279803918367,1.212
0.433931473359,0.366820963498,-0.126015373226,-1.63343409858,0.0616721013811,1.9924090577,0.116260585087,-0.230637392211,-0.976155596799,-0.00495094128101,-1.44607363012,-0.114381196495,0.475793853486,-0.257204143483,0.573636692342,0.819092116446,0.00312999605446,0.0,0.819061679553,-0.573570967509,-0.011621412085,0.0,-0.00772388086418,0.00923030592614,-0.999927568935,0.0,0.62504486984,0.213263659898,0.304043576845,1.0,-0.22478,-0.295425142857,1.225
0.428701470893,0.345286845423,-0.126313914752,-1.66513852693,0.0592613675002,2.00275776377,0.110333550913,-0.262024331763,-1.06196677877,-0.0179271127017,-1.51674853258,-0.109763153698,0.492143952485,-0.297823977817,0.573701842671,0.819046179141,0.00320921343939,0.0,0.819016804113,-0.573635896607,-0.0115792748756,0.0,-0.00764318797045,0.00927162957539,-0.999927806675,0.0,0.620229693145,0.206825584724,0.304122005327,1.0,-0.24398,-0.320659428571,1.246
0.425161982227,0.331298723086,-0.126490125494,-1.68574284671,0.0576255357618,2.00941638095,0.106398953339,-0.278861993919,-1.08069580838,-0.0116497483309,-1.57109702458,-0.133082065078,0.508744999631,-0.304798771439,0.573710103243,0.819040504164,0.00318070381809,0.0,0.819010901532,-0.573644418176,-0.0115746087732,0.0,-0.00765562780853,0.0092456791038,-0.999927951795,0.0,0.617014044237,0.202587438629,0.304098631746,1.0,-0.255865714286,-0.336280653061,1.259
0.418997561962,0.307680011291,-0.126689120533,-1.71998113478,0.0548700568231,2.0203105797,0.099575364231,-0.307823538955,-1.15702873915,-0.00903115425276,-1.61458167595,-0.129111944495,0.541153163651,-0.335660727223,0.573555920034,0.819147838144,0.00334256784867,0.0,0.819120162448,-0.573489545087,-0.0115172934083,0.0,-0.00751758301849,0.0093439564364,-0.999928085626,0.0,0.611509847757,0.19548588744,0.304170130575,1.0,-0.275065714286,-0.361514938775,1.28
0.415113434796,0.293573850525,-0.126861447899,-1.7403414327,0.0530745720584,2.02644047725,0.0953543401478,-0.333534657348,-1.17582540497,-0.0121595100848,-1.68233065577,-0.14123561477,0.503645884111,-0.353352449185,0.573445585708,0.819225883929,0.00313978233085,0.0,0.81919591767,-0.573380266233,-0.0115700332216,0.0,-0.00767832929591,0.00920705860964,-0.999928134083,0.0,0.608121990441,0.191101281555,0.30415253321,1.0,-0.286037142857,-0.375934530612,1.292
0.407666187231,0.267907768375,-0.127163267785,-1.77680606363,0.0500479585245,2.03760492193,0.0875215882861,-0.368009685614,-1.25489679195,-0.019337393287,-1.76828742403,-0.144650396067,0.556071407891,-0.385572407783,0.573401560332,0.819255649954,0.0034025767491,0.0,0.819228574339,-0.573334803729,-0.0115105482772,0.0,-0.00747941003933,0.00938783518655,-0.999927960893,0.0,0.601988600208,0.183091821436,0.304257082164,1.0,-0.305237142857,-0.401168816326,1.313
0.402558002527,0.251535445537,-0.127448892792,-1.79981180829,0.0479678387334,2.04445868649,0.0824219788497,-0.404047597015,-1.26258968097,-0.0249742346162,-1.78956917413,-0.16178348212,0.556047221443,-0.393141395685,0.573531346196,0.819164448513,0.00348541587767,0.0,0.819139064717,-0.573465117554,-0.0113885251095,0.0,-0.00733045159862,0.00938689716629,-0.999929072805,0.0,0.598050463338,0.177772082045,0.304327929286,1.0,-0.317122857143,-0.416790040816,1.326
0.393709973882,0.224135964436,-0.127786214489,-1.83801892664,0.0445395624786,2.05549528493,0.0734856782238,-0.427447937845,-1.33202057866,-0.0125127675414,-1.84473659843,-0.161542970209,0.513290124199,-0.44105592258,0.573458905633,0.819214631571,0.00360802885978,0.0,0.819190379799,-0.573391759564,-0.0113911636391,0.0,-0.00726313374514,0.00948820944377,-0.999928607836,0.0,0.591252850389,0.168918841929,0.304378856033,1.0,-0.336322857143,-0.442024326531,1.347
0.387756704103,0.206674407086,-0.128024792537,-1.86206480954,0.042227033686,2.06223527112,0.0675776801975,-0.469810276499,-1.34824486214,-0.0172083412104,-1.86560917267,-0.184214911904,0.511008835583,-0.456146030038,0.573388384323,0.819263825124,0.00364588372374,0.0,0.819240370663,-0.573321549417,-0.0113297374698,0.0,-0.00719191881837,0.00948337758024,-0.999929168418,0.0,0.586864613488,0.163164911736,0.304418450208,1.0,-0.348208571429,-0.45764555102,1.36
0.377182655443,0.177547895465,-0.128579889814,-1.9017078387,0.0383759614879,2.07283856172,0.0573303064623,-0.526254780279,-1.40855942897,-0.037711754648,-1.87451860309,-0.180048604537,0.505317051944,-0.504380162542,0.57347459314,0.819203610013,0.00361707963337,0.0,0.819179533269,-0.573407495843,-0.0113790547118,0.0,-0.00724784166702,0.0094888190662,-0.999928713011,0.0,0.579426859867,0.15328510626,0.304456492481,1.0,-0.367408571429,-0.482879836735,1.381
0.370087403299,0.158991409724,-0.128936158427,-1.92663660999,0.0358633538074,2.07927108116,0.0505793054707,-0.550440586672,-1.44566642023,-0.0275657613351,-1.88487813973,-0.187233415556,0.487697574405,-0.518469833051,0.573536258287,0.819160498866,0.00360339133348,0.0,0.819136084706,-0.573468980838,-0.0114083149361,0.0,-0.007278947941,0.00949493293726,-0.999928429021,0.0,0.574612859292,0.146908235937,0.304478163202,1.0,-0.379294285714,-0.498501061224,1.394
0.358393127051,0.129732301208,-0.129437129271,-1.96541324598,0.0318034674863,2.0889914756,0.0395319037632,-0.601126268884,-1.47259632557,-0.0192858760763,-1.92721504771,-0.205844126847,0.456174624063,-0.573688688954,0.573500212821,0.819185462013,0.00366491769514,0.0,0.819161800539,-0.573432713672,-0.0113848289739,0.0,-0.0072248417842,0.00953154592923,-0.999928473089,0.0,0.566907967369,0.136814530895,0.30451749959,1.0,-0.39758,-0.522533714286,1.414
0.350099561827,0.110202929765,-0.129903596293,-1.99090852687,0.028995433251,2.09515310669,0.0318458124659,-0.646487503724,-1.53597725443,-0.0400165692889,-1.99041248642,-0.228441111278,0.466653132212,-0.613043657717,0.573599559439,0.81911564888,0.00372103128043,0.0,0.819093209147,-0.57353255746,-0.0112901357013,0.0,-0.00711393120949,0.009524071685,-0.999929339524,0.0,0.561731760732,0.129877224025,0.304555339089,1.0,-0.409465714286,-0.538154938775,1.427
0.336495926308,0.0795328464991,-0.130475290963,-2.03024485281,0.0245907103932,2.10395370404,0.0192238932776,-0.70115039234,-1.53683439718,-0.0306361708487,-1.92845425006,-0.206336706875,0.416692028934,-0.649236775789,0.573508693407,0.819179099844,0.0037587054709,0.0,0.819156671452,-0.573440968121,-0.0113380155755,0.0,-0.00713260701387,0.00958160363663,-0.99992865685,0.0,0.553418119181,0.119021045982,0.304632439196,1.0,-0.41998,-0.551973714286,1.447
0.327098690852,0.0598981316449,-0.130841135538,-2.0554423053,0.0216324337814,2.10933170504,0.0106941067452,-0.737225672202,-1.48241656606,-0.0396585057097,-1.89101989316,-0.223126415768,0.384563035525,-0.654715906353,0.573505987938,0.819181952411,0.00354366256368,0.0,0.819156276679,-0.573438253768,-0.0115026255645,0.0,-0.00739081389141,0.00949982097073,-0.999927562012,0.0,0.547941229367,0.111833382739,0.304505087248,1.0,-0.41998,-0.551973714286,1.46
0.31106858973,0.0278968666364,-0.131447867087,-2.09507127473,0.0168530994031,2.11720326814,-0.00345716098445,-0.769651540236,-1.53911569166,-0.0254671201475,-1.87175065993,-0.229539983274,0.362323867615,-0.676647113133,0.573757636506,0.819005143564,0.00367372664989,0.0,0.818980915694,-0.573689180579,-0.0114774002268,0.0,-0.00729261299441,0.00959414276006,-0.999927382474,0.0,0.539080415998,0.100103556034,0.304629113541,1.0,-0.41998,-0.551973714286,1.481
0.30076671137,0.00856672870546,-0.131806590343,-2.11866358055,0.0138176534994,2.1216492639,-0.0126079157444,-0.795515674987,-1.46924980257,-0.0349267408385,-1.82165280453,-0.244167161006,0.333217602605,-0.700212872485,0.57377106913,0.818995495819,0.00372625274475,0.0,0.818972530944,-0.573703237633,-0.0113725805911,0.0,-0.00717646718531,0.00957714075549,-0.999928385783,0.0,0.533663759247,0.0928733908585,0.30468315799,1.0,-0.41998,-0.551973714286,1.494
0.28349781165,-0.0223902326898,-0.132344484838,-2.15572416722,0.00907054806789,2.12806121866,-0.0278846891729,-0.84046517613,-1.44555137019,-0.0249187520314,-1.76394304424,-0.237811912589,0.290043088203,-0.733594659934,0.573807687462,0.818968838223,0.00394039719316,0.0,0.818948470837,-0.573739058404,-0.0112978704641,0.0,-0.00699197869031,0.00970997412718,-0.999928411756,0.0,0.524867473971,0.0812584935397,0.304797733879,1.0,-0.41998,-0.551973714286,1.515
0.272356692614,-0.0412398115155,-0.132719775306,-2.17789727898,0.00608336380411,2.13155570069,-0.0376029975462,-0.869709786794,-1.45298311359,-0.0337480180667,-1.73177306235,-0.229990932,0.258135596694,-0.754697942971,0.573925492547,0.818885845823,0.00403080844266,0.0,0.818866865432,-0.573856931503,-0.0112261197892,0.0,-0.00687993569461,0.00974383940313,-0.999928859509,0.0,0.519447079076,0.07403030397,0.304864788041,1.0,-0.41998,-0.551973714286,1.528
0.252850091761,-0.0726644302984,-0.133297691641,-2.21435661723,0.0011169704609,2.13664427159,-0.054778478566,-0.895180069361,-1.431266425,-0.0248963715935,-1.61037102955,-0.21826645564,0.209693569327,-0.786272968396,0.573932705325,0.818880790969,0.00403073717434,0.0,0.818861016061,-0.573863023328,-0.0113407995352,0.0,-0.00697380613985,0.00980965816213,-0.999927565694,0.0,0.510617249518,0.0624303278449,0.30486976334,1.0,-0.41998,-0.551973714286,1.549
0.242680360939,-0.0881655053198,-0.133693966794,-2.23218624015,-0.00140174276374,2.1388961458,-0.0636937534551,-0.930088204742,-1.37784852367,-0.0395279207586,-1.58011520402,-0.221286109163,0.194743948454,-0.810197318374,0.574033298873,0.818810281278,0.00403013148725,0.0,0.818790064423,-0.573962994392,-0.0114043137574,0.0,-0.00702495827147,0.00984647704281,-0.99992684575,0.0,0.505555316859,0.055729533529,0.304843325741,1.0,-0.41998,-0.551973714286,1.561
0.221874402692,-0.118637526027,-0.134188231342,-2.26639528722,-0.00642731773469,2.14259826465,-0.0820024146346,-0.965607849088,-1.37901010387,-0.0353024629826,-1.49241954666,-0.215216342333,0.164464970302,-0.847590204494,0.573886617823,0.81891333579,0.00398060931609,0.0,0.818892185481,-0.573816063166,-0.0114656492268,0.0,-0.007105372289,0.00983986196615,-0.999926342688,0.0,0.496324439222,0.0437121400936,0.304839307378,1.0,-0.41998,-0.551973714286,1.583
0.209033227504,-0.136348354191,-0.134550369728,-2.28614873761,-0.00937972821477,2.14436038635,-0.0933080501858,-0.996126511738,-1.33926132419,-0.0133045518852,-1.50510694269,-0.232577389183,0.122975869767,-0.884930216203,0.573856551613,0.818935272127,0.00379804394718,0.0,0.818910633778,-0.573785030676,-0.0116986904175,0.0,-0.00740135195682,0.00982381785622,-0.999924353435,0.0,0.490801533906,0.0365367770874,0.304725721876,1.0,-0.41998,-0.551973714286,1.596
0.187631962061,-0.164536543806,-0.135219597553,-2.31680640006,-0.0140962276592,2.14663356566,-0.112235903402,-1.03306473863,-1.32265905314,-0.0310073375705,-1.4272676985,-0.212308826559,0.0961419880754,-0.915123436536,0.573817727779,0.818962885574,0.00370867090059,0.0,0.818935914597,-0.573744978269,-0.0118917868611,0.0,-0.00761124731719,0.00986107176795,-0.999922411079,0.0,0.481964983686,0.0249682938072,0.304645410213,1.0,-0.41998,-0.551973714286,1.617
0.175055729543,-0.180565935829,-0.135529295901,-2.33386634494,-0.0167323464608,2.14754432762,-0.123430985804,-1.05380190128,-1.32699434699,-0.030206484719,-1.41427945513,-0.222212956582,0.0642968202864,-0.929910120832,0.573694612754,0.819049195912,0.00369497961178,0.0,0.81902103087,-0.573620621418,-0.0120283239651,0.0,-0.00773242144384,0.00992704179626,-0.999920828616,0.0,0.476865777736,0.0184374283421,0.30462310641,1.0,-0.41998,-0.551973714286,1.629
0.15206926245,-0.208059394746,-0.136298212119,-2.36263850375,-0.0213958448607,2.14866686614,-0.143810571511,-1.10547661015,-1.2988443124,-0.0365807201216,-1.35821679457,-0.214294315362,0.0382910924088,-1.0028129704,0.573734263942,0.819021497736,0.00367797855665,0.0,0.818991949672,-0.573658848949,-0.0121843463559,0.0,-0.00786948816814,0.0100030044059,-0.999919002249,0.0,0.467996376468,0.00679574584587,0.304572684122,1.0,-0.41998,-0.551973714286,1.65
0.13848497638,-0.223582391789,-0.136815687102,-2.37835642807,-0.0240392409425,2.14900293607,-0.155797550077,-1.14092534083,-1.29748445144,-0.0491323698735,-1.31947545248,-0.217860446843,0.0106016326876,-1.00418162719,0.573887688818,0.818913320494,0.00382636158824,0.0,0.818885971976,-0.573812009337,-0.0120950296532,0.0,-0.00770931709163,0.0100747364121,-0.99991952982,0.0,0.46298364704,0.000107756428065,0.304647904446,1.0,-0.41998,-0.551973714286,1.662
0.11400472055,-0.250198553216,-0.137635526932,-2.40490528893,-0.0285602543373,2.14911673217,-0.17760147639,-1.18719217066,-1.26361839029,-0.0577125995304,-1.23240662644,-0.199893616705,-0.00294510181279,-1.06215438264,0.573988730041,0.818841333341,0.00406884488763,0.0,0.818817330325,-0.573912377916,-0.0119795214878,0.0,-0.00747431080669,0.0102079475683,-0.999919963039,0.0,0.454199289997,-0.0115106733691,0.304738314859,1.0,-0.41998,-0.551973714286,1.683
0.0983936322636,-0.266252934873,-0.138100670311,-2.4207336977,-0.0313581925779,2.1489101247,-0.191607467075,-1.20403809004,-1.22733582744,-0.0378551886418,-1.18896144901,-0.206204918133,-0.0301299865913,-1.08524786814,0.573948829544,0.818869012227,0.00412659434913,0.0,0.818845895093,-0.573872459992,-0.0119392903508,0.0,-0.0074087186865,0.0102317835595,-0.999920207563,0.0,0.448754242331,-0.018664864288,0.304742767671,1.0,-0.41998,-0.551973714286,1.696
0.0736392485003,-0.290530695502,-0.138889344048,-2.44405040869,-0.0355704602125,2.14814856089,-0.213939176174,-1.25696223272,-1.19300542578,-0.0355632707373,-1.15145455541,-0.203935168021,-0.0684668605551,-1.13012186973,0.573917766464,0.818889615811,0.0043521667477,0.0,0.81887020264,-0.573841723766,-0.0117479442467,0.0,-0.00712295182103,0.0103064120196,-0.999921517635,0.0,0.440402802317,-0.0296879178751,0.304831383204,1.0,-0.41998,-0.551973714286,1.716
0.0557177356806,-0.307018719725,-0.139488099888,-2.45955311338,-0.0384749416845,2.1473829848,-0.230154948379,-1.28795325795,-1.16308579217,-0.0377899104931,-1.1178934188,-0.214563828885,-0.0706320250081,-1.14991737364,0.573946016115,0.818868775516,0.00454378390926,0.0,0.818852886408,-0.573870919327,-0.0115267199717,0.0,-0.00683145714644,0.0103366045876,-0.999923239953,0.0,0.434605207002,-0.0374472040665,0.304911049898,1.0,-0.41998,-0.551973714286,1.73
0.0294163958737,-0.329959445152,-0.140331738973,-2.48082163968,-0.0424790830513,2.14572396453,-0.254033210016,-1.31388299276,-1.12631694624,-0.0401157644746,-1.04721073852,-0.205169358518,-0.089933508648,-1.22328586705,0.57400756187,0.818824752749,0.00470001086915,0.0,0.818810862244,-0.573931976042,-0.0114719505609,0.0,-0.00669615947787,0.010433607203,-0.999923147691,0.0,0.426241463184,-0.0484693741743,0.304961306132,1.0,-0.41998,-0.551973714286,1.75
0.0118425424376,-0.344401869897,-0.140848069352,-2.4941696618,-0.0450897852759,2.14440637807,-0.270128427565,-1.36856901226,-1.09897992118,-0.0488030431063,-1.01947934826,-0.206613494341,-0.102330551622,-1.25895075363,0.57392677619,0.818881769618,0.00463139944565,0.0,0.818866354855,-0.573850420675,-0.0115902752006,0.0,-0.0068334661118,0.0104446675552,-0.999922103296,0.0,0.420743618266,-0.0556086077706,0.304901900918,1.0,-0.41998,-0.551973714286,1.763
-0.0174669663387,-0.367063887658,-0.141840909201,-2.51441364588,-0.0490991869345,2.14193021364,-0.297034958486,-1.41560489155,-1.05400999714,-0.0568565491624,-0.953961684738,-0.193554541544,-0.12296958878,-1.29041411281,0.574024902808,0.818812031369,0.00479741004297,0.0,0.818798447142,-0.573947538499,-0.0115789857008,0.0,-0.00672768064621,0.0105749416354,-0.999921451376,0.0,0.411928326836,-0.0672376646155,0.304952161721,1.0,-0.41998,-0.551973714286,1.784
-0.0360203913551,-0.38053572219,-0.142340487444,-2.52632182882,-0.0515839432275,2.14018985121,-0.314247554752,-1.43636396026,-1.02735676655,-0.0379997767683,-0.876126291357,-0.185703599371,-0.137487421005,-1.33923661546,0.573875043768,0.818917376376,0.00474465065025,0.0,0.818902863186,-0.573797480993,-0.0116317828828,0.0,-0.00680313151098,0.0105608012414,-0.999921090326,0.0,0.406456580804,-0.0743548189558,0.30494028865,1.0,-0.41998,-0.551973714286,1.797
-0.0654530547282,-0.400464199898,-0.143254293186,-2.54357741868,-0.0551284662037,2.13746815429,-0.341533680782,-1.50037140965,-0.972830970518,-0.0398470061857,-0.824303258286,-0.193862309327,-0.141092325973,-1.38965240168,0.573957640579,0.818858373212,0.00493339053207,0.0,0.818846142,-0.573879229342,-0.0115919266118,0.0,-0.00666110405808,0.0106931685287,-0.999920639771,0.0,0.398071057464,-0.0853994948009,0.304963548098,1.0,-0.41998,-0.551973714286,1.817
-0.0864751190943,-0.413795962306,-0.143892747105,-2.5548121786,-0.0575948566539,2.13538141167,-0.36120191101,-1.5018737949,-0.957778680094,-0.0477245979364,-0.772554340458,-0.168752484801,-0.130761844764,-1.42634047023,0.573913036456,0.818889079867,0.00502477471127,0.0,0.818878534807,-0.573835180355,-0.011483811221,0.0,-0.00652070064513,0.0107055952371,-0.99992143226,0.0,0.392229825409,-0.0931013746031,0.305025141417,1.0,-0.41998,-0.551973714286,1.831
-0.117412932299,-0.431822095663,-0.144772469351,-2.5699472593,-0.0608560813039,2.13227672977,-0.390229335526,-1.5729579104,-0.894144279591,-0.041554366572,-0.759952437561,-0.150196096223,-0.1660514943,-1.46092135833,0.573936615142,0.818871788616,0.005148058696,0.0,0.818862084983,-0.573857145578,-0.0115589423136,0.0,-0.00651116685845,0.0108498591969,-0.999919939426,0.0,0.383817888582,-0.104123900558,0.305020046326,1.0,-0.41998,-0.551973714286,1.851
-0.13785734812,-0.442844404931,-0.145377337946,-2.5790008115,-0.0629738586348,2.13018296527,-0.409546238005,-1.56952516349,-0.830842271329,-0.0501747227574,-0.673788373095,-0.148458733908,-0.144260345392,-1.49453564877,0.573905608864,0.818893373362,0.00517127440107,0.0,0.818883897406,-0.573825952817,-0.0115622378096,0.0,-0.00650095362653,0.0108705157572,-0.999919781527,0.0,0.378381332186,-0.111274184697,0.30503917782,1.0,-0.41998,-0.551973714286,1.864
-0.171779744602,-0.459479910671,-0.146279007304,-2.59252194069,-0.0660847994173,2.12683450967,-0.441700820461,-1.61758929981,-0.766816312581,-0.0389325759542,-0.603578874899,-0.135940951359,-0.172242052272,-1.53222827734,0.573925991938,0.818878329997,0.00528992820297,0.0,0.818869789354,-0.573844951851,-0.0116183570442,0.0,-0.00647854695082,0.0110000512696,-0.99991851033,0.0,0.369583920899,-0.122843042559,0.305045274347,1.0,-0.411751428572,-0.541159020408,1.885
-0.191154165755,-0.46797815595,-0.146554805312,-2.59953825294,-0.0676515708532,2.12504512752,-0.460162832448,-1.60766131249,-0.692082204377,-0.0343215263209,-0.574309572366,-0.105451352798,-0.144284258295,-1.5383808265,0.573802990727,0.818964691964,0.00526384375419,0.0,0.818954745131,-0.573720261064,-0.0117870425979,0.0,-0.00663332560956,0.0110745033331,-0.999916673712,0.0,0.364670825688,-0.12923389493,0.304963826423,1.0,-0.40078,-0.526739428572,1.897
-0.225007658797,-0.481556679481,-0.146841644414,-2.61001208677,-0.0699357808762,2.12208944762,-0.492064934146,-1.60219009816,-0.617396489548,-0.0224533356804,-0.478260954603,-0.0946243832059,-0.135732862034,-1.51400212007,0.574018569647,0.818811832646,0.00553274977528,0.0,0.818807000108,-0.573937757025,-0.0114583827918,0.0,-0.00620692491926,0.0111077926059,-0.999919042236,0.0,0.356444306182,-0.140203799071,0.305117788951,1.0,-0.38158,-0.501505142857,1.918
-0.245500127584,-0.488901720829,-0.146808251942,-2.61576107787,-0.0710983998712,2.12037865461,-0.511547833463,-1.56597123464,-0.548038168969,0.00529578008212,-0.434113253914,-0.0804341505697,-0.124636922609,-1.48872512925,0.573983211419,0.818836029381,0.00561933254578,0.0,0.818832289534,-0.573902102346,-0.011437020621,0.0,-0.00614021600961,0.0111661637425,-0.999918803971,0.0,0.351524451567,-0.14664834294,0.305135319561,1.0,-0.369694285714,-0.485883918367,1.931
-0.278060527293,-0.499353862433,-0.146551567505,-2.62361124776,-0.0725120730258,2.11792590891,-0.542455400568,-1.5353841778,-0.47019527235,0.013935306932,-0.342325899989,-0.0619519827382,-0.105435068758,-1.4609438607,0.574075687825,0.818768950585,0.0059377696135,0.0,0.818770791867,-0.573996497975,-0.0110976393416,0.0,-0.00567825287769,0.0112327735323,-0.999920787984,0.0,0.343939760188,-0.156706812484,0.305286687134,1.0,-0.350494285714,-0.460649632653,1.952
-0.297461548033,-0.504820415739,-0.146258566525,-2.62756847684,-0.07323698941,2.11667364854,-0.561015787117,-1.47975159619,-0.410880965004,0.0282803310047,-0.291173794855,-0.047641543449,-0.0919900465406,-1.43037805978,0.574003211281,0.818818633808,0.00609140941176,0.0,0.818824343615,-0.573927587576,-0.0107035239241,0.0,-0.00526831835928,0.0111318657406,-0.999924160318,0.0,0.339551272603,-0.162621593745,0.305427242685,1.0,-0.338608571429,-0.445028408163,1.965
-0.326704561172,-0.512207224139,-0.145715863622,-2.63248528584,-0.0741818303242,2.11503863705,-0.588892404693,-1.44578032398,-0.344747745953,0.0347367720646,-0.235029452512,-0.0509358525957,-0.082787265281,-1.38056234612,0.574026347984,0.818800551539,0.00633683846693,0.0,0.818813953101,-0.573961033546,-0.00965344910535,0.0,-0.00426723325328,0.0107302324809,-0.999933324193,0.0,0.333108443596,-0.17148571731,0.305807916096,1.0,-0.320322857143,-0.420995755102,1.985
-0.345078704074,-0.516172641881,-0.14528355159,-2.63524751255,-0.0746084559231,2.11396182829,-0.606458848788,-1.39910638003,-0.289252648103,0.02977831732,-0.211046515642,-0.0251069428567,-0.0812858442121,-1.34506797781,0.574027226953,0.818799344391,0.00641274068468,0.0,0.818814683676,-0.573964510606,-0.00938089878055,0.0,-0.00400046522394,0.0106359423234,-0.99993543442,0.0,0.329035416824,-0.176940615462,0.30593665852,1.0,-0.308437142857,-0.405374530612,1.998
-0.373559090545,-0.521402131411,-0.144445841268,-2.63904803005,-0.075061826502,2.11253269547,-0.633754302045,-1.32111690651,-0.225122097712,0.0389961039116,-0.163485734676,-0.0119020162994,-0.0655047264101,-1.2750034902,0.573975564935,0.818835069383,0.00647509895618,0.0,0.818851993262,-0.573915135221,-0.00914207829009,0.0,-0.00376976959772,0.0105496803521,-0.999937244572,0.0,0.322747207866,-0.185253515202,0.306034221843,1.0,-0.289237142857,-0.380140244898,2.019
-0.390519068467,-0.523948522307,-0.143886108917,-2.64090059848,-0.0752762733842,2.11178853609,-0.64997726477,-1.28213756064,-0.192323059359,0.0547240770323,-0.131396592588,-0.00907488497901,-0.0600718279872,-1.22756805825,0.573977131279,0.81883417071,0.0064498486687,0.0,0.818851205981,-0.573917855714,-0.00904125313359,0.0,-0.00370167496292,0.0104711404994,-0.999938324508,0.0,0.319038590518,-0.190166985534,0.306077890253,1.0,-0.277351428572,-0.364519020408,2.032
-0.417818682006,-0.527038328907,-0.142894066392,-2.64347034946,-0.0754516348619,2.11078032421,-0.676225023642,-1.19645179683,-0.0916966807861,0.0567829572926,-0.0976853120569,-0.0172186689858,-0.0523165925309,-1.17202586912,0.573906755904,0.818884237192,0.0063551953442,0.0,0.818899346958,-0.573845300491,-0.0092831868431,0.0,-0.00395503254139,0.0105321517393,-0.999936713746,0.0,0.313063971103,-0.197974722223,0.305981239365,1.0,-0.257237142857,-0.338083102041,2.054
-0.430828606061,-0.528105467204,-0.142322127041,-2.64444122173,-0.0754677859833,2.1103034247,-0.688718334574,-1.16932012453,-0.111439263146,0.0525793858163,-0.0934726509202,-0.00815310504173,-0.049361147851,-1.13024710786,0.573860843061,0.818917115149,0.00626404179476,0.0,0.818930201627,-0.573797027968,-0.00954161726232,0.0,-0.00421958635753,0.0106055777265,-0.999934856284,0.0,0.310230961883,-0.201647232306,0.305904400105,1.0,-0.24718,-0.324865142857,2.065
-0.453283673939,-0.529744943644,-0.141423161531,-2.64583565499,-0.0754198525203,2.10983263653,-0.71027675844,-1.08822157962,-0.0472299558904,0.0511071394628,-0.0585654070556,0.0050913066555,-0.0182640744316,-1.04741165441,0.573897241357,0.818891831195,0.0062347467305,0.0,0.818904461674,-0.573833180682,-0.00957654948659,0.0,-0.00426453570402,0.010601821365,-0.999934705428,0.0,0.305364991185,-0.208001554863,0.305853041737,1.0,-0.228894285714,-0.300832489796,2.085
-0.468297246031,-0.530369923192,-0.140726486712,-2.64642811608,-0.0754068945239,2.10949016553,-0.724534608543,-1.05400838144,-0.0455581610049,0.0564166916461,-0.0361718196116,-0.00240436765634,-0.028838981441,-1.0030157779,0.573995170991,0.818824288934,0.0060888777066,0.0,0.818834617643,-0.573929900626,-0.00975115476465,0.0,-0.00448997983541,0.0105831033528,-0.999933916819,0.0,0.302128468631,-0.212229123173,0.305800974841,1.0,-0.216094285714,-0.284009632653,2.099
-0.488205183491,-0.530969550505,-0.139622688715,-2.64694120062,-0.0752145364438,2.10924949852,-0.743620591247,-0.969033120391,-0.00207937824462,0.0480283525321,-0.0109551443395,0.0136333579174,-0.0109318113402,-0.925682701384,0.573941166221,0.818863192757,0.00594610501878,0.0,0.818872115468,-0.573876773583,-0.00972903652095,0.0,-0.00455450603279,0.010453195419,-0.999934991477,0.0,0.297895882638,-0.217775668155,0.30579538894,1.0,-0.197808571429,-0.259976979592,2.119
-0.500192310317,-0.531192012239,-0.138782786971,-2.6470603272,-0.0749771025322,2.1091532761,-0.755238413788,-0.90572176871,-0.0204550486425,0.0615465105363,-0.00845967883887,0.0304263793357,-0.00332915203963,-0.872886294012,0.573744782571,0.819001413462,0.00586140943081,0.0,0.819009967743,-0.573681977767,-0.00961290924574,0.0,-0.00451048814585,0.010316107891,-0.999936614698,0.0,0.295393854719,-0.221065187616,0.305836638155,1.0,-0.185922857143,-0.244355755102,2.132
-0.518311577096,-0.531125597847,-0.137558831477,-2.64708702894,-0.0744876196587,2.10906197458,-0.772558945193,-0.826268118401,0.00807759567998,0.0581020134031,0.00746401060836,0.0260847506104,-0.00276030716476,-0.794205670493,0.573742628364,0.819003211557,0.00582088983568,0.0,0.819011210508,-0.57367969479,-0.00964322292146,0.0,-0.00455859200512,0.0103003004081,-0.999936559513,0.0,0.291583510154,-0.22601526541,0.305825068733,1.0,-0.166722857143,-0.219121469388,2.153
-0.528512663588,-0.531019751218,-0.136695073333,-2.64700912783,-0.0740826136258,2.1090700049,-0.782391935625,-0.767961485621,0.00929986290505,0.0658085145517,0.00561700298769,0.0234277038263,-0.0006019449031,-0.739768374163,0.573611514337,0.819095097269,0.0058137037087,0.0,0.819103337554,-0.57354934941,-0.00957147323939,0.0,-0.00450558757076,0.0102525287636,-0.999937290701,0.0,0.289477231573,-0.228745122321,0.305845516477,1.0,-0.154837142857,-0.203500244898,2.166
-0.543830980051,-0.530538432067,-0.135493676528,-2.64671802985,-0.0734335417132,2.1091051608,-0.796846571728,-0.696756155815,0.024419399727,0.0579850012027,0.0159762507582,0.0308911419911,0.00521985933356,-0.653172287151,0.573764485261,0.818987682771,0.00585130961435,0.0,0.818996210746,-0.573701900674,-0.00959598083734,0.0,-0.00450216934341,0.0102982316806,-0.999936836453,0.0,0.286291214697,-0.232864443453,0.305836959107,1.0,-0.135637142857,-0.178265959184,2.187
-0.552228362835,-0.53012383546,-0.134621211712,-2.64650604369,-0.0729852164885,2.10917001452,-0.804931143883,-0.632826755066,0.0391121165352,0.0683796721993,0.0170213949311,0.0384473579873,0.00154299740551,-0.611047424655,0.573608465027,0.819097096384,0.00583287630749,0.0,0.819105158903,-0.573545363202,-0.00965411363389,0.0,-0.00456232512429,0.0103156189851,-0.999936384574,0.0,0.284586331862,-0.235059578814,0.305810355656,1.0,-0.123751428572,-0.162644734694,2.2
-0.564123102769,-0.529434862533,-0.133495591256,-2.64609538849,-0.0723128935178,2.10929188764,-0.816020372495,-0.571157521006,0.0383273154127,0.0530705215775,0.0214274927024,0.0328252084398,0.00783912921173,-0.520746700615,0.573783598754,0.818974082283,0.00588058245031,0.0,0.818982424404,-0.573719764742,-0.00970396632351,0.0,-0.00457357858993,0.0103842703207,-0.999935622582,0.0,0.28215382946,-0.23819760978,0.30578516384,1.0,-0.105465714286,-0.138612081633,2.22
-0.570992524417,-0.52895058868,-0.132737599749,-2.64579015646,-0.0718918542901,2.10934258671,-0.822367978105,-0.502131383804,0.038578013971,0.0634792305409,0.0240765446637,0.0345188938512,0.00224656554633,-0.475498263007,0.573872507447,0.818911827232,0.00587463334279,0.0,0.818919817884,-0.573808031341,-0.00976841572263,0.0,-0.00462864849114,0.010416879449,-0.999935030007,0.0,0.280768942981,-0.239982476791,0.305770874105,1.0,-0.0935800000001,-0.122990857143,2.233
-0.580784175411,-0.528193975429,-0.131368792768,-2.64530006765,-0.0711110175902,2.1095192338,-0.831549455669,-0.418651628239,0.0331636747103,0.0599846479961,0.0206563445175,0.0301020112893,0.00920279638697,-0.382650753288,0.573765594676,0.818986789099,0.00586758453984,0.0,0.818994751416,-0.573701270425,-0.00975686255878,0.0,-0.00462458987155,0.0104038732966,-0.999935184194,0.0,0.278878061144,-0.24245290427,0.305767249847,1.0,-0.0734657142858,-0.0965549387757,2.255
-0.585438124378,-0.527827408669,-0.130633868094,-2.6450486089,-0.0707049451868,2.10956394676,-0.835689952288,-0.369210021111,0.0303099317318,0.060280888618,0.0176764863754,0.0366496023506,0.00117200439152,-0.327277542381,0.573853793746,0.818925115929,0.00585019701605,0.0,0.818932804319,-0.573789326737,-0.00977841675257,0.0,-0.00465110001367,0.0104025000788,-0.999935075523,0.0,0.277989612799,-0.24359809691,0.305769964546,1.0,-0.0624942857144,-0.0821353469389,2.267
-0.59175990837,-0.527251975605,-0.129397708943,-2.64464296254,-0.0699590957682,2.10972945931,-0.841318773224,-0.287109869552,0.0299538919524,0.0605626974171,0.0201476411002,0.0368268284819,0.00433981977175,-0.259787366476,0.573887578303,0.8189013687,0.00586026552713,0.0,0.818909496343,-0.573823811779,-0.00970653059168,0.0,-0.00458601957913,0.0103696840748,-0.999935716972,0.0,0.276871278896,-0.245101719173,0.305789174279,1.0,-0.0442085714287,-0.0581026938777,2.287
-0.595199035271,-0.526915053714,-0.128507993701,-2.64442919158,-0.0694262442395,2.10979473467,-0.844360627397,-0.226640458227,0.0205158480385,0.0669369576978,0.00904829428902,0.0365567204791,0.00566084843625,-0.191126442017,0.573822689199,0.818946794635,0.00586649963791,0.0,0.818954940985,-0.573758800914,-0.00971544708492,0.0,-0.00459056683347,0.0103795426762,-0.999935593821,0.0,0.276308460045,-0.245849316814,0.305790829842,1.0,-0.0314085714287,-0.0412798367349,2.301
-0.598717590336,-0.526614158404,-0.127181025408,-2.64427274762,-0.0687086347364,2.10980016409,-0.847172982835,-0.153234509508,0.00984130312744,0.0597701325094,0.00984405314772,0.0371123786287,-0.000355766852745,-0.117886742487,0.573777268875,0.818978961377,0.00581837134082,0.0,0.818986237293,-0.57371278126,-0.00979462325246,0.0,-0.00468360654798,0.0103852981802,-0.9999351026,0.0,0.275806702094,-0.24647725641,0.305784991693,1.0,-0.01983,-0.0260622857143,2.321
-0.600432791865,-0.526516212341,-0.126626706565,-2.64417038332,-0.0683937156443,2.10981456865,-0.848612542798,-0.119144602846,0.00527216598159,0.0389909753293,0.012860676332,0.0200983758836,-0.000279249762722,-0.103287791334,0.573750428352,0.818997824881,0.00580996615291,0.0,0.819005224413,-0.573686452623,-0.00974901850272,0.0,-0.00465141563049,0.0103520954848,-0.999935597152,0.0,0.275548949174,-0.246816350469,0.305810521102,1.0,-0.01957,-0.0257205714286,2.334
-0.602702502102,-0.526244699019,-0.125990723108,-2.64392388865,-0.0681069039232,2.10995739373,-0.850701368963,-0.101304920764,0.0140288499976,0.0256937046959,0.0131467775147,0.0160177437505,0.012659081365,-0.100342381747,0.573583899501,0.819115104765,0.0057185907808,0.0,0.81912222622,-0.573521842012,-0.00960323638077,0.0,-0.00458650756028,0.0101926828231,-0.999937534632,0.0,0.275219971588,-0.247341887749,0.305850902087,1.0,-0.01915,-0.0251685714286,2.355
-0.603964287297,-0.526094149721,-0.12581960784,-2.64379272028,-0.067981489688,2.10998180381,-0.851842573477,-0.0953302499846,0.00877275966606,0.0124689898228,0.0115896210228,0.0106354552303,-0.000383812412257,-0.0836056885789,0.573621881545,0.819088396308,0.00573436543063,0.0,0.819095763531,-0.573559935143,-0.00958529421797,0.0,-0.00456228884286,0.0101955252307,-0.999937616447,0.0,0.274985698158,-0.247670050389,0.305861666892,1.0,-0.01889,-0.0248268571429,2.368
-0.605817877274,-0.525882368681,-0.125708661097,-2.643650263,-0.0678659617841,2.10997844284,-0.85363318488,-0.0936483592023,0.0193565081014,0.00140187547588,0.0083942081569,0.0103455864761,-0.00517415442633,-0.085088225838,0.573651815193,0.819067121827,0.00577856111109,0.0,0.819074684027,-0.573589086547,-0.00964202682179,0.0,-0.00458303580588,0.0102644369269,-0.999936816563,0.0,0.27458771957,-0.248173334251,0.305851252649,1.0,-0.01849,-0.0243011428571,2.388
-0.606996670004,-0.525697197373,-0.125588051328,-2.64357174545,-0.0678488336086,2.10999291969,-0.854690570573,-0.0895003463758,0.0141017089619,0.00208621481093,0.0061006095115,0.00196575285952,-0.000449370637668,-0.0796467116443,0.573677849099,0.819049209008,0.0057328507405,0.0,0.819055907922,-0.57361445456,-0.00972749296505,0.0,-0.00467893945216,0.0102761703577,-0.999936251892,0.0,0.27433843266,-0.248486139865,0.305823173293,1.0,-0.01823,-0.0239594285714,2.401
-0.608401853424,-0.525638056077,-0.125527356016,-2.64343719348,-0.0678080806677,2.11003115777,-0.856101074604,-0.0812337520064,0.00522326185462,-5.23707870137e-05,0.00919952213632,0.00284130358206,-0.00061486552343,-0.0867798484838,0.573654490908,0.819065563054,0.00573370574659,0.0,0.819072838486,-0.573592352436,-0.00960444603342,0.0,-0.00457794937053,0.0102061527407,-0.999937436456,0.0,0.274042120349,-0.248890706146,0.305867488567,1.0,-0.01789,-0.0235125714286,2.418
-0.609772440615,-0.525434687935,-0.125516211608,-2.64327366551,-0.0677978458435,2.11004484535,-0.857460544648,-0.0769123549943,0.00564063118289,-0.000748980042698,0.00722933438898,0.000615719090879,0.00277331990076,-0.0824714104459,0.573668712785,0.819055620223,0.0057311302459,0.0,0.819062783105,-0.573606391825,-0.00962348640781,0.0,-0.00459484615205,0.0102150452209,-0.999937268152,0.0,0.273740617055,-0.249301455513,0.305868730277,1.0,-0.01755,-0.0230657142857,2.435
-0.611380395521,-0.525258888601,-0.125525680616,-2.64310641403,-0.0677689576973,2.11009569769,-0.858976389536,-0.0767630951776,0.0108674120934,0.00143366095666,0.00755533076149,0.000643386260681,0.00443177792674,-0.0762250747695,0.57377178765,0.818983261997,0.00575318758057,0.0,0.818990892099,-0.573709890453,-0.0095722074969,0.0,-0.00453890449169,0.0102042673,-0.999937633693,0.0,0.273384098664,-0.249785760938,0.305884491743,1.0,-0.01715,-0.02254,2.455
-0.612480963131,-0.525169581077,-0.125538789368,-2.64299273083,-0.0677578112979,2.11010604316,-0.860104419417,-0.0780988304338,0.00503276779587,0.0015863820485,0.00595672545423,0.000849330452939,0.000236757788611,-0.0780292040445,0.573769057254,0.818985078315,0.00576691745951,0.0,0.81899303333,-0.573707515776,-0.00953124337337,0.0,-0.00449750880218,0.0101919939754,-0.999937945911,0.0,0.273133974713,-0.250116359609,0.305904040805,1.0,-0.01687,-0.022172,2.469
-0.614023433135,-0.524969843699,-0.125536589085,-2.64283102747,-0.0677377845628,2.11013614596,-0.861597272501,-0.0751747325667,0.00901029863156,-0.000261247713956,0.00888552506546,0.00118887613099,0.00158468530471,-0.0703419883442,0.573825169602,0.818945690254,0.00577737364862,0.0,0.818953758457,-0.573763587018,-0.00953071992018,0.0,-0.00449038182924,0.0102005652307,-0.999937890541,0.0,0.272788886352,-0.250575717597,0.305906959119,1.0,-0.01647,-0.0216462857143,2.489
-0.614986093828,-0.524890311989,-0.125530287553,-2.64273491889,-0.0677288940654,2.11015314439,-0.862554043045,-0.0766841038895,0.0016440843408,-0.000422016498913,0.00615080285885,0.00158037754486,0.000648204561071,-0.078708923274,0.573834196331,0.818939353005,0.00577911080625,0.0,0.818947613221,-0.573773001545,-0.00949191232217,0.0,-0.00445748860281,0.0101797688725,-0.999938249644,0.0,0.272573415633,-0.250860709096,0.305923122593,1.0,-0.01621,-0.0213045714286,2.502
-0.616477137585,-0.524622677525,-0.125441901613,-2.64261906259,-0.0677000552359,2.11020074443,-0.864075226655,-0.0706612057197,0.00814589183959,0.00511394950729,0.00725697455972,0.001719038508,-0.00160815153573,-0.0589071231579,0.573765938329,0.818987323921,0.00575831333448,0.0,0.818994939675,-0.573703868918,-0.00958678659143,0.0,-0.00454797761974,0.0102167977912,-0.999937464516,0.0,0.272249331954,-0.251274954809,0.305883766973,1.0,-0.01579,-0.0207525714286,2.523
-0.61730071734,-0.524550109959,-0.125374709209,-2.64255252764,-0.0676928344557,2.11022562606,-0.864884802162,-0.0656296205807,0.00462681841035,0.00257891095163,0.00578134860265,0.00220889422002,0.00130800178427,-0.0656416104878,0.573736408073,0.819008214041,0.00572942283006,0.0,0.819015638086,-0.573674705632,-0.00956365984822,0.0,-0.00454597854068,0.0101797027352,-0.999937851934,0.0,0.272075197138,-0.25150199096,0.305891142258,1.0,-0.01555,-0.0204371428571,2.535
-0.618576503984,-0.524317377016,-0.125285321645,-2.64245280751,-0.0676733535884,2.11024147562,-0.866251706706,-0.0704254845073,0.00660563995202,0.00726009243743,0.00311307218427,0.00219005946174,-0.000624846305487,-0.0768197645693,0.573612580612,0.819095127103,0.00570324659752,0.0,0.819101772128,-0.573549882776,-0.00967293991309,0.0,-0.00465205109652,0.0102202561922,-0.999936950404,0.0,0.271795573161,-0.251850089104,0.305854529347,1.0,-0.01517,-0.0199377142857,2.554
-0.619589764828,-0.524191397138,-0.125258332968,-2.64237295556,-0.0676600478293,2.11027909575,-0.867283630253,-0.0674473006504,0.00765020029513,-0.000217437851404,0.00295901188041,0.00182432951235,0.00162423988778,-0.0662722617369,0.57358816788,0.81911224735,0.00569972011341,0.0,0.819118842056,-0.573525459012,-0.00967560622956,0.0,-0.00465656262215,0.0102187581324,-0.999936944715,0.0,0.271569247141,-0.252140894078,0.305848469495,1.0,-0.01487,-0.0195434285714,2.569
-0.62104168154,-0.524004986266,-0.125282637586,-2.64226762139,-0.0676418377849,2.11029484573,-0.868654598768,-0.0697315054696,0.0101153032617,-0.0036102668481,0.00250985093174,-0.000975637902341,0.00837221171785,-0.0744472557456,0.573685198592,0.819044090003,0.00572873879874,0.0,0.819050722715,-0.573621769563,-0.00973272858914,0.0,-0.00468549475374,0.0102758478288,-0.999936224511,0.0,0.271222598501,-0.252563896315,0.305828699314,1.0,-0.01445,-0.0189914285714,2.59
-0.621951062133,-0.523930736642,-0.125291182954,-2.64221031736,-0.0676276751005,2.11030347274,-0.869500333991,-0.073526360329,0.00259419769097,-0.00495509445432,0.0041619955085,0.00458513174108,0.000453997151184,-0.0659536836295,0.573752413604,0.818996881565,0.00574654435741,0.0,0.819003688607,-0.573688871012,-0.00973571908701,0.0,-0.00467688507196,0.0102925315129,-0.999936093229,0.0,0.271005490556,-0.252825158544,0.305828042981,1.0,-0.01419,-0.0186497142857,2.603
-0.623306062395,-0.523842090608,-0.125291299981,-2.64205431851,-0.0676110367658,2.11031796125,-0.870831794344,-0.0609596932993,0.00287378981145,-0.00571828141593,0.00567510758861,0.000296216226222,0.00163294098685,-0.0608435831738,0.573786560767,0.818972900704,0.00575478034003,0.0,0.818980208585,-0.573723896233,-0.00964654018775,0.0,-0.00459868853968,0.0102483036325,-0.999936910178,0.0,0.270701166132,-0.253229947035,0.30586773002,1.0,-0.01377,-0.0180977142857,2.624
-0.624041294192,-0.523757822967,-0.125277840731,-2.64193745956,-0.0675961659265,2.11038182393,-0.871527713807,-0.0608886838909,0.0114922047483,0.000329639435813,0.00764604973798,0.00242159830383,0.00197077030651,-0.0602259857834,0.573822789198,0.818947553615,0.00574960224275,0.0,0.818955267448,-0.57376117084,-0.00954649974217,0.0,-0.00451927110475,0.0101868622802,-0.999937900085,0.0,0.270540610248,-0.253481100136,0.305893956054,1.0,-0.01351,-0.017756,2.637
-0.625324188043,-0.523538043963,-0.125207003716,-2.64173847977,-0.0675759281464,2.11044616709,-0.872897290093,-0.0575027685044,0.00369187552758,0.002778339096,0.00852421888062,-0.000501431554626,0.00070821850924,-0.058290392272,0.573719194947,0.819020359689,0.00571687545723,0.0,0.819027960216,-0.573658234466,-0.00949617371317,0.0,-0.0044981135314,0.010130613028,-0.99993856694,0.0,0.27029863294,-0.253844925682,0.30591277732,1.0,-0.01309,-0.017204,2.658
-0.625991732679,-0.523419914447,-0.125203991257,-2.64165097505,-0.0675618961082,2.11045139109,-0.873593709698,-0.0560572074953,0.00931202492422,-0.00117059721972,0.00631872442438,0.00464761950302,-0.000341072491538,-0.0576177938347,0.573704016731,0.819030938838,0.00572444879038,0.0,0.819038519235,-0.573642806374,-0.0095174369792,0.0,-0.00451137333326,0.010148931283,-0.99993832145,0.0,0.27014975554,-0.254043913836,0.30590970528,1.0,-0.01285,-0.0168885714286,2.67
-0.627186508373,-0.523200878496,-0.125197342085,-2.64155190795,-0.0675426067653,2.11046127059,-0.874777895432,-0.059128533903,0.00480496993864,-0.00103992440459,0.00122149783562,-0.00031052265315,0.000708129046162,-0.0568931020016,0.573721824668,0.819018361929,0.00573913093774,0.0,0.819025625044,-0.573659499583,-0.00962034100294,0.0,-0.00458701726195,0.0102200916661,-0.999937252531,0.0,0.269869127421,-0.254385706646,0.305875269798,1.0,-0.01243,-0.0163365714286,2.691
-0.627928906976,-0.523104411715,-0.125191938257,-2.64152748258,-0.067531777506,2.11046898249,-0.875506229959,-0.0595599729828,0.0104322057505,0.000709332767783,0.00250118535895,0.000273155458407,0.000605682166648,-0.0532294370933,0.57373570318,0.819008560001,0.00575051673321,0.0,0.81901566594,-0.57367271486,-0.00967998296003,0.0,-0.00462916348448,0.0102637127304,-0.999936611514,0.0,0.269687134703,-0.254589304071,0.305851706433,1.0,-0.01217,-0.0159948571429,2.704
-0.629033503428,-0.522958099348,-0.125191897242,-2.64145531969,-0.067511583093,2.11048899503,-0.876628091705,-0.0528832755171,0.00594758370242,0.00116612146746,0.00359133293874,-0.000722354210406,-0.000420631334883,-0.0545425161944,0.573734157364,0.819009504322,0.0057702170109,0.0,0.819016594848,-0.573670594789,-0.00972691828221,0.0,-0.00465632434487,0.0103067671894,-0.999936042552,0.0,0.269424412869,-0.254903461742,0.305832472832,1.0,-0.01177,-0.0154691428571,2.724
-0.629737424062,-0.522852102338,-0.125177052162,-2.64137396827,-0.067496587683,2.11050339604,-0.877271529007,-0.0483590656264,0.00783546248929,0.000470395651451,0.00561868911775,0.00169723708582,0.00140777946913,-0.0398707749036,0.573783846849,0.818974679899,0.00577214700085,0.0,0.818981764418,-0.573720209839,-0.0097333074824,0.0,-0.00465982470727,0.0103122962887,-0.99993596924,0.0,0.269268392953,-0.255108912499,0.30583211363,1.0,-0.01151,-0.0151274285714,2.737
-0.630839615266,-0.522690025602,-0.125149198602,-2.6412056109,-0.0674764133915,2.11054107204,-0.878325296887,-0.0502449246801,0.00501806708587,0.000782074527339,0.0040453142742,0.00179923907427,-0.000531099250933,-0.051542369173,0.573820966234,0.81894873094,0.0057638271572,0.0,0.818955962335,-0.573757877527,-0.00968383354353,0.0,-0.00462361097379,0.010277305207,-0.999936497593,0.0,0.26903656791,-0.255442171391,0.305853036063,1.0,-0.01109,-0.0145754285714,2.758
-0.63147540478,-0.522583843931,-0.125134077524,-2.64109847437,-0.0674616669163,2.11057865612,-0.879005865264,-0.0514566808402,0.00874044007989,-0.00138768716558,0.00616256160562,0.000221549897229,0.00637149104255,-0.0517335871932,0.573785338366,0.818973718397,0.005760291006,0.0,0.818981105248,-0.573722698862,-0.00964162634955,0.0,-0.00459151728163,0.0102499906761,-0.999936925841,0.0,0.26890733636,-0.255638697804,0.305866334739,1.0,-0.01083,-0.0142337142857,2.771
-0.632482855355,-0.522442150599,-0.125114496874,-2.64096787847,-0.0674411544067,2.11061556663,-0.880050568069,-0.0471070316846,0.00918707320371,0.00101523234742,0.00751693206588,0.00168406844362,0.000934123005925,-0.0525465376498,0.573756422858,0.818993973706,0.00576065650147,0.0,0.819001507431,-0.573694106492,-0.00960988567694,0.0,-0.00456567167633,0.0102319169847,-0.999937229288,0.0,0.268688905171,-0.255938699838,0.305877293086,1.0,-0.01041,-0.0136817142857,2.792
-0.633053917799,-0.522354098294,-0.125098645055,-2.64090162737,-0.0674295986076,2.11062525728,-0.880598858809,-0.0478123092295,0.00827469555682,0.000278228097904,0.00574363132872,0.000142464119348,-0.000587165201011,-0.051086228569,0.573772256113,0.818982884272,0.0057602331451,0.0,0.818990374064,-0.573709850432,-0.00961881539404,0.0,-0.00457303072358,0.0102367819977,-0.999937145867,0.0,0.268562171968,-0.256103998409,0.305876263753,1.0,-0.01017,-0.0133662857143,2.804
-0.634052866144,-0.522171988015,-0.125076276212,-2.64078937968,-0.0674052691332,2.11064935803,-0.881576257009,-0.0463990224048,0.0139411960047,-0.000135535099245,0.00338459685972,0.000795620117831,0.00284260094053,-0.0456736748701,0.573790476231,0.818970076421,0.00576629990852,0.0,0.818977447674,-0.573727635926,-0.00965851317317,0.0,-0.00460183625659,0.0102646300809,-0.999936728235,0.0,0.268339137443,-0.256393381818,0.305862951446,1.0,-0.00973,-0.012788,2.826
-0.634577065724,-0.522085081529,-0.125046067236,-2.64075416946,-0.0673927268979,2.11066302227,-0.882116931567,-0.0346877097953,0.0106327163427,0.00392566019509,0.00203135977254,-0.000184698216968,0.00084025672202,-0.0477249527784,0.573762958503,0.818989377155,0.00576319866018,0.0,0.81899655431,-0.573699776001,-0.00969319067765,0.0,-0.00463236360268,0.0102818315622,-0.999936410552,0.0,0.268220757124,-0.256535392536,0.305848889053,1.0,-0.00949,-0.0124725714286,2.838
-0.635461068977,-0.521971471155,-0.125009068232,-2.64071639418,-0.0673762886823,2.11067493167,-0.883020815949,-0.0357232162832,-0.00133448468724,0.000104145642751,1.57805540793e-05,0.0037247349778,8.06837393429e-06,-0.0436824381172,0.573729737589,0.819012643684,0.00576407781232,0.0,0.819019556019,-0.573665950631,-0.009751453563,0.0,-0.00467999868917,0.0103157899554,-0.999935838987,0.0,0.268011462124,-0.256771867452,0.305826175419,1.0,-0.00907,-0.0119205714286,2.859
-0.635973897059,-0.521936034973,-0.124996691487,-2.64070574573,-0.0673594279637,2.11068260903,-0.883513710579,-0.0394412357849,0.000581972979479,0.000661160425539,-0.000291147443888,0.00376286302172,0.000552669303876,-0.0390295062801,0.573745117833,0.819001787243,0.00577573864894,0.0,0.819008759387,-0.573681140162,-0.00976464906001,0.0,-0.00468392287857,0.0103329992132,-0.999935642926,0.0,0.267886816739,-0.256907984395,0.305818941579,1.0,-0.00881,-0.0115788571429,2.872
-0.636806820747,-0.521829196984,-0.124961361736,-2.6406210521,-0.067343403873,2.1107030493,-0.884302952941,-0.0393493333729,0.00943767839859,0.00664849203861,0.00237038532264,0.000344006456619,9.58528778582e-05,-0.0366959170709,0.57376711292,0.818986426857,0.0057688523607,0.0,0.818993342351,-0.573703195847,-0.00976192398055,0.0,-0.00468536441216,0.0103259214213,-0.999935709287,0.0,0.267702336913,-0.257144071217,0.305820764964,1.0,-0.00839,-0.0110268571429,2.893
-0.637263009863,-0.521781524983,-0.124951187621,-2.64054588807,-0.0673302490107,2.11072760623,-0.884758733864,-0.03850310637,-0.000988917225285,0.00200509338621,0.00944473486278,0.000751938386908,0.00727025144174,-0.0384763577946,0.573769544503,0.818984728376,0.00576813566584,0.0,0.818991891734,-0.573706194724,-0.00970722980953,0.0,-0.00464094715795,0.0102939673577,-0.99993624589,0.0,0.26760867523,-0.257284197097,0.305839785175,1.0,-0.00815,-0.0107114285714,2.905
-0.637999513273,-0.521638220892,-0.124936221843,-2.64039896612,-0.0673118654596,2.11077479005,-0.885519885764,-0.0369228483249,0.00511424039783,0.000894216337959,0.00658004450405,-0.000147879669311,0.00297837591108,-0.037463229057,0.573754058526,0.818995613478,0.0057630139764,0.0,0.819002975754,-0.573691294429,-0.00965252836779,0.0,-0.00459927599457,0.0102583004261,-0.99993680497,0.0,0.267462430218,-0.257517411689,0.305858316454,1.0,-0.00775,-0.0101857142857,2.925
-0.638508616218,-0.521574881711,-0.124926992981,-2.64032150615,-0.0672954677888,2.11078556943,-0.886010899319,-0.0346496648907,0.00320472947324,0.00106541004652,0.00844957549119,0.000211715622424,0.000484836392247,-0.0350575044904,0.573773201117,0.818982172832,0.00576724938981,0.0,0.818989708764,-0.573710705604,-0.00962445400231,0.0,-0.0045736115905,0.0102457689428,-0.999937051167,0.0,0.26735301741,-0.257669900656,0.305871407466,1.0,-0.00747,-0.00981771428572,2.939
-0.639187803612,-0.521482207287,-0.124902884749,-2.64025868643,-0.0672727209445,2.11080347866,-0.886675061806,-0.0300216260032,0.00497885924225,0.00235089768728,0.00449183709375,8.89659166381e-05,0.000275292258789,-0.0340055673888,0.573781439103,0.818976359454,0.00577318783525,0.0,0.818983923466,-0.573718841612,-0.00963175915814,0.0,-0.00457608451703,0.0102548700931,-0.999936946557,0.0,0.267200541828,-0.257860663162,0.305867998314,1.0,-0.00707,-0.00929200000001,2.959
-0.639609615395,-0.52142683052,-0.124875906526,-2.64023105253,-0.0672610910697,2.1108130305,-0.887078737457,-0.0309390056145,0.00855554963731,0.00343492149724,0.000538735238238,0.00047451624296,-1.76964836185e-05,-0.0260694972968,0.573778924897,0.818978149648,0.0057691112971,0.0,0.818985561836,-0.573716100481,-0.00965569541152,0.0,-0.00459806005198,0.0102652510272,-0.999936739232,0.0,0.267099286275,-0.257977463568,0.305858264026,1.0,-0.00679,-0.00892400000001,2.973
-0.640229520221,-0.521310941886,-0.124819817298,-2.64019113636,-0.067239878752,2.1108276601,-0.887716032859,-0.0266303955318,0.0115987267736,0.00157061087034,-0.000172092802812,0.000655869760694,0.000181475221007,-0.0279674847648,0.573741079368,0.819004706187,0.00576298453879,0.0,0.819011826901,-0.573677781116,-0.00970452222217,0.0,-0.00464204256214,0.0102880336265,-0.999936301874,0.0,0.266968361653,-0.258134884328,0.305839735512,1.0,-0.00639,-0.00839828571429,2.993
-0.640585576736,-0.521236945433,-0.124785473971,-2.64016141259,-0.0672303791545,2.11083402541,-0.888092634207,-0.0248445687815,0.00479818580346,0.00881469868506,0.00256640048889,0.0027573232273,0.000214721402049,-0.0265775231697,0.573711368317,0.81902554548,0.00575922008576,0.0,0.819032396066,-0.573647581457,-0.00975363439453,0.0,-0.0046848032541,0.0103129573172,-0.999935845707,0.0,0.266882287926,-0.258234903867,0.305822811859,1.0,-0.00611,-0.00803028571429,3.007
-0.641154969022,-0.52112568145,-0.124766302552,-2.64011980395,-0.0672134087756,2.11084580212,-0.888673234085,-0.0325498510644,0.00482067900979,-0.000749077193266,0.000455607515461,-0.000471934243632,0.000445801365281,-0.0261617476621,0.57369256922,0.819038694248,0.00576196552797,0.0,0.819045381222,-0.573628350861,-0.00979415579499,0.0,-0.00471665660032,0.010338344699,-0.999935433805,0.0,0.266758604155,-0.258384941415,0.305806809447,1.0,-0.00571,-0.00750457142858,3.027
-0.641499556598,-0.521071826079,-0.124757243555,-2.64008882095,-0.0672014168392,2.11085450738,-0.889026141986,-0.0234798997777,0.00428990316822,0.000643478238022,0.00136291531734,0.00166703811883,3.81615383543e-07,-0.0309838224447,0.573686117508,0.819043174019,0.00576754472629,0.0,0.819049863348,-0.573621752551,-0.00980577639566,0.0,-0.00472305604248,0.0103495437703,-0.999935287749,0.0,0.266679945639,-0.258481822062,0.305802043376,1.0,-0.00545,-0.00716285714286,3.04
-0.642010103097,-0.521003075988,-0.124761257678,-2.64004289722,-0.0671882946844,2.11086507783,-0.88950923561,-0.0241912880766,0.0041060747379,-0.000792885710259,0.00592213347037,5.15362268899e-06,0.000741986585484,-0.0170208683391,0.573719471686,0.819019722288,0.00578007030816,0.0,0.819026502261,-0.573654956358,-0.00981460854822,0.0,-0.00472268291344,0.010365062358,-0.99993512877,0.0,0.266559032493,-0.258629496022,0.305798441569,1.0,-0.00505,-0.00663714285715,3.06
-0.642317587405,-0.520974418048,-0.124755220172,-2.64000485695,-0.0671741920311,2.1108712907,-0.889805017919,-0.0242130858175,0.00750106209852,-0.000238111164337,0.00378032685665,0.000348651759425,-0.000235875877861,-0.0199362847589,0.573732670028,0.819010428578,0.00578689236221,0.0,0.819017364972,-0.573668308848,-0.00979664220473,0.0,-0.0047038859402,0.0103604184935,-0.999935265498,0.0,0.266491200536,-0.258718736301,0.305805883526,1.0,-0.00479,-0.00629542857143,3.073
-0.642788954314,-0.520949719671,-0.124731142246,-2.63994487032,-0.0671601457889,2.11089476709,-0.890231122822,-0.0205749265683,0.0013524825819,0.000352339300127,-0.000326606085915,0.000395312551202,0.00219832497954,-0.0206157505977,0.573761537955,0.818990247112,0.00578096885638,0.0,0.818997411189,-0.573697838128,-0.00973539392817,0.0,-0.0046567530007,0.0103205918237,-0.999935897963,0.0,0.2663927188,-0.258855691304,0.305826681013,1.0,-0.00437,-0.00574342857143,3.094
-0.643069555093,-0.52094196195,-0.124697861242,-2.63990424553,-0.0671465226226,2.11090386298,-0.890492418372,-0.0200956735542,-0.00112936623865,0.00388206972838,0.00194962071111,-0.000114257515061,0.00340076219847,-0.0123881775155,0.573761474447,0.818990353923,0.00577213339777,0.0,0.818997629344,-0.573698264973,-0.00969179017751,0.0,-0.00462610881906,0.0102883374737,-0.99993637259,0.0,0.266339137865,-0.2589331771,0.305843890267,1.0,-0.00411,-0.00540171428572,3.107
-0.643453269243,-0.52090752143,-0.124667432749,-2.63984990852,-0.0671277921388,2.11091903858,-0.890863724035,-0.0152328732402,0.00555849533525,0.000113903255476,0.000472031303361,0.00140894324104,3.46456999478e-05,-0.021365000095,0.57376071085,0.818990915237,0.00576839191955,0.0,0.818998325807,-0.573697905568,-0.00965413764942,0.0,-0.00459742518126,0.0102636658125,-0.999936758423,0.0,0.26626221141,-0.259042111826,0.305857968438,1.0,-0.00369,-0.00484971428572,3.128
-0.643688051906,-0.520886888895,-0.124650687046,-2.63981735909,-0.0671137071545,2.11092732296,-0.891092445375,-0.0145701957487,0.00115831250193,0.0015753497557,0.00384795019895,0.000722333712661,0.00149761926473,-0.0145201470974,0.573761397547,0.818990426701,0.00576945044908,0.0,0.818997949405,-0.573698813722,-0.00963207691661,0.0,-0.00457874006042,0.0102518793804,-0.999936965068,0.0,0.26621463805,-0.259108589614,0.305866298541,1.0,-0.00343,-0.00450800000001,3.141
-0.644012252286,-0.520827102227,-0.124619872506,-2.63977077317,-0.0670953468288,2.1109436737,-0.891388787315,-0.0142803792529,0.00473772018355,0.000891953503227,0.00208545832618,1.38179035001e-05,0.00123029481026,-0.0127215075869,0.573772610741,0.818982593544,0.00576624109114,0.0,0.818990108723,-0.573710096597,-0.0096267220593,0.0,-0.0045760551693,0.0102462411389,-0.999937035149,0.0,0.266150969501,-0.259199380718,0.305867618704,1.0,-0.00303,-0.00398228571429,3.161
-0.644201992848,-0.520787933605,-0.124595380127,-2.63975485074,-0.0670842112624,2.11095025431,-0.891573612737,-0.00986823991044,0.00321156729051,0.000331660982292,0.00104829180794,0.000383258688055,-0.000465878553649,-0.0121618083001,0.573764928044,0.818987994229,0.00576364090189,0.0,0.818995412374,-0.573702269656,-0.00964195018348,0.0,-0.00459011594828,0.0102528057087,-0.999936903415,0.0,0.266111948242,-0.259247679898,0.305861584587,1.0,-0.00277,-0.00364057142858,3.174
-0.6444963741,-0.520715519388,-0.124556859357,-2.63975210391,-0.0670665812374,2.11095456879,-0.891859026423,-0.0136940034592,0.00405211516558,0.00490164093337,0.00032945988966,0.000198347158099,-9.22280926106e-05,-0.0165781135484,0.573752924379,0.818996402792,0.00576375585851,0.0,0.819003531266,-0.573689620233,-0.00970475719945,0.0,-0.00464164369276,0.0102888673176,-0.999936295147,0.0,0.266045285583,-0.259315856107,0.305837443502,1.0,-0.00233,-0.00306228571429,3.196
-0.644631795082,-0.520701248206,-0.124534115277,-2.63976015012,-0.0670555708709,2.11095290997,-0.891995771195,-0.012073771181,0.00218358308774,0.0036910327981,1.04118053591e-05,0.000225148015278,-0.000248376360829,-0.00671021650703,0.573740093993,0.819005383014,0.00576489730424,0.0,0.819012417689,-0.57367655295,-0.00972723844912,0.0,-0.00465956394913,0.0103026275385,-0.999936070121,0.0,0.266013650087,-0.259343246468,0.305828924251,1.0,-0.00209,-0.00274685714286,3.208
-0.644815434096,-0.520676464398,-0.124507715959,-2.63975488655,-0.0670423967075,2.11095460795,-0.8921795855,-0.00696784940392,0.000905823162004,0.00184346096653,-0.000356352597876,0.00262996445068,-6.88547143055e-05,-0.0128076099334,0.573727197606,0.819014419018,0.00576463948029,0.0,0.819021374908,-0.573663491717,-0.00974333701262,0.0,-0.00467306026083,0.0103115789224,-0.999935914871,0.0,0.265973861306,-0.259386116699,0.305822965019,1.0,-0.00175,-0.00230000000001,3.225
-0.644981667886,-0.520677167578,-0.124479617923,-2.63974577762,-0.0670314293069,2.11096005565,-0.892322760919,-0.0117186699534,-0.000498787200989,0.00329086610962,0.00147744081438,0.00027594516678,2.68069620341e-05,-0.0115699078303,0.573731246845,0.819011618847,0.00575946947304,0.0,0.81901859852,-0.57366773455,-0.00972689651491,0.0,-0.00466250922398,0.0102979353486,-0.999936104726,0.0,0.265940788175,-0.259426120709,0.305828507624,1.0,-0.00143,-0.00187942857144,3.241
-0.645179716147,-0.520663902102,-0.124451589886,-2.63973557643,-0.0670140691691,2.11096532324,-0.89246909095,-0.0090565255129,0.00168891024948,0.00552839335023,-0.0014687649915,2.65337674237e-05,-6.12391346275e-05,-0.00216012705528,0.573761650929,0.818990314866,0.00576011982641,0.0,0.818997322074,-0.573698176695,-0.00972293131706,0.0,-0.0046585060295,0.010296366074,-0.999936139545,0.0,0.265899927337,-0.259473969381,0.305829387016,1.0,-0.00101,-0.00132742857144,3.262
-0.645294949354,-0.520665408318,-0.124444154918,-2.63972074966,-0.0670022141628,2.11096979205,-0.892527701725,-0.00678334447681,0.00055051775458,0.00112907676265,0.000275619901273,0.00376558763383,1.66838847391e-06,-0.0068433001548,0.57380847205,0.818957481081,0.00576441548959,0.0,0.818964637734,-0.573745203244,-0.00970107197296,0.0,-0.00463754901729,0.0102876077976,-0.999936327105,0.0,0.26587685004,-0.259506188924,0.305837257015,1.0,-0.000750000000005,-0.000985714285721,3.275
-0.645412898212,-0.520658866985,-0.124447567557,-2.6397079578,-0.0669841172736,2.11097567675,-0.892579279362,-0.00178248147094,0.000824723738528,-0.000432235098299,0.00084515424722,0.000709013904735,0.000162261999522,-0.00165880344119,0.573873557504,0.818911766645,0.00577973604333,0.0,0.818919150357,-0.573810361556,-0.00968715908669,0.0,-0.00461654501553,0.0102925391404,-0.999936373551,0.0,0.265850846976,-0.259540425563,0.305841105069,1.0,-0.000350000000005,-0.000460000000007,3.295
-0.645450385525,-0.520653526945,-0.124445483727,-2.63970398316,-0.0669745226347,2.11097567844,-0.892605363864,-0.000916149503012,0.00277107726767,0.000201258178787,-0.00114244219807,-0.000440592514189,0.00119636782028,-0.00789471639108,0.57388570596,0.818903203948,0.00578670545996,0.0,0.818910658318,-0.573822473417,-0.00968760015567,0.0,-0.00461275397588,0.0102985683115,-0.999936328969,0.0,0.265843222767,-0.259549881887,0.305841001802,1.0,-7.00000000051e-05,-9.20000000066e-05,3.309
-0.645448372513,-0.520656333176,-0.124436593162,-2.6396958326,-0.0669621700688,2.11097592477,-0.892623770166,0.000900824853105,-0.000587093376322,0.00073023732442,0.00059028303087,-0.00030277171957,-0.00019755140186,-0.00160190061914,0.573868299414,0.818915367129,0.00579165853231,0.0,0.818922927148,-0.573805169046,-0.00967544667002,0.0,-0.00460017692639,0.0102955523062,-0.999936417966,0.0,0.265848750323,-0.259548290607,0.305845984464,1.0,0.0,0.0,3.329
-0.645443079911,-0.52065821326,-0.12441719992,-2.63970083932,-0.0669507249794,2.11097596353,-0.892624158073,0.00174463114868,-0.000411526186644,0.0067653550584,-0.00036030544813,0.000371611553491,-5.99889502929e-05,0.000421220642475,0.573854528496,0.818925012172,0.00579236263921,0.0,0.818932567608,-0.573791370657,-0.00967778759304,0.0,-0.00460186322446,0.0102973949015,-0.999936391234,0.0,0.265854245508,-0.259540216918,0.305844866372,1.0,0.0,0.0,3.342
-0.645448378291,-0.520655707594,-0.124388739224,-2.63969753046,-0.0669444269911,2.11098114075,-0.892628473933,-0.000190999397697,0.000230499874933,0.00411148704874,-0.00122694250694,0.000126076724387,7.3002613351e-05,0.00125419508882,0.573838003039,0.818936660582,0.00578265717824,0.0,0.818944142522,-0.573774951585,-0.0096717766487,0.0,-0.00460271724467,0.0102859042578,-0.999936505568,0.0,0.265861136949,-0.259536250881,0.305846568619,1.0,0.0,0.0,3.363
-0.645445637075,-0.520655706576,-0.124398310792,-2.63969241985,-0.0669377056032,2.11098032924,-0.892632615671,-0.00047872253321,0.000553345607738,-0.00191194982477,0.00152963006981,0.000621291966572,0.000203123105135,-0.00126312536672,0.573842244013,0.818933619189,0.00579251662739,0.0,0.818941226005,-0.573779198969,-0.00966675134834,0.0,-0.0045928905444,0.0102911190905,-0.999936497096,0.0,0.265861416962,-0.259538130275,0.305848603393,1.0,0.0,0.0,3.375
-0.645449071526,-0.520652488944,-0.124386598925,-2.63969749384,-0.0669310338886,2.11097881921,-0.892636081845,-0.000659114204824,-0.000573745138381,0.000170959853359,0.00116551049615,0.00342864425368,0.000111249707455,-0.00104470279517,0.573836534634,0.818937613772,0.00579337288525,0.0,0.818945186135,-0.573773389686,-0.00967606817916,0.0,-0.00460010155346,0.0102971345204,-0.999936402021,0.0,0.265862183159,-0.259534234806,0.305845258923,1.0,0.0,0.0,3.396
-0.645445585565,-0.520647199229,-0.124388314503,-2.63969058049,-0.0669311154295,2.11098125771,-0.892638651703,0.000116561025403,-0.000435878405202,0.000120533965117,-0.000433851503532,0.000203785567583,-0.000325112072366,0.000457491233086,0.57383264801,0.818940361336,0.00578995275977,0.0,0.818947927685,-0.573769584777,-0.00966965490119,0.0,-0.00459686039174,0.0102906316179,-0.999936483871,0.0,0.265864912533,-0.259534425047,0.305847751086,1.0,0.0,0.0,3.41
-0.645445585565,-0.52065498593,-0.124370244211,-2.63969213512,-0.0669281145354,2.11098130471,-0.892638910621,-0.000177988968637,-0.000832832988545,0.00144061962432,-0.000827666336105,-6.191208639e-05,2.69268394606e-05,-0.000834040836281,0.573821249175,0.818948371853,0.00578663422827,0.0,0.81895592085,-0.573758240639,-0.00966581107711,0.0,-0.00459575965281,0.0102856441801,-0.999936540245,0.0,0.265868579555,-0.259531166813,0.305849218964,1.0,0.0,0.0,3.429
-0.645443079874,-0.520647199194,-0.124365714977,-2.63968951958,-0.0669279955704,2.11097963325,-0.892633421818,0.000398540677689,0.000886255283306,0.000483184466574,0.000921619824873,-4.22819268406e-05,-0.000111159875461,0.00112920055005,0.573820690895,0.818948778065,0.00578450576198,0.0,0.818956273121,-0.573757620565,-0.00967276901613,0.0,-0.00460268672011,0.0102878903542,-0.999936485276,0.0,0.265870391251,-0.259529798477,0.305847503375,1.0,0.0,0.0,3.443
-0.645445585565,-0.52064932991,-0.124364676308,-2.63969893739,-0.0669218941561,2.11098341115,-0.892634250989,-0.00367261061134,-0.00105198441919,-0.000519631382737,-0.00188211217321,0.000294933613427,-0.000347609503799,0.00163124052023,0.573823473578,0.818946789287,0.00579002489095,0.0,0.818954328054,-0.573760348127,-0.00967565909641,0.0,-0.00460185185405,0.0102940844489,-0.999936425372,0.0,0.265868986974,-0.259527779142,0.305844354543,1.0,0.0,0.0,3.463
-0.645448343133,-0.520649330218,-0.12436246506,-2.63969439315,-0.0669226042827,2.11098071058,-0.892641337858,0.000862335692418,-0.00125271697566,0.000654935971066,-0.000153105478389,-0.00017388825409,-7.55475100109e-05,-7.23573176097e-07,0.573818270864,0.818950448769,0.00578803807959,0.0,0.818957974716,-0.573755172472,-0.00967391397709,0.0,-0.00460162800186,0.0102914266759,-0.999936453759,0.0,0.265869305444,-0.259528878899,0.305846242897,1.0,0.0,0.0,3.477
-0.645450875314,-0.520649329788,-0.124361798566,-2.63968656634,-0.0669186589605,2.11098332218,-0.892639817921,-0.00154041292901,0.000283526483073,0.000400450719104,0.000508894861239,9.4472689019e-05,-0.000487612051551,-0.000966932578775,0.573823155424,0.81894701487,0.00578964902909,0.0,0.818954606767,-0.573760159346,-0.0096632553247,0.0,-0.00459191256115,0.0102866574561,-0.999936547496,0.0,0.265871360754,-0.259531360587,0.30585004768,1.0,0.0,0.0,3.497
-0.645448603628,-0.520651861551,-0.124367015241,-2.63968351671,-0.0669196851098,2.110983222,-0.892637474249,0.000159267548505,-0.00301715234885,-0.00108894940705,0.000930769897436,0.000191377907262,-0.000281837735397,0.00129528407932,0.573826604827,0.81894458948,0.00579084235837,0.0,0.818952218828,-0.573763659134,-0.00965782759785,0.0,-0.00458673906532,0.010284539628,-0.999936593024,0.0,0.26587146806,-0.259532811695,0.305852236546,1.0,0.0,0.0,3.51
-0.645449185694,-0.520647183112,-0.124359211068,-2.63968629176,-0.0669164911858,2.11098553989,-0.892638187815,-0.00054688081378,-0.000408828102639,0.00162783281938,0.000874868175671,8.87407188829e-05,7.136105041e-05,0.00140413099692,0.573822216014,0.818947670747,0.00578998178031,0.0,0.818955268151,-0.573759223231,-0.00966278562652,0.0,-0.00459134873067,0.0102866551925,-0.999936550108,0.0,0.265872922513,-0.259530465807,0.305849634335,1.0,0.0,0.0,3.527
-0.645448369981,-0.520641894416,-0.124361716722,-2.63968629161,-0.066916491131,2.1109816824,-0.892649000117,0.000249889414237,0.00134095256079,0.000135468702683,0.000845275981295,0.000159447727381,0.000201450650751,-0.00128563324845,0.573814495329,0.818953066692,0.00579192605449,0.0,0.818960642088,-0.573751400772,-0.00967180041769,0.0,-0.0045977134458,0.0102933769355,-0.999936451692,0.0,0.265871863199,-0.259530175824,0.305847295279,1.0,0.0,0.0,3.544
-0.645445611567,-0.520645754757,-0.124367006437,-2.63969408697,-0.0669164517012,2.11098086326,-0.892645285947,0.000221439392413,-0.000929108977256,-0.00186444214149,-0.00180553673675,-4.91450139929e-06,-0.000139733680919,0.000637213800553,0.573819245405,0.81894972915,0.00579324002339,0.0,0.818957322204,-0.573756153284,-0.00967098125924,0.0,-0.00459622886364,0.0102940096965,-0.999936452003,0.0,0.265871110773,-0.259530538747,0.305847990089,1.0,0.0,0.0,3.565
-0.645445819568,-0.5206486169,-0.124359184437,-2.63968879726,-0.066915774024,2.11098562181,-0.892648552662,4.32627853303e-05,-0.00134968771299,0.00181439663193,0.000370980136233,0.000221623186745,0.000273798244046,-0.000868680857076,0.573811134211,0.818955428448,0.00579097332619,0.0,0.818963031354,-0.573748128153,-0.00966362336163,0.0,-0.00459160510702,0.0102878858251,-0.99993653627,0.0,0.265873332935,-0.259528889001,0.305849030384,1.0,0.0,0.0,3.578
