imanlab/proactive-slip-control/data_set/data_sample_2022-02-22-08-10-01/robot_state.csv
position_joint1,position_joint2,position_joint3,position_joint4,position_joint5,position_joint6,position_joint7,velocity_joint1,velocity_joint2,velocity_joint3,velocity_joint4,velocity_joint5,velocity_joint6,velocity_joint7,ee_T_00,ee_T_10,ee_T_20,ee_T_30,ee_T_01,ee_T_11,ee_T_21,ee_T_31,ee_T_02,ee_T_12,ee_T_22,ee_T_32,ee_T_03,ee_T_13,ee_T_23,ee_T_33,v_x,v_y,time
0.46506953917,0.547739439957,-0.124008875817,-1.35582922904,0.0795375844373,1.89412840335,0.15913818359,0.000401447935326,-0.000641368527962,6.00758154908e-05,4.9090084484e-05,0.000180978825814,0.000279748983349,0.000208336819599,0.573816038574,0.818969968882,0.00202258386279,0.0,0.818927568157,-0.573756970982,-0.0118879461469,0.0,-0.00857556440155,0.00847800707688,-0.999927288902,0.0,0.661688260444,0.260884946916,0.303248911222,1.0,0.0,0.0,0.0
0.465070200436,0.547741608662,-0.124006634714,-1.35582393939,0.0795368723604,1.89412758954,0.159131120364,0.000294702778845,0.00119031461566,0.000315815653799,0.000629560456358,-0.000236687335493,3.60317991194e-05,-0.00185541106951,0.573807667447,0.818975829077,0.00202461552492,0.0,0.818933453645,-0.573748591442,-0.0118869348739,0.0,-0.00857365710734,0.00847900300428,-0.999927296813,0.0,0.661688606491,0.260887110677,0.303249746325,1.0,-0.00024,-0.000315428571429,0.013
0.465066952915,0.547736023053,-0.124009167046,-1.35582429592,0.0795375844373,1.89412770875,0.159138196756,-0.00218382254056,-0.00168626512142,0.0015780267388,0.00046869057488,0.00010248357926,7.64137402366e-05,0.000914796463968,0.573818090315,0.818968515399,0.00202901781265,0.0,0.818926204783,-0.573759002487,-0.0118838161467,0.0,-0.0085684690003,0.00848092782784,-0.99992732496,0.0,0.66169008587,0.260883651944,0.303253629081,1.0,-0.00052,-0.000683428571429,0.027
0.465066269829,0.547713807054,-0.124002133133,-1.35584530425,0.0795362618445,1.89413189733,0.159137488255,0.000111918743143,-0.00495549577224,-0.000330247085636,-0.00145939578285,-0.00027299794475,-0.000300718721172,-0.000933185583447,0.573818481054,0.818968217259,0.00203882848825,0.0,0.818926044351,-0.57375936314,-0.0118774574081,0.0,-0.00855762794501,0.00848531768638,-0.999927380557,0.0,0.661689096269,0.260880703055,0.303262919873,1.0,-0.00086,-0.00113028571429,0.044
0.465063819148,0.547629419408,-0.124008997408,-1.35593194435,0.0795339829579,1.89415565178,0.159132219489,-0.00158721704762,-0.00494564535428,-0.000276537847949,-0.00981464427124,-0.000235057921947,0.00498641522394,-0.00159202153082,0.573820571795,0.818966711975,0.00205498476435,0.0,0.818924698753,-0.573761337794,-0.0118748442628,0.0,-0.00854619589436,0.00849707129892,-0.999927378521,0.0,0.661674783004,0.260871617667,0.303280326015,1.0,-0.00122,-0.00160342857143,0.062
0.465063502822,0.547511359419,-0.124009472962,-1.35608958893,0.0795343759345,1.89418455576,0.159135726956,-0.00243168192528,-0.00539874723188,-0.000455180873384,-0.0082110217633,-2.34612921754e-05,-5.90416242259e-06,-0.000488378772572,0.573832739494,0.818958192388,0.00205258542363,0.0,0.818916022642,-0.573773389225,-0.0118908611782,0.0,-0.00856056409863,0.0085044242726,-0.999927193105,0.0,0.661647693386,0.260855994799,0.303291451422,1.0,-0.00152,-0.00199771428571,0.077
0.465047074098,0.547364964945,-0.12400982266,-1.35630856903,0.0795319709896,1.89427923816,0.159129608798,-0.00221364871082,-0.00975509145676,1.59338767449e-05,-0.00981299007613,-0.000136307094861,0.0072426038199,0.0005475734241,0.573853144774,0.818943833968,0.00207652089224,0.0,0.81890189946,-0.573793618603,-0.0118873551874,0.0,-0.0085437462896,0.00852222713952,-0.999927185371,0.0,0.661624737621,0.260826894838,0.30329915577,1.0,-0.00186,-0.00244457142857,0.094
0.465032089706,0.547156132271,-0.124008028524,-1.35652652777,0.0795301769984,1.89439825906,0.159118853808,-0.00336388125897,-0.010059506937,-0.000404806539992,-0.0119119572029,0.000635563969197,0.00497108440841,0.00086803514752,0.573867223304,0.818933707971,0.00217689374111,0.0,0.818893028085,-0.573807241581,-0.011840817726,0.0,-0.008447890021,0.00857786544802,-0.999927524063,0.0,0.661607617685,0.260802699465,0.303353611855,1.0,-0.00222,-0.00291771428571,0.112
0.465015910081,0.546963270547,-0.124004534283,-1.35676859485,0.0795264685828,1.89451585236,0.159110139787,-0.00202372652013,-0.00789199573245,0.000847265512028,-0.0126651294743,-0.000283016207417,0.00723540983123,0.00102611965457,0.573883587613,0.818922066043,0.00224154351949,0.0,0.818882155458,-0.573823277577,-0.0118156034753,0.0,-0.00838997009331,0.00861650679549,-0.999927679491,0.0,0.661584275784,0.260775209993,0.303385088827,1.0,-0.00254,-0.00333828571429,0.128
0.464981706483,0.546728667981,-0.124009823997,-1.35710464354,0.079518322141,1.89464278627,0.159084277592,-0.00415531817301,-0.0155892235424,0.000221568214035,-0.0147062391863,0.000494349696705,0.00557378284542,0.000109237802953,0.573913533008,0.818900994148,0.00227273304563,0.0,0.818861382031,-0.573852988105,-0.0118123648068,0.0,-0.00836910376533,0.00864049569852,-0.999927647351,0.0,0.661546559053,0.260719351954,0.303403923292,1.0,-0.0029,-0.00381142857143,0.146
0.464943369556,0.546446981149,-0.124007318355,-1.357510955,0.0795112990331,1.89479795317,0.158992994366,-0.00133375189394,-0.0181852586116,-0.000376154133289,-0.0268263306859,7.62829014077e-05,0.0107764419936,-0.00872638262337,0.573886519269,0.818919833559,0.00230566828709,0.0,0.818880518532,-0.573825714938,-0.011810679371,0.0,-0.00834910857771,0.00866622336859,-0.999927591858,0.0,0.661504255456,0.2606609682,0.303421952191,1.0,-0.00322,-0.004232,0.162
0.464904777701,0.546183494599,-0.124009475518,-1.35794789313,0.0795031583243,1.89493849402,0.158916647325,-0.00259239060553,-0.0173030884594,0.000312798444821,-0.0267673802874,0.000262514461637,0.0145612424718,-0.00286545124105,0.573879295112,0.818924946751,0.0022876041991,0.0,0.818885210384,-0.573818368561,-0.0118422555947,0.0,-0.00838541066801,0.00866947745339,-0.999927259879,0.0,0.661449960064,0.260594000812,0.303412823156,1.0,-0.00354,-0.00465257142857,0.178
0.464851578711,0.545867553747,-0.124012218404,-1.35847133187,0.0794838854278,1.89512406375,0.158885086859,-0.00219652423699,-0.022920388783,-0.00142164632958,-0.0316949302202,0.000257631115843,0.0175796732113,-0.00206146047697,0.57392308395,0.818894296479,0.00227416019096,0.0,0.818854275853,-0.573862091654,-0.0118626127759,0.0,-0.00840933352535,0.00867060004034,-0.999927049241,0.0,0.661390698028,0.260508710187,0.303403556797,1.0,-0.00388,-0.00509942857143,0.195
0.464787289363,0.545525220097,-0.124007701207,-1.35906955813,0.0794283957341,1.8953132759,0.158803066364,-0.00452572149093,-0.0236204109569,0.000728233863359,-0.0391860157152,-0.0087876292566,0.012630463924,-0.00630549882512,0.573923973527,0.81889385479,0.00220773614497,0.0,0.818853063343,-0.573863340433,-0.0118858765848,0.0,-0.0084664954614,0.00862956716967,-0.999926921842,0.0,0.661318873279,0.260406137131,0.303377365394,1.0,-0.00422,-0.00554628571429,0.212
0.464726219304,0.545156098315,-0.124010517569,-1.35972017732,0.0793413126784,1.89551516322,0.158713711205,-0.00307651661387,-0.022247556125,0.000132178762875,-0.0395691430935,-0.00134845829525,0.00763251680628,0.000111627316226,0.573915803876,0.81889983069,0.00211287929753,0.0,0.818858180634,-0.573855933626,-0.0118909356889,0.0,-0.00852516103625,0.00855470911687,-0.999927066631,0.0,0.661240785418,0.260291328417,0.303346459697,1.0,-0.00454,-0.00596685714286,0.228
0.464653335563,0.544711962556,-0.124010808645,-1.36047359807,0.0793267577294,1.89576099048,0.158644504548,-0.00486702172301,-0.0281726072721,0.00222985706587,-0.0474088758807,0.000508040996423,0.0147113996034,-0.00524316893005,0.573957054224,0.818871015097,0.00207543791923,0.0,0.818828545895,-0.573897000739,-0.0119495553364,0.0,-0.00859422237661,0.00855812416407,-0.999926446221,0.0,0.661148160336,0.260173687707,0.303323556296,1.0,-0.0049,-0.00644,0.246
0.464590681037,0.544259760341,-0.124019027876,-1.36122402465,0.0792999530466,1.8960321212,0.158531458213,-0.000697193630476,-0.0317241472873,-0.000929589003064,-0.0484150437299,-0.000351948857772,0.0187972424996,-0.00659302889916,0.573956286569,0.818871592452,0.00205987476565,0.0,0.818828773352,-0.573896151732,-0.0119747175043,0.0,-0.00862376782511,0.00855981392204,-0.999926177382,0.0,0.661061231899,0.260058422108,0.303310179861,1.0,-0.00524,-0.00688685714286,0.263
0.464521721472,0.543794246082,-0.124017319439,-1.3619929028,0.079267843964,1.89630686604,0.1584468712,-0.0016620003526,-0.0218531654936,0.000124644270595,-0.0536540312359,-0.00222744831922,0.0246578192273,-0.00302279622347,0.573976592277,0.818857401978,0.00204295005262,0.0,0.818814200484,-0.57391636579,-0.0120023775098,0.0,-0.00865591984881,0.00856204510215,-0.999925880471,0.0,0.66097068768,0.259942114832,0.303297372052,1.0,-0.00556,-0.00730742857143,0.279
0.464450344432,0.543266427871,-0.124023632786,-1.36284073366,0.0792129011957,1.89659302047,0.158338218657,-0.00787304789094,-0.0326851893093,2.07307329229e-05,-0.0521330605612,-0.00331135792455,0.0148282628265,-0.00340364780455,0.573982910863,0.818853052419,0.00201084123657,0.0,0.81880944903,-0.573922836479,-0.0120171065086,0.0,-0.00868634387867,0.00854427408274,-0.99992576865,0.0,0.660869514701,0.259808094508,0.303292225457,1.0,-0.0059,-0.00775428571429,0.296
0.464380396582,0.542676586749,-0.124028914937,-1.36378515133,0.0791635863119,1.89692726186,0.158209381617,-0.00205607068834,-0.0311180902215,-0.000510629653354,-0.0547845350812,-0.00519767199832,0.0240820121206,-0.00373691062508,0.573977722919,0.818856724315,0.00199638106663,0.0,0.8188128547,-0.573917634788,-0.0120334683015,0.0,-0.00870809579345,0.00854176967028,-0.999925600852,0.0,0.660756261126,0.259669145298,0.303289068169,1.0,-0.00626,-0.00822742857143,0.314
0.464303774722,0.542115414782,-0.12401869332,-1.3646527477,0.0791269554317,1.89724521675,0.158099380298,-0.00373052577352,-0.0342042433899,0.00170684329256,-0.0567902950839,-0.0011833853319,0.015695882628,-0.00785138340505,0.573981667043,0.818853908376,0.00201730927582,0.0,0.818810104856,-0.573921285243,-0.0120464696816,0.0,-0.00870668967938,0.00856641089945,-0.999925402297,0.0,0.660654044143,0.259544471365,0.303300217762,1.0,-0.00658,-0.008648,0.33
0.464228864874,0.541524357688,-0.124033882909,-1.36555167711,0.0790716439259,1.8975680177,0.157982510302,-0.0100828310402,-0.0387025674431,-0.0013354503313,-0.0522452406103,-0.00528526404975,0.0211973061419,-0.0077724850931,0.573993027778,0.818845922852,0.0020262262836,0.0,0.818802302798,-0.573932672423,-0.0120342577703,0.0,-0.00869145278129,0.00856682373955,-0.999925531317,0.0,0.660552640426,0.259400188188,0.303318733422,1.0,-0.0069,-0.00906857142857,0.346
0.464136432995,0.540813171844,-0.124029692075,-1.36664544448,0.0789981201596,1.89797610311,0.157832061539,-0.00658459989847,-0.0421630134064,-0.00153440379171,-0.0648355453858,-0.000445258692221,0.0199026915186,-0.00485479639377,0.57398363,0.818852464523,0.00204468531057,0.0,0.818809128142,-0.573923239481,-0.012019723593,0.0,-0.00866905477603,0.00857349664237,-0.99992566856,0.0,0.660427397872,0.259236862888,0.30333609103,1.0,-0.00726,-0.00954171428571,0.364
0.464046420912,0.540146429263,-0.124027225143,-1.36768637037,0.0789319906592,1.89835352832,0.157714519461,-0.00502220560155,-0.04423900462,8.23830241178e-05,-0.0674580934004,-0.0130342769221,0.0236766219503,-0.00560897244793,0.573999307389,0.818841471849,0.00204597139009,0.0,0.818798150028,-0.573938907243,-0.0120194493932,0.0,-0.00866792793255,0.00857455830294,-0.999925669225,0.0,0.660306222544,0.259078951624,0.303344487299,1.0,-0.00758,-0.00996228571429,0.38
0.463944361934,0.539393540348,-0.124034648972,-1.36883425876,0.0788747823588,1.89878565324,0.157570631549,-0.00698407259838,-0.0474384369298,-0.000979475387632,-0.065841518074,-0.000619633710906,0.0166559046906,-0.00892935960559,0.574018531842,0.818827904127,0.00208216869658,0.0,0.81878498593,-0.573957908149,-0.0120088879338,0.0,-0.00863830166232,0.00859833823241,-0.999925721403,0.0,0.660178193371,0.258900947259,0.303367830009,1.0,-0.00792,-0.0104091428571,0.397
0.463829583379,0.538640126908,-0.124032967661,-1.37000298949,0.0788070281914,1.89924182863,0.157420262797,-0.00592665396957,-0.0450172062041,-0.000270068373353,-0.0711171414848,-0.00979195423977,0.0295525479186,-0.00627980126947,0.574034840808,0.818816379936,0.00211763716524,0.0,0.8187739158,-0.5739740578,-0.0119917754915,0.0,-0.00860375904931,0.0086177289273,-0.99992585229,0.0,0.66005171297,0.258717297326,0.303383270784,1.0,-0.00826,-0.010856,0.414
0.46372181633,0.537909619496,-0.124041687569,-1.37114692398,0.0787390477473,1.89969004608,0.157287156331,-0.00427795978928,-0.044589908464,-0.000102063846984,-0.0714604711794,-0.00678852199162,0.0295789583964,-0.0114192608585,0.574065343331,0.818794926417,0.00214405255466,0.0,0.818752867167,-0.574004507457,-0.0119714170356,0.0,-0.00857160473014,0.00862799092275,-0.999926039947,0.0,0.659929120891,0.258534320137,0.303393861661,1.0,-0.00858,-0.0112765714286,0.43
0.463608318755,0.537091032638,-0.12404460103,-1.37241705831,0.0786587078477,1.90015479072,0.157128831402,-0.0047334962925,-0.0459115894184,-0.00108945029332,-0.0720634046816,-0.00742417135441,0.0219954853201,-0.00891301601428,0.574079128069,0.818785239608,0.00215244445125,0.0,0.818743317816,-0.57401828409,-0.011963944312,0.0,-0.00856052335627,0.00863071639837,-0.999926111357,0.0,0.659783484287,0.258336250913,0.303407675155,1.0,-0.00892,-0.0117234285714,0.447
0.463475235969,0.536190661755,-0.124049573051,-1.37382446783,0.0785892146205,1.90068064758,0.156962497464,-0.00776805210787,-0.0507916812168,0.000843456724981,-0.0759470585899,-0.00508303527294,0.0286962308982,-0.00543993855684,0.574114297476,0.818760520529,0.00217493870847,0.0,0.818718772136,-0.574053235432,-0.011966701437,0.0,-0.00854949669939,0.00865108409764,-0.999926029689,0.0,0.659624976311,0.258114752494,0.303419127076,1.0,-0.00928,-0.0121965714286,0.465
0.463371521707,0.535353168289,-0.124063786281,-1.37514539802,0.0785058294818,1.90115995408,0.156795145689,-0.00439266359667,-0.0551846877112,0.00081756687586,-0.0811559114667,-0.00593113857792,0.0301975499735,-0.00856173407716,0.574122362889,0.818754889498,0.00216569979884,0.0,0.818713092727,-0.574061410683,-0.011963087506,0.0,-0.00855175635524,0.00864152922287,-0.999926092987,0.0,0.659470565959,0.257911324064,0.303423424277,1.0,-0.0096,-0.0126171428571,0.481
0.463250246849,0.53446533054,-0.124067345545,-1.3765887567,0.0784298024329,1.90168583163,0.156608444014,-0.00966114352348,-0.056105952314,-0.000486711956711,-0.0893036375887,-0.0047438748755,0.0380369925508,-0.0224049789987,0.574130127736,0.818749499993,0.0021446649966,0.0,0.818707309951,-0.574069141466,-0.0119878417774,0.0,-0.00858401873683,0.00863860036085,-0.999925841853,0.0,0.659299681966,0.257692984843,0.303408534224,1.0,-0.00994,-0.013064,0.498
0.463121445993,0.533536860983,-0.124068001223,-1.37805613271,0.0783471694234,1.90222313914,0.156428058399,-0.00745706477496,-0.0595012136773,0.00106945367894,-0.0856731475701,0.000604060184037,0.0335534154509,-0.0087991525496,0.574146537158,0.818737989835,0.00214587310334,0.0,0.818695737541,-0.574085465281,-0.0119964489015,0.0,-0.00859019928775,0.0086447031953,-0.999925736034,0.0,0.659127838183,0.257468785528,0.303411567184,1.0,-0.01028,-0.0135108571429,0.515
0.462994782846,0.532640786308,-0.124070546191,-1.37949084068,0.078269685106,1.90276460683,0.156251860867,-0.00926726552485,-0.0580421028281,-0.000852917285261,-0.0909896627054,-0.00246770445355,0.0388876233389,-0.0151401960316,0.574165549778,0.818724642857,0.00215116898141,0.0,0.818682384079,-0.574104377355,-0.0120026997739,0.0,-0.00859207598116,0.00865282745852,-0.99992564964,0.0,0.658962805536,0.257249478186,0.303407555775,1.0,-0.0106,-0.0139314285714,0.531
0.462861271676,0.531660666137,-0.124068040588,-1.38105297429,0.0781743504968,1.90333724496,0.156061655377,-0.010018424733,-0.0618049457467,-0.000179292684872,-0.0903897025913,-0.0097728196757,0.0267554110679,-0.0105691510252,0.574177001361,0.818716634816,0.00214240138736,0.0,0.818674226464,-0.574115828692,-0.0120113725681,0.0,-0.00860408963597,0.00865074923568,-0.999925564319,0.0,0.658777710943,0.257013836443,0.303404463327,1.0,-0.01094,-0.0143782857143,0.548
0.462714527106,0.530535768923,-0.124072677095,-1.38286662088,0.0780669202753,1.90397397145,0.155822166614,-0.0086713220472,-0.0617149781787,0.000371490654069,-0.0904528516799,-0.00630753497627,0.0399213253461,-0.0154822514035,0.574174071575,0.818718803757,0.00209828662695,0.0,0.818675737764,-0.574113003199,-0.0120433739597,0.0,-0.00865564973261,0.00863297562584,-0.999925272938,0.0,0.658555738856,0.256739802493,0.303389243804,1.0,-0.01132,-0.0148777142857,0.567
0.462599069859,0.529684179897,-0.124066312742,-1.38422550327,0.0779821292708,1.90447007932,0.155646602891,-0.0137850319043,-0.0617579906837,0.00128747825272,-0.0962608328775,-0.014235223991,0.0378722658335,-0.0176255705565,0.574171402829,0.818720700903,0.00208829775855,0.0,0.818677463888,-0.574110336824,-0.0120531396363,0.0,-0.00866940851456,0.00863037656779,-0.999925176179,0.0,0.658392492631,0.256537304722,0.303385143591,1.0,-0.0116,-0.0152457142857,0.581
0.462470421158,0.528594437628,-0.124072298365,-1.38591043003,0.0778719847029,1.90511110392,0.155419794465,-0.0122310606806,-0.0658032864996,-0.000882326461512,-0.101864045893,-0.00955014314945,0.0417324902005,-0.0101584547873,0.574159562603,0.818728918511,0.00212168983712,0.0,0.818686280296,-0.574098519507,-0.0120171234923,0.0,-0.00862087350461,0.00863691101605,-0.999925539382,0.0,0.65818597873,0.256270190246,0.303408374247,1.0,-0.01196,-0.0157188571429,0.599
0.462315744944,0.527348750205,-0.124074428645,-1.38783679445,0.0777508146141,1.90585130113,0.155151362431,-0.00365147757794,-0.0721426550251,-0.000487427785914,-0.100648752769,-0.00683710718014,0.0356090527145,-0.020106503343,0.57413520456,0.818745870678,0.00217095243398,0.0,0.81870387765,-0.574073961509,-0.0119914277258,0.0,-0.00857180970387,0.00866223476104,-0.999925742127,0.0,0.657985510572,0.256017290417,0.303431488533,1.0,-0.0123,-0.0161657142857,0.616
0.462180696762,0.526332199524,-0.124069402014,-1.38943323696,0.0776523818564,1.9064532734,0.154928198191,-0.0114811326754,-0.0653275187251,0.00161782021574,-0.106373960458,-0.00824030041078,0.0464213425322,-0.0121712860376,0.574121356274,0.818755543093,0.002185366505,0.0,0.818713731731,-0.574060048943,-0.0119846812258,0.0,-0.00855815735402,0.00867001793107,-0.999925791612,0.0,0.657782971361,0.255767232291,0.303438047839,1.0,-0.01262,-0.0165862857143,0.632
0.462029853297,0.525148849929,-0.124080127675,-1.39126181906,0.0775320087721,1.90710650456,0.154688423679,-0.00928866833608,-0.0658775259243,-0.000276800603859,-0.109394445075,-0.00757072025203,0.0352701466764,-0.00820585217449,0.574122002676,0.818755090021,0.00218529378256,0.0,0.818713356853,-0.57406077575,-0.0119754731333,0.0,-0.00855065276583,0.00866467864864,-0.999925902095,0.0,0.657562839249,0.255485149331,0.303457058297,1.0,-0.01296,-0.0170331428571,0.649
0.461858907415,0.523904020805,-0.124086499878,-1.3932730802,0.0774140608413,1.90782416473,0.154417466219,-0.00416202875363,-0.0677369692619,-0.000583784141549,-0.109982976109,-0.00232426447655,0.040901426326,-0.0132953748278,0.574120879088,0.818755986792,0.00214410552448,0.0,0.818713631447,-0.574059737361,-0.0120064368646,0.0,-0.00859966297886,0.00864872102228,-0.999925619944,0.0,0.657317634511,0.255176295141,0.303437540984,1.0,-0.01332,-0.0175062857143,0.667
0.461715722135,0.522823954768,-0.124095075868,-1.39497122269,0.0773099589774,1.90847460611,0.154183211337,-0.0113889169081,-0.0732561563797,-0.00124273803086,-0.112498935202,-0.00734811309784,0.0441823297521,-0.0182238768193,0.57411555559,0.818759657715,0.00216763233823,0.0,0.818717666301,-0.574054374168,-0.0119877139593,0.0,-0.00857088276878,0.00865717862685,-0.99992579386,0.0,0.657120402051,0.254917095831,0.30344513368,1.0,-0.01362,-0.0179005714286,0.682
0.461557749459,0.521594166542,-0.124098555678,-1.39692104998,0.077195269367,1.90923645817,0.153915609789,-0.0122547264417,-0.0732517917927,-0.00253953868925,-0.114352845901,-0.00880502320351,0.0476196909747,-0.0126092853246,0.574101993847,0.818769075695,0.00220187384103,0.0,0.818727541039,-0.574040683387,-0.0119688872487,0.0,-0.0085359539288,0.00867426379558,-0.999925944577,0.0,0.656892695238,0.254629098728,0.30344736986,1.0,-0.01396,-0.0183474285714,0.699
0.461381254615,0.52024526359,-0.124103186941,-1.39907569685,0.077061459477,1.91003008336,0.153627667473,-0.00968919060066,-0.0784145912089,-0.000415722520264,-0.11611876108,-0.00425397345539,0.0465514673743,-0.0149732826978,0.574092919226,0.818775476316,0.00218777951977,0.0,0.818733759852,-0.574031669831,-0.0119757843496,0.0,-0.00854978841403,0.0086665888079,-0.999925892932,0.0,0.656631444916,0.25430467334,0.303438205773,1.0,-0.01432,-0.0188205714286,0.717
0.46121817791,0.518999164358,-0.124106485438,-1.4010134765,0.0769353710693,1.91072295675,0.153365494793,-0.0106035448634,-0.077946103236,-0.000233522634716,-0.122036901479,-0.00905185155586,0.0430952801197,-0.0184860781078,0.574082979842,0.818782454504,0.00218434274881,0.0,0.81874071686,-0.574021769808,-0.0119746917472,0.0,-0.00855097184282,0.00866304385937,-0.999925913531,0.0,0.656393720904,0.254008717996,0.303450867351,1.0,-0.01464,-0.0192411428571,0.733
0.461040248755,0.517644785822,-0.124113642666,-1.40313942199,0.0767986955422,1.91148550829,0.153072549634,-0.0102141646178,-0.0788875179296,-0.00102432609484,-0.128441584515,-0.00447056427432,0.043574816885,-0.0193607235181,0.574069617375,0.818791857409,0.00217153162394,0.0,0.818749979479,-0.574008488938,-0.0119780061902,0.0,-0.00856118117964,0.00865431752548,-0.999925901737,0.0,0.656132767689,0.253682919938,0.303455766896,1.0,-0.01498,-0.019688,0.75
0.460846636897,0.516298793533,-0.124120576661,-1.40527450536,0.0766563028522,1.91227734813,0.152776774683,-0.0138523836333,-0.0781132512587,-0.00138664770822,-0.127880155168,-0.0136934890732,0.0469349848373,-0.0177664779431,0.574065390085,0.81879483992,0.00216446955674,0.0,0.818752976742,-0.574004399254,-0.0119691108552,0.0,-0.00855799592697,0.00864338459663,-0.999926023568,0.0,0.655878727972,0.253346873861,0.303452564798,1.0,-0.01532,-0.0201348571429,0.767
0.460665832911,0.514925123143,-0.124127346416,-1.40746401676,0.0765247821912,1.91310139983,0.152480388413,-0.011703973566,-0.0779570994627,-0.00142045018477,-0.128419602424,-0.00302349010986,0.0437856862347,-0.0159574444365,0.57405575496,0.818801582662,0.00216917698464,0.0,0.818759774154,-0.57399473919,-0.0119673936052,0.0,-0.00855398933752,0.00864615249422,-0.999926033921,0.0,0.655614258505,0.253017192801,0.30344527515,1.0,-0.01566,-0.0205817142857,0.784
0.460485419627,0.513593184785,-0.124125558041,-1.40959962691,0.076404788642,1.91383945873,0.152192078784,-0.00668734106126,-0.0837905766068,0.000668498378777,-0.132773563961,-0.00694885228076,0.0418586669988,-0.0178911726714,0.574045896437,0.81880862192,0.00212046117012,0.0,0.81876595325,-0.573984858469,-0.0120184420142,0.0,-0.00862385737464,0.00863546499057,-0.999925526141,0.0,0.655340824636,0.252694759645,0.303426260251,1.0,-0.01598,-0.0210022857143,0.8
0.460287748155,0.512193933174,-0.124136786029,-1.41188649606,0.076260324801,1.91465067955,0.151866848237,-0.0109285669955,-0.08368636124,-0.00109872164385,-0.137028762353,-0.00519008245201,0.050734982914,-0.0183934966575,0.574030222415,0.818819790385,0.00204976319758,0.0,0.818776185891,-0.573969473658,-0.012056020423,0.0,-0.00869537402491,0.00859898293483,-0.999925221186,0.0,0.6550555788,0.252337439054,0.303388772032,1.0,-0.01632,-0.0214491428571,0.817
0.460105127878,0.510823088226,-0.124139849799,-1.41405501683,0.0761237032089,1.91547701767,0.151559381482,-0.0104419628137,-0.0844683179401,-0.00137648444392,-0.137463584211,-0.00488151866582,0.048617528005,-0.0219375836482,0.574006835809,0.818836135536,0.00206941703699,0.0,0.818792833147,-0.573946051137,-0.0120405013293,0.0,-0.00867163079764,0.00860591959889,-0.999925367699,0.0,0.654793893732,0.252010702287,0.303388281995,1.0,-0.01664,-0.0218697142857,0.833
0.459908457245,0.509321404502,-0.124140540541,-1.41642019552,0.0759755497137,1.91635370009,0.151229236747,-0.0157335516955,-0.0918437731029,-5.93006254713e-05,-0.133863506526,-0.012700308594,0.0427327723286,-0.00546709827706,0.573981304813,0.818854010889,0.00207785410517,0.0,0.818810809871,-0.573920478784,-0.0120369668851,0.0,-0.00866416240187,0.0086105291407,-0.999925392756,0.0,0.654501524399,0.251656184308,0.303389596926,1.0,-0.01698,-0.0223165714286,0.85
0.459698580179,0.507818396866,-0.124143071714,-1.41879604673,0.0758172761528,1.91720755344,0.150902284726,-0.0133995444247,-0.0878480013526,-0.000164432032545,-0.141138790567,-0.00545033316505,0.0512739465462,-0.0228344976987,0.573967628291,0.818863656738,0.00205432432716,0.0,0.818820190199,-0.573906945512,-0.0120441236919,0.0,-0.00868367135648,0.00859522483132,-0.999925355195,0.0,0.654205377528,0.251287654676,0.303384313434,1.0,-0.01732,-0.0227634285714,0.867
0.459480612762,0.506254314621,-0.124144723694,-1.42122576057,0.0756656726582,1.91810326375,0.150570184608,-0.0106403288661,-0.0984657307028,0.00152273159912,-0.145425070395,-0.0168674378652,0.05603749174,-0.0201473040751,0.573960128662,0.818868853628,0.00207801966718,0.0,0.818825682258,-0.573899331928,-0.0120335276789,0.0,-0.00866147367704,0.00860846670625,-0.999925433807,0.0,0.653906794339,0.250912711974,0.303399152649,1.0,-0.01766,-0.0232102857143,0.884
0.459261625744,0.504632085759,-0.124152943983,-1.42369841012,0.0755108543924,1.91906289104,0.150224255306,-0.0124296910952,-0.100210927023,-0.000156086176802,-0.147347867065,-0.0128360363875,0.0597347173457,-0.0186570492696,0.573948020113,0.818877112708,0.00216596226138,0.0,0.818835189965,-0.573886958157,-0.0119765535002,0.0,-0.00856447294939,0.00864765178305,-0.999925931218,0.0,0.653613109425,0.250532767172,0.303439324454,1.0,-0.018,-0.0236571428571,0.901
0.45901329673,0.502877007373,-0.124156476258,-1.42630920029,0.0753526486605,1.92005561665,0.149866509647,-0.0148537083796,-0.101836836139,0.0014605750086,-0.142464429743,-0.00613403603447,0.0575055169508,-0.0208588134485,0.57395248835,0.818873661808,0.00228342200647,0.0,0.818833285282,-0.573890964356,-0.0119146483835,0.0,-0.00844631911141,0.00870835169351,-0.999926409444,0.0,0.653301710835,0.250123553578,0.303508555985,1.0,-0.01836,-0.0241302857143,0.919
0.458802353413,0.501261284617,-0.124162524771,-1.42871567993,0.0751944849748,1.92090836737,0.149520022398,-0.0127677048873,-0.106087481214,-0.000119191092698,-0.153757041764,-0.0170369471401,0.0551879684171,-0.0210454724946,0.573925818967,0.818892215297,0.00233258444857,0.0,0.818852514176,-0.573864139878,-0.0118851121827,0.0,-0.00839420089049,0.00873138348943,-0.999926647477,0.0,0.652997897161,0.249750443515,0.303564991272,1.0,-0.01868,-0.0245508571429,0.935
0.458564816825,0.499561908146,-0.124160732633,-1.43130039394,0.0750375452168,1.92183203816,0.149153620603,-0.0148166414672,-0.102181141914,-0.000566708911095,-0.151305480205,-0.0140453007866,0.0549003416793,-0.0164910105084,0.573908259593,0.818904416722,0.00236912320904,0.0,0.818865080543,-0.573846323866,-0.0118795351,0.0,-0.00836885224405,0.00875792419858,-0.999926627846,0.0,0.652671243829,0.249349594057,0.303600317447,1.0,-0.01902,-0.0249977142857,0.952
0.458320628803,0.497992528329,-0.12416498254,-1.43378656607,0.0748757224774,1.92276676472,0.148799703366,-0.0169255906478,-0.100840719093,-0.000843271416117,-0.154620797928,-0.0100742266268,0.0572266372012,-0.022947099086,0.57390418102,0.818907252282,0.00237698721168,0.0,0.818868085802,-0.573842285658,-0.0118674406107,0.0,-0.00835447825721,0.00875738135925,-0.9999267528,0.0,0.652369323717,0.248950876008,0.303592524108,1.0,-0.01934,-0.0254182857143,0.968
0.458056212572,0.496323739118,-0.124160718668,-1.43646243143,0.0747149498057,1.92371243611,0.148399916151,-0.0161534453999,-0.0982184439002,-0.000388251786421,-0.163203184862,-0.00903978407413,0.0592652417703,-0.0211004151034,0.573882265815,0.818922748723,0.0023288426852,0.0,0.818882768139,-0.573820367249,-0.0119140704998,0.0,-0.00842052811859,0.00874449127671,-0.999926311574,0.0,0.652028222847,0.248523879498,0.303563885643,1.0,-0.01968,-0.0258651428571,0.985
0.457790235092,0.494639984523,-0.124163223989,-1.43921031469,0.074538978152,1.92465787735,0.148017444407,-0.0180146095885,-0.0977058123534,-0.0039853645477,-0.161747529586,-0.00593854648705,0.0556330657308,-0.0248301145297,0.573879358473,0.818925075669,0.00222469345349,0.0,0.818883620232,-0.573817760431,-0.0119808693422,0.0,-0.00853503004328,0.00869750609509,-0.999925750568,0.0,0.651671435504,0.248081325865,0.303510993761,1.0,-0.0204942857143,-0.0269353469388,1.002
0.457491719884,0.492591133132,-0.12421789753,-1.4423471735,0.074355533028,1.92580444347,0.1475651966,-0.0186409676788,-0.137735838952,-0.00383242363365,-0.206417459545,-0.0107859801248,0.0760804710001,-0.0307270471307,0.573900971522,0.818909807316,0.00226919985395,0.0,0.818869020243,-0.573839279428,-0.0119480530795,0.0,-0.00848238514824,0.00871534452864,-0.999926043221,0.0,0.651288789003,0.247558100301,0.303545245334,1.0,-0.0292371428571,-0.0384259591837,1.019
0.457167459962,0.490074248543,-0.124252548519,-1.44633321728,0.074147261215,1.92731294707,0.146970049051,-0.0269748021392,-0.165733209934,-0.000438607484164,-0.274703954404,-0.0078189494558,0.0982983853943,-0.0408749099316,0.573848276161,0.81894661057,0.00231341414696,0.0,0.818906181003,-0.573786186678,-0.011950966196,0.0,-0.00845996105811,0.00875267901037,-0.99992590709,0.0,0.65078538295,0.246955909986,0.303530782242,1.0,-0.0374657142857,-0.0492406530612,1.035
0.456642212326,0.486654580114,-0.12428394448,-1.45178429625,0.0738364679843,1.92932871394,0.146181710414,-0.0331772618146,-0.213419763364,-0.00609597520116,-0.342453025953,-0.017633209311,0.12780594548,-0.0543023688392,0.573843058073,0.818950288392,0.00230580678157,0.0,0.818909531291,-0.573780764094,-0.0119817034903,0.0,-0.00848955540206,0.00876403325734,-0.999925556814,0.0,0.650100448365,0.246081462486,0.303488594148,1.0,-0.0462085714286,-0.0607312653061,1.052
0.456005531604,0.482456271807,-0.124403388531,-1.45835390365,0.0734396527579,1.93170233134,0.145162743741,-0.0422887918777,-0.255594360721,-0.00920537302886,-0.41756126415,-0.0260674204294,0.138571737485,-0.0631788038035,0.573832760771,0.818957547606,0.00229014981868,0.0,0.818916784315,-0.573770735955,-0.011966195297,0.0,-0.00848594838852,0.00874220532288,-0.999925778509,0.0,0.649279184179,0.244971880134,0.303484954125,1.0,-0.0549514285714,-0.072221877551,1.069
0.455280466084,0.477817377944,-0.124515202105,-1.4656389519,0.0730114022781,1.93425481213,0.14407690636,-0.0454149247766,-0.306268892777,-0.00814159434107,-0.47513327385,-0.0285893189351,0.177550901014,-0.0729020392635,0.573857790176,0.818940239866,0.00220614686889,0.0,0.818898250041,-0.573795974347,-0.0120242590189,0.0,-0.00858143659222,0.00870699215594,-0.999925270825,0.0,0.648342585359,0.243738658356,0.303457131557,1.0,-0.06318,-0.0830365714286,1.085
0.454307633598,0.471839053791,-0.124623954064,-1.47492312104,0.0724407177075,1.93759870586,0.142740340642,-0.0572844490229,-0.343832078296,-0.00929648078627,-0.535078253679,-0.0341335653824,0.189563513322,-0.0753778447938,0.573931799662,0.818888323392,0.00222487084237,0.0,0.818846624376,-0.573869943714,-0.0120100104751,0.0,-0.00855823560936,0.00871492269415,-0.99992540058,0.0,0.647160996982,0.242159807225,0.30346694648,1.0,-0.0724371428571,-0.0952031020408,1.103
0.453321735024,0.465809699212,-0.124672385482,-1.48400548982,0.0718896524841,1.94099743305,0.141276194428,-0.0649810552751,-0.390599082403,-0.00239843344069,-0.590648376782,-0.0336053035707,0.216234783418,-0.0890616417582,0.573854859717,0.818941391353,0.00251881103582,0.0,0.818903459426,-0.573791774762,-0.011868877691,0.0,-0.0082748014711,0.00887384706229,-0.99992638854,0.0,0.645935303213,0.240533408456,0.303599336388,1.0,-0.08118,-0.106693714286,1.12
0.452107494016,0.458807650589,-0.124733851613,-1.49489271441,0.0711852935285,1.94475549731,0.139620250866,-0.0767314554909,-0.432126501004,-0.00796916368985,-0.668176209049,-0.0407498343335,0.224891761551,-0.0974573675285,0.573858291163,0.818939322826,0.00240709256197,0.0,0.818899681114,-0.573795372899,-0.0119553006283,0.0,-0.00840964913835,0.00883198576341,-0.999925634149,0.0,0.644564928729,0.238770219101,0.303570760986,1.0,-0.0894085714286,-0.117508408163,1.136
0.45076007099,0.451045207569,-0.124872087626,-1.50671198892,0.0703790787931,1.94888126657,0.137735325727,-0.0806899622744,-0.4803911163,-0.0145177945486,-0.699970388255,-0.0488809579411,0.263548463479,-0.121984338829,0.573840595877,0.818951674566,0.00242325223242,0.0,0.818912668251,-0.573778063206,-0.0118963382281,0.0,-0.00835227794777,0.00881120341203,-0.999926298358,0.0,0.64300415443,0.236680827151,0.303639584318,1.0,-0.0981514285714,-0.128999020408,1.153
0.44927558241,0.442634927275,-0.12494739491,-1.51939762853,0.0695581370148,1.95347555895,0.135812035186,-0.0904197247139,-0.506625568357,-0.00208402701617,-0.782874642984,-0.0414682451569,0.267361099496,-0.121436599527,0.573884081841,0.818920390479,0.00268357374391,0.0,0.818884811898,-0.573820608695,-0.011760985538,0.0,-0.00809157673792,0.00894715242792,-0.999927234777,0.0,0.641327457202,0.23448011097,0.303763381708,1.0,-0.106894285714,-0.140489632653,1.17
0.447712616244,0.434172768222,-0.124989829788,-1.53225018484,0.0686806966632,1.95792489224,0.133701494359,-0.103488765872,-0.550205618592,-0.00328724325985,-0.771282783863,-0.0521834707204,0.295585481162,-0.134822557309,0.573791054426,0.818985459015,0.00271858128424,0.0,0.818950191815,-0.573727307814,-0.011760378192,0.0,-0.00807200982171,0.00897455525543,-0.999927147354,0.0,0.639565216989,0.232217396251,0.303812749128,1.0,-0.115122857143,-0.151304326531,1.186
0.44590948001,0.424603745159,-0.125058864288,-1.54672973233,0.067656284714,1.96304850496,0.131334256977,-0.110321074143,-0.570215941651,-0.00277499161477,-0.876688491037,-0.0674227975734,0.305709202206,-0.138448767669,0.573719358297,0.819035217576,0.00285607890999,0.0,0.819002086362,-0.573655535397,-0.0116471517236,0.0,-0.00790117409188,0.00902150469085,-0.999928089365,0.0,0.637583846224,0.229637899928,0.303881932122,1.0,-0.123865714286,-0.162794938775,1.203
0.443777423255,0.413788516349,-0.125174516566,-1.56301687022,0.0664794167025,1.96870228341,0.128655339832,-0.122386327059,-0.618045967796,-0.00587813542341,-0.931527544073,-0.0654418538319,0.335370069582,-0.151001610408,0.573710835183,0.819040848122,0.00295188122602,0.0,0.819009436102,-0.573647248434,-0.0115379739093,0.0,-0.00775688273731,0.00903725322132,-0.999929076897,0.0,0.635322375891,0.226647793669,0.303959324818,1.0,-0.133122857143,-0.174961469388,1.221
0.441708710671,0.403755606172,-0.125240340243,-1.57839675683,0.065456606773,1.97388590406,0.126087574007,-0.132776426608,-0.640805850392,-0.00205011878992,-0.989176115109,-0.0608496074386,0.323808958161,-0.164842149304,0.573693826721,0.819053205128,0.00282617288088,0.0,0.819019326994,-0.57362970181,-0.0117070112721,0.0,-0.00796764179978,0.00903110418379,-0.999927475291,0.0,0.633105911899,0.223826988217,0.303871434387,1.0,-0.141351428571,-0.185776163265,1.237
0.439274563448,0.392351933798,-0.125374102395,-1.5952935317,0.0642635592851,1.979704771,0.123172882634,-0.143701592358,-0.678312426702,-0.00896113755909,-1.01058105002,-0.0803627326875,0.351229519053,-0.171315839365,0.573733283099,0.819024678194,0.00307299114181,0.0,0.818994154087,-0.573668505625,-0.0115658171887,0.0,-0.00770995990554,0.00915263226463,-0.999928390356,0.0,0.630708484922,0.220604133517,0.30401225104,1.0,-0.150094285714,-0.19726677551,1.254
0.436659061283,0.380565603304,-0.125502383764,-1.61305263098,0.0628949203762,1.98558375446,0.120022524205,-0.162559593346,-0.718705197473,-0.0101294359481,-1.04426414632,-0.0817274579229,0.358319403901,-0.18791142428,0.573678139137,0.819063870587,0.00291812888096,0.0,0.819031709976,-0.57361430492,-0.0115945740092,0.0,-0.00782296681244,0.00904176781105,-0.999928521258,0.0,0.628094357157,0.217169808166,0.303972390368,1.0,-0.158837142857,-0.208757387755,1.271
0.433988602141,0.3689334927,-0.12560993029,-1.63044562761,0.0616188244881,1.99133580303,0.116959144327,-0.169807414796,-0.728240669161,-0.00476448379266,-1.09821179226,-0.0765421178411,0.358470494,-0.187184266586,0.573714491747,0.819038526106,0.00288472085502,0.0,0.819005659229,-0.573650449832,-0.011646392538,0.0,-0.00788417455746,0.00904448101548,-0.999928015987,0.0,0.625495899179,0.2137761567,0.30395732034,1.0,-0.167065714286,-0.219572081633,1.287
0.430692039968,0.355314391588,-0.125812874627,-1.65057528996,0.0600252438171,1.9979966051,0.113259194847,-0.188037244854,-0.76905923754,-0.015075222558,-1.14598951111,-0.0907934113719,0.36767512533,-0.218174263086,0.573788455934,0.818986603669,0.00291508985898,0.0,0.81895491362,-0.573725207462,-0.0115318117291,0.0,-0.00777208842483,0.00900432097089,-0.99992925592,0.0,0.622488217697,0.209680917296,0.304001833697,1.0,-0.176322857143,-0.231738612245,1.305
0.427511041955,0.342649132086,-0.125964506597,-1.66908066319,0.0586763922146,2.00401172275,0.10976607247,-0.200646616593,-0.808036389171,-0.00800176004227,-1.15842604624,-0.0982192801204,0.385326765842,-0.218874852314,0.573888131774,0.818916216685,0.00306417361313,0.0,0.818885917923,-0.573823765194,-0.0115276548481,0.0,-0.00768203575859,0.00912496861032,-0.999928858107,0.0,0.619657143237,0.205879499364,0.304085213935,1.0,-0.184551428571,-0.242553306122,1.321
0.424194748627,0.329691815415,-0.126066315549,-1.68814154411,0.0571840733103,2.01008596963,0.106100822527,-0.211276574201,-0.849817053255,-0.0038873811822,-1.19175191214,-0.098000359376,0.373283902913,-0.231266642612,0.573861226932,0.818935281136,0.00300739677876,0.0,0.818903905727,-0.573796643134,-0.0115996730487,0.0,-0.00777389700459,0.00911954715547,-0.999928197615,0.0,0.616648664996,0.201973496181,0.304059081036,1.0,-0.19278,-0.253368,1.337
0.42023348935,0.314569896501,-0.126147646101,-1.71021316308,0.05530373202,2.01711497302,0.101773722739,-0.228733419585,-0.825245159225,-0.00900557983236,-1.24163843779,-0.09734139875,0.386044211843,-0.245930830643,0.573740599996,0.819019929773,0.00297076618628,0.0,0.818988635475,-0.57367680097,-0.0115451241911,0.0,-0.0077515764039,0.00905710460298,-0.999928938435,0.0,0.613105794066,0.197410383386,0.304048802749,1.0,-0.202037142857,-0.265534530612,1.355
0.416190436218,0.299756010916,-0.12626527107,-1.73151273934,0.0535089497874,2.02379026588,0.0973415779035,-0.246099169262,-0.863494225969,-0.00530136164781,-1.27498784134,-0.109729829446,0.386870376346,-0.260773437345,0.573591231879,0.81912421873,0.00305939588371,0.0,0.819094322113,-0.573527470066,-0.0114664494445,0.0,-0.00763794591582,0.00908316353861,-0.999929576481,0.0,0.609633795062,0.192885398278,0.304114359781,1.0,-0.21078,-0.277025142857,1.372
0.412075510706,0.285373383058,-0.12640883427,-1.75198860635,0.0518544710814,2.03006761866,0.0931136037726,-0.261505094395,-0.907332142857,-0.00870527649108,-1.28151462158,-0.108948789985,0.386262213043,-0.266581132814,0.573673554148,0.819066017656,0.00320295084422,0.0,0.819037465076,-0.57360872949,-0.0114631215717,0.0,-0.00755195816987,0.00919960355476,-0.999929165102,0.0,0.60623648336,0.188419916397,0.304200697141,1.0,-0.219008571429,-0.287839836735,1.388
0.407403845377,0.269717792238,-0.126578965081,-1.77428077586,0.0499462175364,2.03675759678,0.0882636218533,-0.283914295227,-0.945332996829,-0.0122492459981,-1.31575510639,-0.115541560268,0.406743823594,-0.290258674682,0.573648213968,0.819083783955,0.00319818288748,0.0,0.819054962513,-0.573583154966,-0.0114925899696,0.0,-0.0075791161705,0.00921236864161,-0.999928842099,0.0,0.602459035749,0.183455760495,0.304217634454,1.0,-0.227751428571,-0.29933044898,1.405
0.40233256855,0.253630751155,-0.126809140099,-1.79693691512,0.047905233975,2.04345744237,0.0832628244871,-0.308136513094,-0.967340193469,-0.0157320879882,-1.32969277837,-0.128005120317,0.40859029616,-0.293493047923,0.573800239849,0.818977176255,0.00322744853767,0.0,0.818949120568,-0.57373554583,-0.0114283976854,0.0,-0.00750803947012,0.00920091062061,-0.999929483807,0.0,0.598341412697,0.177903674437,0.304276687621,1.0,-0.237008571429,-0.311496979592,1.423
0.397339303094,0.238206244317,-0.126950540782,-1.81870958527,0.045977723758,2.04963046898,0.0782637068431,-0.317962987786,-0.964967384612,-0.0108257610822,-1.3554802506,-0.113790612611,0.371187488538,-0.318993551414,0.573773282026,0.81899675655,0.00304639046206,0.0,0.818965551222,-0.573708187464,-0.011622755674,0.0,-0.00777140967262,0.00916389194659,-0.999927811532,0.0,0.594702684232,0.173200626125,0.304205203609,1.0,-0.244722857143,-0.321635755102,1.438
0.391792823896,0.221383266335,-0.127071794599,-1.8421466487,0.0438352109373,2.05637206164,0.0726997267742,-0.333136694775,-0.969722566032,-0.00423411614418,-1.38460703579,-0.120237019973,0.37445790279,-0.33533080963,0.573647617208,0.819084558933,0.00310539696212,0.0,0.819053843516,-0.573582019562,-0.0116282052365,0.0,-0.00774343258135,0.00921415694489,-0.999927566659,0.0,0.590479660077,0.167776733804,0.304205884803,1.0,-0.253465714286,-0.333126367347,1.455
0.385826227,0.204068317601,-0.127272288881,-1.8659065094,0.0415281282495,2.06299707449,0.0668566753702,-0.358358359954,-0.995584691215,-0.00436710398051,-1.40846498199,-0.131707980983,0.383652219868,-0.348968880598,0.573583118028,0.819129694286,0.00311408952172,0.0,0.819099344857,-0.573517802534,-0.0115905276805,0.0,-0.00770830802493,0.00919905680397,-0.999927977077,0.0,0.585856596789,0.161735457716,0.304245067866,1.0,-0.262722857143,-0.345292897959,1.473
0.379813558676,0.187411887578,-0.12747205171,-1.88852293761,0.0393515691892,2.06908560831,0.061048354394,-0.389480121741,-1.03567006913,-0.0217487372544,-1.42058775671,-0.138323548133,0.380418986834,-0.374825954203,0.573576975892,0.81913359454,0.00321775136859,0.0,0.819104547698,-0.573511283893,-0.0115453059511,0.0,-0.00761187779741,0.00925797469728,-0.999928172031,0.0,0.581890512185,0.156507750407,0.304332438335,1.0,-0.270437142857,-0.355431673469,1.488
0.372505840411,0.168347965806,-0.127774972609,-1.91424041433,0.0368449230104,2.07586653537,0.0542256339817,-0.421396255356,-1.04837242691,-0.0148072769077,-1.44313637114,-0.147196875651,0.363268321014,-0.389882970406,0.57375628635,0.819007762591,0.00327957176776,0.0,0.81897917324,-0.5736899578,-0.0115625697278,0.0,-0.00758852307608,0.00932017748491,-0.999927771696,0.0,0.577005109094,0.149942943822,0.304373387503,1.0,-0.279694285714,-0.367598204082,1.506
0.365319764104,0.149958715809,-0.127975509106,-1.9387930125,0.0342978700713,2.08218198126,0.0474331688216,-0.432497800852,-1.07991068923,-0.0110816786858,-1.45871603339,-0.148611766614,0.359846115251,-0.397300943247,0.573678439259,0.819062130814,0.00331980367883,0.0,0.819034273244,-0.573612257096,-0.0115145413345,0.0,-0.00752698959735,0.00932485662736,-0.99992819316,0.0,0.572206823128,0.14367529585,0.304411160847,1.0,-0.288437142857,-0.379088816326,1.523
0.358134873119,0.13231877699,-0.128208136455,-1.96210492262,0.0318769919614,2.08795302075,0.0407099663129,-0.454271084029,-1.11537778666,-0.014236384224,-1.45393594771,-0.145539345345,0.346355836663,-0.433415162273,0.573655045205,0.819078367798,0.00335610166362,0.0,0.819050714568,-0.573588425586,-0.0115322114897,0.0,-0.00752090869552,0.00936450906499,-0.99992786835,0.0,0.567549757594,0.137577128905,0.304441979777,1.0,-0.296665714286,-0.389903510204,1.539
0.349966511418,0.113254549452,-0.128569679027,-1.98708155139,0.0291333746618,2.09399915537,0.0332351663879,-0.494045036682,-1.13719732173,-0.0241225859539,-1.48396069706,-0.170693030257,0.355004747772,-0.443963558712,0.573763758314,0.819002210117,0.00335803050369,0.0,0.818975081429,-0.573697741489,-0.0114657886442,0.0,-0.00746415543262,0.00932897690143,-0.99992862574,0.0,0.562490006876,0.130796535352,0.30445759366,1.0,-0.305408571429,-0.401394122449,1.556
0.341385072321,0.0938441470492,-0.128860038694,-2.01216715769,0.0263301718091,2.09983742614,0.025332579186,-0.502624119485,-1.1511315647,-0.00798114195803,-1.48528619437,-0.168153545589,0.342923609253,-0.480871083763,0.573716382569,0.819035192794,0.00340767333296,0.0,0.81900894766,-0.573650531474,-0.0114086937645,0.0,-0.00738945034824,0.0093364492224,-0.999929110857,0.0,0.557269349812,0.123922003156,0.30449370109,1.0,-0.314151428571,-0.412884734694,1.573
0.332854006437,0.0752662823897,-0.129154044657,-2.03591791528,0.0237316154457,2.10503039618,0.0174751964413,-0.546446554472,-1.19547773165,-0.0207964876288,-1.48589779787,-0.186638545343,0.352404835115,-0.498770451288,0.573676546985,0.819062993156,0.00343213960149,0.0,0.8190361309,-0.573609450724,-0.0115222055971,0.0,-0.00746884829095,0.00942124684869,-0.999927725595,0.0,0.552184702419,0.117290806181,0.30450821814,1.0,-0.31998,-0.420545142857,1.589
0.322734269243,0.0544281243466,-0.129545744606,-2.06238382363,0.0205976762885,2.11063285663,0.00843160483251,-0.574055635058,-1.18427335956,-0.030879368328,-1.47241108691,-0.181149034147,0.316887408656,-0.508719499587,0.573783383404,0.818988604319,0.00332292439839,0.0,0.818960366638,-0.573716656994,-0.0115698861321,0.0,-0.00756933355131,0.00936013200564,-0.999927543934,0.0,0.546417897368,0.109636655069,0.304462112004,1.0,-0.31998,-0.420545142857,1.607
0.312833644311,0.0349020559842,-0.129773168063,-2.08679273784,0.0177674708862,2.1154504277,-0.000305949612172,-0.583273522196,-1.17087645395,-0.013318339908,-1.42302748483,-0.173345027375,0.295312405305,-0.515130158084,0.57387253678,0.818926272753,0.00328910707938,0.0,0.818896421824,-0.573804465369,-0.0117402192556,0.0,-0.00772721843994,0.009431009001,-0.99992567032,0.0,0.540936155087,0.102485527837,0.304440901981,1.0,-0.31998,-0.420545142857,1.624
0.303244949096,0.0167115376252,-0.129987848029,-2.10911427695,0.0149958432385,2.11970075229,-0.00878085987096,-0.600961790179,-1.13859240756,-0.0138031230436,-1.36266013983,-0.163448896184,0.262973915007,-0.530938714125,0.573867044317,0.818929960059,0.00332909376211,0.0,0.818900745132,-0.573798982573,-0.0117065845336,0.0,-0.00767678999294,0.00944440226177,-0.999925932338,0.0,0.535835668168,0.0957582516056,0.304487056978,1.0,-0.31998,-0.420545142857,1.64
0.292695166831,-0.00252574092897,-0.130292284883,-2.13238927605,0.012103650016,2.12383067616,-0.0180468254844,-0.617809364465,-1.12409898215,-0.0127316491593,-1.33497130312,-0.159727243283,0.226000191932,-0.548133411356,0.573969469459,0.818857909343,0.003394014874,0.0,0.818829113068,-0.573900652434,-0.0117333554587,0.0,-0.0076602710539,0.00951388916848,-0.999925400298,0.0,0.530391869763,0.0885411236975,0.304545033378,1.0,-0.31998,-0.420545142857,1.657
0.281337313815,-0.0226257831049,-0.130491671244,-2.15645755574,0.00899833081732,2.12794557867,-0.0281358611676,-0.640120684583,-1.08515158641,-0.00942130443442,-1.31657894148,-0.166135402411,0.199198384414,-0.568070361945,0.573822214828,0.818960784383,0.00347078020109,0.0,0.818933044942,-0.57375323996,-0.0116890734535,0.0,-0.00758166734917,0.00954997048327,-0.999925655428,0.0,0.524625391946,0.0810474206978,0.304580384429,1.0,-0.31998,-0.420545142857,1.675
0.271469134378,-0.0392826608094,-0.130775443433,-2.17594200631,0.00637780269348,2.13110077732,-0.0367009139976,-0.672642937131,-1.09437006861,-0.0266116434406,-1.30207296148,-0.172811257561,0.209927268934,-0.588322814596,0.573935562005,0.81888050755,0.00366495861208,0.0,0.818856144859,-0.573867078581,-0.0114863853579,0.0,-0.00730291858374,0.00959370362445,-0.999927311474,0.0,0.519888615765,0.0746776155339,0.304702145006,1.0,-0.31998,-0.420545142857,1.69
0.26009849415,-0.0579248145719,-0.130984028141,-2.19758445265,0.00354352620669,2.13428930399,-0.0467368430487,-0.668878474889,-1.07820892017,-0.0131844901586,-1.26032791921,-0.170452412107,0.185317253683,-0.591305750443,0.573866267516,0.818928284251,0.0038365561754,0.0,0.818905838878,-0.573796899446,-0.0114495475001,0.0,-0.00717509239448,0.00971247433708,-0.999927090288,0.0,0.514468023148,0.0675933016558,0.304780985021,1.0,-0.31998,-0.420545142857,1.707
0.248347307431,-0.0762890029653,-0.131262212431,-2.21880985036,0.000643423972016,2.13716593717,-0.0570202500063,-0.704547526924,-1.0873042725,-0.0172274436159,-1.23367011874,-0.166357636815,0.171334027738,-0.619796411064,0.57388538655,0.818914842221,0.00384593229922,0.0,0.818892223627,-0.573815590507,-0.011486560603,0.0,-0.00719979766898,0.00974156087946,-0.999926629761,0.0,0.509026269776,0.0604360325348,0.304771580451,1.0,-0.31998,-0.420545142857,1.724
0.236297387147,-0.0943808648598,-0.131518730942,-2.23954694646,-0.00221572523073,2.13959736671,-0.0676301599476,-0.705538332998,-1.07909533272,-0.00869147792897,-1.19263524807,-0.166688647162,0.143558242247,-0.637177381385,0.573835940194,0.818950059985,0.0037228876187,0.0,0.818924673728,-0.573764964548,-0.0117000477612,0.0,-0.00744583568871,0.00976286040115,-0.999924620203,0.0,0.503546987274,0.0533118354566,0.304702462305,1.0,-0.31998,-0.420545142857,1.741
0.224719866721,-0.111249604089,-0.131741866314,-2.25868966795,-0.00500586529095,2.14167114886,-0.0778178763357,-0.733894007301,-1.02885531979,-0.0180263105512,-1.1854266503,-0.173343637352,0.11983748181,-0.657634791138,0.573718642878,0.819033017768,0.00354704410528,0.0,0.819004868968,-0.573647657844,-0.0118379118501,0.0,-0.00766103462208,0.00969686380852,-0.999923636775,0.0,0.498374889279,0.0466413738194,0.30461538476,1.0,-0.31998,-0.420545142857,1.757
0.211130444207,-0.130140867632,-0.132094995992,-2.27960585096,-0.0080354772104,2.14367127628,-0.08963403512,-0.748580109113,-1.04492057835,-0.0137592429476,-1.15059735616,-0.173164039309,0.0986874919067,-0.670478525967,0.573847750342,0.818942478167,0.00356704100891,0.0,0.818913994954,-0.573775923443,-0.0119082092002,0.0,-0.00770560446084,0.00975478667276,-0.999922730913,0.0,0.492604021093,0.0390076893517,0.304618597297,1.0,-0.31998,-0.420545142857,1.775
0.198882219136,-0.146773698474,-0.132337235823,-2.29769281014,-0.0107155256018,2.14524550616,-0.100492330561,-0.77340216085,-1.03834497348,-0.0170612337662,-1.11645021075,-0.17224619531,0.108567030037,-0.688007532829,0.573722937782,0.819029438217,0.00367653352063,0.0,0.819002466948,-0.573650855079,-0.0118491561506,0.0,-0.0075959073523,0.00980941156174,-0.999923035856,0.0,0.487497633585,0.0323418442781,0.30466053143,1.0,-0.31998,-0.420545142857,1.791
0.185357949404,-0.164168262316,-0.132747032679,-2.31647699867,-0.0135906005473,2.14649145853,-0.112271435237,-0.801454070268,-1.01698173211,-0.0153868945041,-1.08074671383,-0.160370405808,0.0654070787633,-0.703135557733,0.573886370299,0.818915244387,0.00360602228876,0.0,0.818886616723,-0.573813569678,-0.0119767736448,0.0,-0.00773892699276,0.00982641973581,-0.999921772182,0.0,0.482035208389,0.0251009407028,0.304632861104,1.0,-0.31998,-0.420545142857,1.808
0.171631735867,-0.181408944872,-0.133028301637,-2.33473021536,-0.016359859003,2.14753105246,-0.12444796632,-0.818560310322,-1.01449228,-0.0237600665211,-1.06229549297,-0.158957013498,0.0530452103517,-0.734914673383,0.573802097572,0.818973895908,0.00369561140557,0.0,0.818945971609,-0.573728386516,-0.0119992080066,0.0,-0.00770690934198,0.0099118676308,-0.999921176108,0.0,0.476597981014,0.0180139091735,0.304659297753,1.0,-0.31998,-0.420545142857,1.825
0.157435911232,-0.198476975293,-0.13341104389,-2.35243457454,-0.0191726266322,2.14837721958,-0.13694462415,-0.829149525335,-0.993244130617,-0.0113904403466,-1.04912624888,-0.156599820412,0.0413165438896,-0.74347856555,0.573874277915,0.818922499432,0.00387297990992,0.0,0.818897482191,-0.573800706187,-0.0118494785037,0.0,-0.00748162999041,0.00997187640631,-0.999922290427,0.0,0.471205829,0.0108253818594,0.304739878737,1.0,-0.31998,-0.420545142857,1.842
0.142050912973,-0.216212264609,-0.13379463362,-2.3706992716,-0.022036391586,2.14883532189,-0.150578102722,-0.87358031001,-0.97151190467,-0.0329959015351,-0.977222728433,-0.170467966713,0.029147854051,-0.75232032914,0.573915805508,0.818893102379,0.0039347129615,0.0,0.818867959031,-0.573840768798,-0.0119492526353,0.0,-0.00752740677669,0.0100800693961,-0.999920862043,0.0,0.465443910947,0.00326046306966,0.304747750937,1.0,-0.31998,-0.420545142857,1.86
0.12898690601,-0.23079267743,-0.134046512346,-2.38555926804,-0.0245440743458,2.14903709934,-0.162193615315,-0.877577740555,-0.967381940168,-0.0175181375935,-0.97268771939,-0.158759964623,0.00552953324764,-0.779026765196,0.573810805158,0.818966980299,0.00387194595502,0.0,0.818941119578,-0.573736143701,-0.011959388649,0.0,-0.00757301487122,0.0100335153615,-0.999920985886,0.0,0.460631864899,-0.00299290101996,0.30473436711,1.0,-0.31998,-0.420545142857,1.875
0.114653251871,-0.246246628594,-0.134407980502,-2.40091671325,-0.0270625664541,2.14914035872,-0.174962229916,-0.913123940652,-0.974822323707,-0.0345295672316,-0.948873865609,-0.15596584332,0.00725845237063,-0.795432772726,0.573843157204,0.818943280813,0.00408419422573,0.0,0.818920617559,-0.573768339338,-0.011817859881,0.0,-0.0073349168246,0.0101264238481,-0.999921824212,0.0,0.45555000546,-0.00972062031448,0.304812289607,1.0,-0.31998,-0.420545142857,1.891
0.0981715654013,-0.26325046557,-0.134748699684,-2.41787699283,-0.0299027628625,2.1489902817,-0.189734518593,-0.921289543605,-0.939270958069,-0.0226322178111,-0.938788658752,-0.153775654952,-0.00364970011724,-0.812743646738,0.573757655108,0.819003172187,0.00408705922478,0.0,0.818980058924,-0.573682169037,-0.0118818733802,0.0,-0.00738676120691,0.0101647315162,-0.99992105388,0.0,0.449757549597,-0.0172379073891,0.304758957933,1.0,-0.31998,-0.420545142857,1.909
0.0811782742077,-0.279923027229,-0.135236439914,-2.4340267091,-0.0327363563426,2.14862183079,-0.204971828554,-0.949721310329,-0.913612295341,-0.0210349484199,-0.890134442041,-0.153355696276,-0.0314680914986,-0.855961229916,0.573817705048,0.818960330653,0.00423852469088,0.0,0.818939910428,-0.573742717037,-0.0117245322616,0.0,-0.00717024219473,0.0101990375889,-0.999922280609,0.0,0.444059707655,-0.0248628560918,0.304811574761,1.0,-0.31998,-0.420545142857,1.927
0.0667907889896,-0.293651600001,-0.135534409299,-2.44714194007,-0.0349319032654,2.14803421483,-0.218009399545,-0.970739910513,-0.90150568808,-0.0278539579491,-0.859938498583,-0.154573107028,-0.0357718963444,-0.880678631305,0.573749946684,0.81900702708,0.00438579241833,0.0,0.818988160064,-0.573673981254,-0.0117176707761,0.0,-0.00708097603975,0.0103151236442,-0.999921725938,0.0,0.439270952388,-0.0311030249643,0.304847742474,1.0,-0.31998,-0.420545142857,1.942
0.0500144265552,-0.308873823124,-0.135973910175,-2.46148644,-0.0375488825952,2.14725843554,-0.233111350382,-0.987152052592,-0.877900332161,-0.0200176677667,-0.829854797336,-0.148303359595,-0.0547154516283,-0.892795283932,0.573804766139,0.818968054082,0.00449039532608,0.0,0.818951258877,-0.573729524998,-0.0115764688081,0.0,-0.00690461869074,0.010320246579,-0.999922906404,0.0,0.433870637166,-0.0382864562864,0.304893527934,1.0,-0.31998,-0.420545142857,1.959
0.0328719536137,-0.323767475159,-0.136436858018,-2.47535844773,-0.0400294404312,2.14623798409,-0.24860084626,-1.0200663098,-0.867222291672,-0.0248743494681,-0.765077431462,-0.156998615028,-0.0574436579946,-0.914390001669,0.573912105223,0.818892159509,0.0046123176123,0.0,0.818876780007,-0.573836240154,-0.0115557584104,0.0,-0.00681633619803,0.0104091098391,-0.999922591001,0.0,0.428448493397,-0.0454531505792,0.304916865677,1.0,-0.31998,-0.420545142857,1.976
0.0165268317988,-0.337461990775,-0.136745731517,-2.48797917931,-0.0423379418306,2.14516739321,-0.263654327164,-1.02706055887,-0.859265329634,-0.0244443891673,-0.791645378706,-0.1513635663,-0.0781751338666,-0.948279344776,0.573693307971,0.819045140528,0.00466830461635,0.0,0.819030645874,-0.573617561506,-0.0115083079593,0.0,-0.00674813212181,0.0104259245387,-0.999922878431,0.0,0.423036228494,-0.052505807912,0.304919540896,1.0,-0.31998,-0.420545142857,1.993
-0.00245296180109,-0.35251109306,-0.137238792112,-2.50158305341,-0.0449616474496,2.14366628389,-0.280946072211,-1.0517503248,-0.828485933057,-0.024744546495,-0.722898689233,-0.136521514963,-0.0827751768423,-0.98293615801,0.573761179785,0.818997336192,0.00471368046797,0.0,0.818983657998,-0.573685650844,-0.0114581346177,0.0,-0.00668013949591,0.0104348610121,-0.99992324176,0.0,0.417612206203,-0.059693004037,0.304958184824,1.0,-0.31998,-0.420545142857,2.01
-0.0207511850509,-0.366328979684,-0.137723039123,-2.51397965764,-0.0472465079145,2.14217430607,-0.297775049489,-1.08291887324,-0.787855282981,-0.0344037260105,-0.732180485709,-0.132682047456,-0.0916267370813,-0.995428624824,0.573809991444,0.818962382698,0.00484317505412,0.0,0.818949836149,-0.573733233183,-0.0114930376398,0.0,-0.00663380272853,0.0105613405853,-0.999922222349,0.0,0.412174851005,-0.0668490989295,0.304955389897,1.0,-0.31998,-0.420545142857,2.027
-0.0382584088162,-0.378962465181,-0.138078962298,-2.52522004798,-0.0494569269599,2.14054361609,-0.313928181897,-1.11355326614,-0.800880111012,-0.0285396936973,-0.673940512139,-0.133635480924,-0.101110612102,-1.01903690112,0.573728677009,0.819019746965,0.00477557946453,0.0,0.819005718107,-0.573651173837,-0.0116065225175,0.0,-0.00676658464756,0.0105704252108,-0.99992123662,0.0,0.407028415475,-0.0735255260006,0.30492072245,1.0,-0.31998,-0.420545142857,2.043
-0.0573297243921,-0.392012253208,-0.138539568701,-2.53648994306,-0.0517405329213,2.13889396821,-0.331532854882,-1.12823700679,-0.753137288205,-0.0289318599285,-0.665564081974,-0.131319405056,-0.110351281631,-1.04323897042,0.573767766928,0.818991591484,0.00490607938012,0.0,0.818980329816,-0.573691598264,-0.0113980856254,0.0,-0.00652048530495,0.0105580399203,-0.999923002568,0.0,0.401646154006,-0.0807078149332,0.304987011512,1.0,-0.31998,-0.420545142857,2.06
-0.0778446443257,-0.405312186872,-0.138988640274,-2.54805628139,-0.0539662950693,2.13679270007,-0.35062984858,-1.13358918647,-0.730898541179,-0.0186404272283,-0.626892846205,-0.128081371935,-0.112847870545,-1.06975228813,0.573753652492,0.819001473842,0.00490703554015,0.0,0.818988469439,-0.573674667648,-0.0116623121885,0.0,-0.00673653858739,0.0107103059477,-0.999919950993,0.0,0.395836302851,-0.0882186971117,0.304927182344,1.0,-0.31998,-0.420545142857,2.078
-0.0953026069856,-0.416096029159,-0.139402198472,-2.55699619461,-0.0557992245084,2.13522070609,-0.366953221176,-1.18294489142,-0.718894658913,-0.0449317955711,-0.593074352893,-0.109879824113,-0.101349169888,-1.11086660194,0.573760294152,0.818995387824,0.00514066908162,0.0,0.818986948665,-0.573683157779,-0.0113472154194,0.0,-0.00634432396918,0.0107209289532,-0.999922402607,0.0,0.391123607077,-0.0945462119733,0.305046349221,1.0,-0.31998,-0.420545142857,2.093
-0.116553453887,-0.428374432883,-0.139757133199,-2.56745770747,-0.0580290977495,2.13299514877,-0.386950517996,-1.18527219405,-0.682578535289,-0.0238905955522,-0.573191136898,-0.109062790176,-0.125914516392,-1.11284498438,0.57356122055,0.819135766506,0.00498690426231,0.0,0.819124235063,-0.573482725596,-0.0115671032199,0.0,-0.00661525187773,0.0107195423646,-0.99992066178,0.0,0.385327969853,-0.102034602719,0.304974650142,1.0,-0.31998,-0.420545142857,2.111
-0.136980635014,-0.439517189721,-0.140220056965,-2.57677400534,-0.0599418819248,2.13091806932,-0.406193183775,-1.20300334711,-0.649184441878,-0.0312641005038,-0.5277416845,-0.0990770667206,-0.121286774611,-1.15633888693,0.573568627867,0.819130220421,0.00504559417304,0.0,0.819118333267,-0.573488139243,-0.0117156798257,0.0,-0.00670320804184,0.0108528940434,-0.999918637536,0.0,0.379867342017,-0.10913446402,0.304941090239,1.0,-0.31998,-0.420545142857,2.128
-0.15663699829,-0.449593329594,-0.140608983605,-2.58478484604,-0.0617768427521,2.12911098394,-0.424741074147,-1.22412605094,-0.617062186052,-0.017380878639,-0.506064629505,-0.121598205873,-0.119417006707,-1.18634213954,0.573546623149,0.819144778701,0.0051816505303,0.0,0.819136750131,-0.573469213554,-0.0113486824016,0.0,-0.00632481865222,0.0107536858861,-0.999922174426,0.0,0.374838648662,-0.115897870759,0.305071551307,1.0,-0.31998,-0.420545142857,2.144
-0.17785364005,-0.45966368689,-0.141090930498,-2.59306718914,-0.0635757898994,2.1269101985,-0.444818491243,-1.25185602971,-0.582780912254,-0.0284941791144,-0.472206824192,-0.114909094905,-0.129828399049,-1.16241852812,0.573612432444,0.819098764657,0.0051708785184,0.0,0.819088797715,-0.573532018871,-0.011632355259,0.0,-0.00656250977538,0.0109080822783,-0.99991897032,0.0,0.369330147534,-0.123046219445,0.305009079663,1.0,-0.31998,-0.420545142857,2.161
-0.196735632098,-0.468033862613,-0.141418366775,-2.59988616082,-0.065062152628,2.12515910316,-0.462882248376,-1.26936425026,-0.55176592464,-0.0230701095427,-0.447347346022,-0.0906898918986,-0.115676547933,-1.22310972913,0.573508255405,0.81917147146,0.00520847658925,0.0,0.819161354339,-0.573426678896,-0.0117160739676,0.0,-0.00661092139979,0.0109860593939,-0.99991779773,0.0,0.364539931838,-0.12929125207,0.304971261821,1.0,-0.315694285714,-0.414912489796,2.176
-0.219564585151,-0.477293859219,-0.141689543714,-2.60709259369,-0.0666124484482,2.12320774528,-0.48442810555,-1.26892790735,-0.493215395356,-0.00599192665804,-0.38944455164,-0.0785417693934,-0.103525881127,-1.19399193141,0.573673274644,0.819054689068,0.00539788620414,0.0,0.819048114018,-0.57359292617,-0.0114929922913,0.0,-0.00631732151265,0.0110145631029,-0.999919382175,0.0,0.358676298683,-0.137146417325,0.305060381957,1.0,-0.305922857143,-0.402070040816,2.195
-0.240868853663,-0.485212081234,-0.14185619377,-2.6133732751,-0.06792460041,2.12134296931,-0.504732707335,-1.23367673133,-0.453862318557,-0.00966148140244,-0.360996949103,-0.0632100041437,-0.117670423063,-1.19280423725,0.57372628967,0.81901702628,0.00547741783154,0.0,0.819010575883,-0.573644105061,-0.0116131055486,0.0,-0.00636936535225,0.0111490217437,-0.999917561852,0.0,0.353486386052,-0.143937081984,0.305038752223,1.0,-0.29718,-0.390579428572,2.212
-0.263208730065,-0.492693782269,-0.141865359675,-2.61936775129,-0.0691593281253,2.1194728515,-0.52596025891,-1.2413467842,-0.396766808205,0.00681300203424,-0.318072863187,-0.0700270343612,-0.093882106106,-1.15553231667,0.573751187413,0.818999730991,0.00545550007954,0.0,0.818991769097,-0.573666943941,-0.0118095927858,0.0,-0.00654253922053,0.0112439940269,-0.999915380309,0.0,0.348420417388,-0.150533667312,0.304978697071,1.0,-0.288437142857,-0.379088816327,2.229
-0.281567296445,-0.498317064408,-0.141846675875,-2.6237303932,-0.0699962270663,2.1181636071,-0.543401173543,-1.21912043811,-0.362102627968,-0.0029975444082,-0.274804048047,-0.0603430255436,-0.0903165387203,-1.16670305542,0.573877790431,0.818910143104,0.00558623963871,0.0,0.818904061984,-0.573793382707,-0.0117489629046,0.0,-0.0064161210848,0.0113172810956,-0.999915372689,0.0,0.344124436075,-0.156228603449,0.304992822039,1.0,-0.280722857143,-0.368950040816,2.244
-0.303057127815,-0.504287140295,-0.141645400449,-2.62832368658,-0.070855073562,2.11662444174,-0.563928136773,-1.20109066163,-0.316631746586,7.78164153625e-05,-0.239772635975,-0.0418554769372,-0.0814711480653,-1.11362501176,0.573885665922,0.818904118266,0.00565989731024,0.0,0.818898819544,-0.573800690231,-0.0117574717288,0.0,-0.00638071188435,0.011382546868,-0.999914858447,0.0,0.339150145518,-0.162775991008,0.305006771449,1.0,-0.271465714286,-0.356783510204,2.262
-0.322973403134,-0.509268554785,-0.141408068211,-2.6320572338,-0.0715266417153,2.11540377125,-0.583006216343,-1.15361545531,-0.288880640831,0.0217965810313,-0.20713196869,-0.0326406169391,-0.0680943764758,-1.11928999892,0.57389496022,0.818896791981,0.00577629796359,0.0,0.818893859022,-0.573811138355,-0.0115918962198,0.0,-0.00617818146655,0.0113829249068,-0.99991612603,0.0,0.334627180365,-0.168794791204,0.30506257334,1.0,-0.262722857143,-0.345292897959,2.279
-0.341323894466,-0.513399653259,-0.14114127973,-2.63523975378,-0.0721131432056,2.1142378859,-0.600625551809,-1.13421411631,-0.242969413766,0.0295852288277,-0.189194872456,-0.0313666244689,-0.0699771294193,-1.08701648331,0.573864777014,0.818917859507,0.00578826263022,0.0,0.818914605592,-0.573780045616,-0.0116651147211,0.0,-0.00623170116186,0.0114345114169,-0.99991520533,0.0,0.330432245276,-0.174261332387,0.305052661751,1.0,-0.254494285714,-0.334478204082,2.295
-0.360329320697,-0.5170959793,-0.140908772902,-2.63820538888,-0.0725321473477,2.11315554647,-0.618887119971,-1.115033628,-0.208251247989,0.0185404165319,-0.165033214312,-0.0295092234844,-0.0614587497222,-1.06140236791,0.573954754307,0.818854008651,0.005899103923,0.0,0.818850632217,-0.573866734676,-0.0118894849001,0.0,-0.00635057513372,0.0116547357513,-0.999911914786,0.0,0.326104363435,-0.179878689957,0.304982427005,1.0,-0.245751428572,-0.322987591837,2.312
-0.379844309562,-0.520403511171,-0.140498389493,-2.64080086847,-0.0729273858012,2.11223578518,-0.637666642335,-1.07927396946,-0.175125412309,0.0128057623615,-0.128025756153,-0.0187738798711,-0.0536279730319,-1.03691335146,0.573943173798,0.818861883474,0.00593261708293,0.0,0.81885855581,-0.573854313792,-0.0119431578594,0.0,-0.00637546158165,0.0117128936932,-0.999911076852,0.0,0.321744011893,-0.185592219493,0.304952078915,1.0,-0.236494285714,-0.310821061225,2.33
-0.395662893484,-0.522706676892,-0.140176753089,-2.64257131373,-0.0732104086084,2.11155349467,-0.652944571685,-1.04660833803,-0.14700158873,0.0187189002795,-0.110874943608,-0.00774373376516,-0.0465549606158,-1.01048840675,0.573931889907,0.818869617809,0.00595664988498,0.0,0.818866407162,-0.573842575666,-0.0119688126174,0.0,-0.00638284059075,0.0117472099057,-0.999910627209,0.0,0.318233939195,-0.190216396496,0.304943149107,1.0,-0.22878,-0.300682285714,2.345
-0.414118251474,-0.525051199917,-0.139785909498,-2.64431268401,-0.0734658061005,2.11082123211,-0.670742301616,-1.00981263982,-0.116127815491,0.0208662869859,-0.0859323053834,-0.0184222164524,-0.0369446299626,-0.97305234607,0.573980802737,0.81883497837,0.00600526343838,0.0,0.818832418421,-0.573891314709,-0.0119572716524,0.0,-0.00634478590186,0.0117807755826,-0.999910474502,0.0,0.314156483767,-0.195585867059,0.304958589167,1.0,-0.219522857143,-0.288515755102,2.363
-0.430893378058,-0.526760309624,-0.139345523957,-2.64562856275,-0.0735800797913,2.11029466475,-0.687011635326,-0.986655641238,-0.0875738566821,0.0168327826851,-0.0739247786433,-0.0090716495146,-0.030463502702,-0.935978597124,0.573956740211,0.8188514293,0.00606168305894,0.0,0.818849507185,-0.573866847353,-0.0119613123172,0.0,-0.00631606034424,0.0118291097587,-0.99991008573,0.0,0.310482594301,-0.20042206084,0.30495249587,1.0,-0.21078,-0.277025142857,2.38
-0.445255110786,-0.52799363952,-0.138962717029,-2.64656950769,-0.0736715777732,2.10991099794,-0.700896672778,-0.938146007113,-0.0704078746214,0.0331477706448,-0.0566177409865,-0.00283146357132,-0.0286995753934,-0.912719429816,0.574007978703,0.818815327524,0.00608659989846,0.0,0.818813785025,-0.573918077128,-0.0119487698248,0.0,-0.00629074728401,0.0118427091248,-0.999910084327,0.0,0.307129636043,-0.20482156186,0.304951533041,1.0,-0.202551428572,-0.26621044898,2.396
-0.461870038168,-0.529047418127,-0.138503534194,-2.64737167055,-0.0736887005634,2.10954851759,-0.716920088783,-0.923643002749,-0.0530969952298,0.0171651148953,-0.0339472957359,-0.00119627433131,-0.0160441744205,-0.873567561168,0.57408715174,0.818759391285,0.00614396374693,0.0,0.818758682874,-0.573997165287,-0.0119256178453,0.0,-0.00623771392867,0.0118769963156,-0.999910009893,0.0,0.303720479637,-0.209316560387,0.304954193857,1.0,-0.193808571429,-0.254719836735,2.413
-0.476844458814,-0.52970786992,-0.137959357516,-2.64787048076,-0.0736795261857,2.10926976014,-0.731477393086,-0.86676661383,-0.0292802943399,0.0327603945192,-0.0273508704236,-0.00131007148673,-0.0181095465886,-0.843474571604,0.574019181159,0.818807236165,0.00611854287238,0.0,0.818806254558,-0.573929421694,-0.0119198704448,0.0,-0.00624858470657,0.0118523636396,-0.999910234304,0.0,0.300483849572,-0.213573824536,0.304958969548,1.0,-0.185065714286,-0.24322922449,2.43
-0.49046571393,-0.53007028103,-0.137545022875,-2.64814584807,-0.0736793916891,2.10907179956,-0.744605769097,-0.836797366466,-0.015507059675,0.0280333482701,-0.0122338166502,0.000349418922792,-0.0195955860524,-0.815928045864,0.57411439647,0.818740602097,0.00610189681067,0.0,0.818739395727,-0.574024669081,-0.0119259411206,0.0,-0.00626173347396,0.0118429458098,-0.999910263638,0.0,0.297523494033,-0.217466641983,0.304959940694,1.0,-0.176837142857,-0.232414530612,2.446
-0.504106412056,-0.530215891378,-0.136942437596,-2.64828737499,-0.0736172433653,2.10895347455,-0.758047294806,-0.791835485575,-0.0086223574286,0.0335847237661,-0.00673538846507,-0.00418685280838,-0.00413605094234,-0.781482149564,0.573871005082,0.818911783017,0.00602561725472,0.0,0.81890964529,-0.57378175057,-0.0119265445485,0.0,-0.0063095201226,0.0117789609774,-0.999910719032,0.0,0.294591145556,-0.221308291874,0.304954378473,1.0,-0.168094285714,-0.220923918367,2.463
-0.518137225186,-0.530203186739,-0.136424232413,-2.64832050057,-0.0735610249747,2.10885129847,-0.771512146753,-0.761084187918,0.00478605849014,0.0368559785275,-0.000456952566053,0.00272050922452,-0.0047225289504,-0.737833991535,0.57399142038,0.818827787081,0.00597087385275,0.0,0.818824751606,-0.57390201793,-0.0119685786599,0.0,-0.00637363093785,0.0117591871651,-0.999910545172,0.0,0.291531871288,-0.225269549517,0.304939464924,1.0,-0.158837142857,-0.208757387755,2.481
-0.530439769498,-0.529999818643,-0.13578301314,-2.64822807366,-0.0733661111634,2.10884726484,-0.783565129941,-0.712139008121,0.0202009606755,0.0419951946716,0.00620060553766,0.0104292873791,-0.00239757756372,-0.694634157343,0.57383243419,0.818939451936,0.00593788148932,0.0,0.818935906275,-0.573743049905,-0.0119850324072,0.0,-0.00640832101535,0.0117403707174,-0.999910544557,0.0,0.288893416833,-0.228683417142,0.304923699426,1.0,-0.150094285714,-0.19726677551,2.498
-0.542349078745,-0.529689812769,-0.13529532451,-2.64802594945,-0.0731548956441,2.10885686431,-0.79500370875,-0.686513084506,0.0210571354859,0.0298938177272,0.0121143774115,0.00910579745865,0.000889843673145,-0.65423453973,0.573975829276,0.818838667271,0.00597756558057,0.0,0.818835530849,-0.573886055949,-0.0119964623056,0.0,-0.00639284875324,0.0117805492977,-0.999910171037,0.0,0.286305279481,-0.232013871345,0.304916017468,1.0,-0.141351428572,-0.185776163265,2.515
-0.553324669666,-0.529207155846,-0.134635715404,-2.64770771143,-0.0728504900193,2.10892702275,-0.805793581216,-0.630969623605,0.0379805933178,0.0349515767194,0.0191880780919,0.0206655167949,0.00772585282166,-0.624716454632,0.573810886218,0.8189542036,0.00598549620789,0.0,0.818951105072,-0.573720993737,-0.0120023225919,0.0,-0.00639547083987,0.0117891190741,-0.999910053267,0.0,0.283974550355,-0.235032282018,0.304907657578,1.0,-0.132608571429,-0.174285551021,2.532
-0.563245650581,-0.528671003946,-0.13412234235,-2.64734503125,-0.0725934852353,2.10900715258,-0.815346555712,-0.613408031252,0.0322860256096,0.0262605042085,0.0255715858677,0.0208199762016,0.00565813366389,-0.58709648285,0.573880534592,0.818905239486,0.00600730055668,0.0,0.818902288068,-0.57379028475,-0.0120207580561,0.0,-0.00639705422089,0.0118180987655,-0.999909701042,0.0,0.281841588581,-0.237780164561,0.304896881668,1.0,-0.12438,-0.163470857143,2.548
-0.5736663015,-0.527956295887,-0.133515495045,-2.64680846586,-0.0722702272678,2.10915637913,-0.825437013217,-0.551103726663,0.0472601214872,0.03615362156,0.0340869053069,0.0239362764317,0.0117458205515,-0.551971178645,0.573890877628,0.818897873803,0.00602326793553,0.0,0.818895440131,-0.573801134048,-0.0119692772966,0.0,-0.00634557992915,0.011801712919,-0.999910222564,0.0,0.279636016743,-0.24066788945,0.304908066024,1.0,-0.115122857143,-0.151304326531,2.566
-0.582179579354,-0.527239121833,-0.132947977175,-2.64630506831,-0.0719474289996,2.10925880168,-0.833716487017,-0.525274971965,0.0456888868131,0.0284657770045,0.035550871575,0.015253838296,0.00840570520812,-0.512502036489,0.573847896319,0.818927853591,0.0060423013099,0.0,0.818925365623,-0.573757521305,-0.0120124596228,0.0,-0.00637064460733,0.0118417464839,-0.999909589877,0.0,0.27784111121,-0.243000420805,0.304898039331,1.0,-0.106894285714,-0.140489632653,2.582
-0.589806075389,-0.526576429518,-0.132468119606,-2.64582134299,-0.0716676098863,2.10935514413,-0.840939451747,-0.498660663711,0.0467126626348,0.025490208995,0.0317600598574,0.0246567480576,0.00624747741003,-0.466604963442,0.573985994045,0.818830927698,0.00606113736514,0.0,0.818828524402,-0.573895212177,-0.0120366094246,0.0,-0.00637761313611,0.0118721059652,-0.999909185452,0.0,0.276218363183,-0.245094384733,0.304896019084,1.0,-0.0991800000001,-0.130350857143,2.597
-0.59813395226,-0.525697875703,-0.131850821426,-2.64519095986,-0.0712785931799,2.10950577766,-0.849028332448,-0.434270637713,0.0542976528432,0.0411507865534,0.0304985819545,0.0266560617962,0.00510071141816,-0.430682965207,0.573946812249,0.818858145384,0.0060943702416,0.0,0.818855949161,-0.573855475713,-0.0120654224624,0.0,-0.00638270461351,0.0119155515007,-0.999908636183,0.0,0.274483163856,-0.247367408978,0.3048895891,1.0,-0.0899228571429,-0.118184326531,2.615
-0.605209552904,-0.524893767293,-0.131202472187,-2.64463753259,-0.0709042399797,2.1096433715,-0.855939563093,-0.417649268614,0.0463546930278,0.0375329805137,0.0307438040461,0.0151785520204,0.0119058342635,-0.394726234316,0.573813792169,0.818951347822,0.0060966154196,0.0,0.818948830603,-0.57372182147,-0.0121173975853,0.0,-0.00642592150013,0.011946175929,-0.999907993974,0.0,0.273028324151,-0.249261332017,0.304874784202,1.0,-0.0811800000001,-0.106693714286,2.632
-0.611080549317,-0.524250790621,-0.130666706042,-2.64415503281,-0.0705980211283,2.10977743708,-0.861428460375,-0.379064059008,0.038212293951,0.038335643747,0.0311552749785,0.0219871854295,0.0086398183521,-0.353512295005,0.573904664783,0.818887710856,0.00609094815773,0.0,0.818885283739,-0.573813004685,-0.0120944049743,0.0,-0.0064090177333,0.0119290529142,-0.99990830689,0.0,0.271744395702,-0.250934746527,0.304884043118,1.0,-0.0729514285715,-0.0958790204083,2.648
-0.617372685901,-0.523436488346,-0.130031998827,-2.64354988242,-0.0701902771663,2.10993692162,-0.867371742353,-0.337504167212,0.0393813340642,0.0332918269545,0.0326681829815,0.0176003851489,0.00836748420687,-0.309812607781,0.573948883083,0.818856572478,0.00611066431443,0.0,0.81885441736,-0.573857155778,-0.012089451317,0.0,-0.00639300131026,0.0119427014814,-0.999908246498,0.0,0.270554908389,-0.252517799238,0.304889361424,1.0,-0.0642085714287,-0.0843884081634,2.665
-0.622858700484,-0.522700280747,-0.129400107951,-2.64302267678,-0.0697763639785,2.11008810515,-0.872611348316,-0.285295575942,0.0306762865662,0.0365932381354,0.0321213670093,0.0205910016463,0.0157645256037,-0.2702144183,0.573917793935,0.818878175944,0.00613560658153,0.0,0.818876381528,-0.573826031321,-0.012079091654,0.0,-0.00637065642115,0.0119569391589,-0.999908218959,0.0,0.26952169204,-0.253887630032,0.304893218611,1.0,-0.0554657142858,-0.0728977959185,2.682
-0.626837996483,-0.522206780812,-0.128808927975,-2.64266399726,-0.0694457417414,2.11019238617,-0.876384285879,-0.255821742626,0.0304828270874,0.0423503898101,0.0242249727356,0.0268008795828,0.00263343553163,-0.237106785951,0.573819932995,0.818946844946,0.00612344289415,0.0,0.818944850542,-0.573728166439,-0.0120859301395,0.0,-0.00638466561661,0.0119501397258,-0.99990821089,0.0,0.268698070009,-0.254958406506,0.304892901602,1.0,-0.0472371428572,-0.0620831020409,2.698
-0.631058083402,-0.521698722828,-0.128133880177,-2.64225574655,-0.0690557993751,2.11031377346,-0.880249378377,-0.21955463642,0.0331377162326,0.0349244282538,0.021285992754,0.0214561798458,0.00717783533748,-0.20666734324,0.573820768593,0.818946363987,0.00610944720086,0.0,0.818944612199,-0.57372985857,-0.0120215821025,0.0,-0.00633998073797,0.0119017614962,-0.999909072225,0.0,0.267901313061,-0.256012555282,0.30491884747,1.0,-0.0379800000001,-0.0499165714287,2.716
-0.634346677314,-0.521238139385,-0.12756120684,-2.64192032357,-0.0686957325436,2.11043634076,-0.883241319119,-0.176722869008,0.0250338509858,0.0307062773222,0.013508109705,0.0205224034412,0.00783261261773,-0.163094552789,0.57382967358,0.818940050984,0.00611927402373,0.0,0.818938632395,-0.573739106466,-0.0119875345493,0.0,-0.0063063267607,0.0118903418636,-0.999909420904,0.0,0.267299638824,-0.25682340029,0.304926580659,1.0,-0.0292371428572,-0.0384259591838,2.733
-0.636826800356,-0.52089441076,-0.127053346176,-2.6416858437,-0.0683693891149,2.11046075892,-0.885358229136,-0.13918302455,0.0210460028544,0.0328066373512,0.0141613589224,0.0170954513807,-0.000129606285428,-0.125354885944,0.573919181816,0.818877147715,0.0061430119101,0.0,0.818875680469,-0.573827820773,-0.0120415507928,0.0,-0.00633564161066,0.0119414699471,-0.999908626296,0.0,0.266850405319,-0.257397570285,0.30492131172,1.0,-0.0210085714287,-0.0276112653063,2.749
-0.638949961466,-0.520613273387,-0.12657306315,-2.64149848919,-0.0680546254003,2.11050060382,-0.887179832625,-0.116641311746,0.0155894096307,0.0255451777684,0.00981643680101,0.019720299568,0.0041009811716,-0.100167828954,0.573970166216,0.818841203785,0.0061707519711,0.0,0.818839914893,-0.573878328944,-0.0120666585284,0.0,-0.00633953842134,0.0119789906528,-0.9999081528,0.0,0.266478050603,-0.257874270839,0.304918202374,1.0,-0.01968,-0.0258651428571,2.766
-0.640679748633,-0.520373498074,-0.126195980847,-2.64130955783,-0.0678583222248,2.11058390011,-0.888789853208,-0.0954361481188,0.0200692153416,0.015416751251,0.00695258059938,0.00754909905204,0.00722779921893,-0.0947770793146,0.573894689317,0.818894325972,0.00614128368943,0.0,0.818892999883,-0.57380364959,-0.0120155466274,0.0,-0.00631569355916,0.0119249422144,-0.999908949739,0.0,0.266181954045,-0.258287637125,0.304932117865,1.0,-0.01934,-0.0254182857143,2.783
-0.642147417079,-0.520131060712,-0.125971291677,-2.64110814054,-0.0677145610195,2.11064480581,-0.890274102607,-0.0923901842234,0.0137231234324,0.0150256617819,0.0107093006571,0.0106511942175,0.00357241645235,-0.0814445415514,0.573793708507,0.818965078878,0.00614219483977,0.0,0.818963975589,-0.573703085093,-0.0119801395608,0.0,-0.00628764086815,0.0119045942122,-0.999909368997,0.0,0.265914717795,-0.258669805102,0.30494510958,1.0,-0.01902,-0.0249977142857,2.799
-0.643623355844,-0.519886273503,-0.125801029286,-2.64091761185,-0.0676442140714,2.11066860859,-0.891672597603,-0.0851330252845,0.0118408062024,0.011498843189,0.00980774521939,0.000728769122591,0.000873767998499,-0.0880433521561,0.573776497633,0.818977359372,0.0061124873155,0.0,0.818975770104,-0.573685815108,-0.0120008510937,0.0,-0.00632189978714,0.0118920142737,-0.999909302677,0.0,0.265618038683,-0.259065327425,0.304947751619,1.0,-0.01868,-0.0245508571429,2.816
-0.645184287975,-0.519675947422,-0.125665877951,-2.64072608365,-0.0676067544199,2.11070081093,-0.893249448458,-0.0832028274608,0.00923038799629,0.00294390778393,0.0106394884323,0.00159243841807,0.00224359989476,-0.0789813785622,0.573693534232,0.819035775405,0.00607242025073,0.0,0.819033838692,-0.573603362958,-0.0119791478059,0.0,-0.00632831177441,0.0118461053842,-0.999909807061,0.0,0.265290534349,-0.259496107458,0.304963367225,1.0,-0.01832,-0.0240777142857,2.834
-0.646433410018,-0.519514224632,-0.125589436562,-2.64054477143,-0.0675727144473,2.11077550483,-0.894447748232,-0.0781422524752,0.0132181887999,0.00171956228911,0.00377520887614,0.00849303255188,0.00874582657771,-0.0823054295446,0.573704642087,0.819028166812,0.0060491749538,0.0,0.819026590677,-0.573615806282,-0.011878444682,0.0,-0.0062589989091,0.0117693805907,-0.999911149359,0.0,0.265035809139,-0.259861191473,0.304994445585,1.0,-0.01802,-0.0236834285714,2.849
-0.64786368956,-0.519280793146,-0.125550080971,-2.64033782514,-0.0675359284925,2.11086368903,-0.895897278803,-0.0815221355815,0.0109948749068,0.00307778415713,0.00946888253801,0.00609516058902,0.000310145171197,-0.0821353311287,0.573687345887,0.819040299354,0.00604682599142,0.0,0.819039130833,-0.573599348829,-0.0118083059453,0.0,-0.00620314241487,0.0117270885843,-0.999911994336,0.0,0.26473205945,-0.260289071359,0.305011039027,1.0,-0.01766,-0.0232102857143,2.867
-0.649110844772,-0.519093900349,-0.125550137599,-2.6401684016,-0.0675091492325,2.11086943144,-0.89714661561,-0.0779671356321,0.0115634171151,0.000368281250939,0.0090498145351,0.00378543480695,0.00103036215996,-0.0787458889798,0.573705795745,0.819027234776,0.00606593144914,0.0,0.819026269271,-0.573617636299,-0.0118120477145,0.0,-0.00619498278948,0.011745023566,-0.999911834418,0.0,0.264445260282,-0.260657418295,0.305019721658,1.0,-0.01734,-0.0227897142857,2.883
-0.650441809437,-0.518891974614,-0.125552615752,-2.63998999439,-0.0674806442863,2.11090230699,-0.898451381916,-0.0800961571413,0.0135248842456,0.0030397154179,0.0106140034254,0.0023392039111,0.00426092149561,-0.0766454304035,0.573750410855,0.818995843049,0.00608457181841,0.0,0.818995210383,-0.573662343345,-0.0117944096396,0.0,-0.00616920151465,0.0117505087867,-0.99991192937,0.0,0.264141721652,-0.261053809318,0.305029199912,1.0,-0.017,-0.0223428571429,2.9
-0.651820491492,-0.518667537924,-0.125553290357,-2.63979221146,-0.0674498573972,2.1109516458,-0.899887490825,-0.0742263115707,0.00786182680841,-0.00104758135527,0.012212354228,-0.000377031478971,0.000851746281533,-0.0800611468879,0.573727224228,0.819011957085,0.00610190403137,0.0,0.819011720159,-0.573639421758,-0.0117627780928,0.0,-0.0061336812987,0.0117463830956,-0.999912196364,0.0,0.263832257758,-0.261468735336,0.305040628423,1.0,-0.01664,-0.0218697142857,2.918
-0.653012568992,-0.518488181862,-0.125537509688,-2.63959321057,-0.0674256334957,2.1110124255,-0.901041619656,-0.0776998561507,0.00961981308888,0.00123410825018,0.00962910301659,0.00240357692,0.00574992029277,-0.0638495709663,0.573767502103,0.818983763937,0.0060987571678,0.0,0.818984022407,-0.573680733481,-0.0116762141016,0.0,-0.00606400703907,0.0116944420303,-0.999913230158,0.0,0.263577117507,-0.261833893849,0.305070566997,1.0,-0.01632,-0.0214491428571,2.934
-0.654127811864,-0.518302483233,-0.125513376658,-2.63940167253,-0.0673966557105,2.11109185091,-0.90223044707,-0.0702072588146,0.00783240583514,0.00574946683155,0.00889414698106,0.000869665010398,0.00393281051333,-0.0742056712151,0.573712199435,0.819022533773,0.00609493994206,0.0,0.819023295621,-0.573626525485,-0.0115843597835,0.0,-0.0059917478397,0.0116382104,-0.999914321838,0.0,0.263344984759,-0.262176880921,0.305096561771,1.0,-0.016,-0.0210285714286,2.95
-0.655395759448,-0.518117001354,-0.125468616254,-2.63914958767,-0.0673731435451,2.11112971419,-0.903477641292,-0.0710793029639,0.0143677622586,0.00404788229514,0.0124296587049,0.00083200817126,0.00321205638306,-0.0681850116371,0.573720019497,0.819017223236,0.0060724107357,0.0,0.819018378673,-0.573635753893,-0.0114745001384,0.0,-0.00591457520495,0.0115567889425,-0.999915725664,0.0,0.263083637013,-0.262565656525,0.305147079064,1.0,-0.01564,-0.0205554285714,2.968
-0.656587628116,-0.517988556668,-0.125427871693,-2.63884475204,-0.0673565412482,2.11125018445,-0.904610725324,-0.0775340043435,0.00107966225535,0.000907741191184,0.0209604138387,0.00118702439764,0.00150428147101,-0.0627518339839,0.573760996993,0.818988874895,0.00602395461912,0.0,0.818991218506,-0.573680442824,-0.0111749913903,0.0,-0.00569647834714,0.0113455585724,-0.99991941097,0.0,0.262866488829,-0.2629620071,0.305249559245,1.0,-0.0153,-0.0201085714286,2.985
-0.657602593288,-0.517912097636,-0.125410408891,-2.63843801399,-0.0673438879899,2.11138471744,-0.905687722515,-0.0712806602275,0.00476993116166,0.00403109458222,0.0272550718267,0.00345477596965,0.00161708759745,-0.0729355814744,0.573717095881,0.81902011264,0.0059578424299,0.0,0.819024433283,-0.573642420065,-0.0106816894331,0.0,-0.00533094997018,0.0110080983004,-0.999925198574,0.0,0.262707720852,-0.263370261236,0.305429151087,1.0,-0.01498,-0.019688,3.001
-0.658799830433,-0.517913015154,-0.12539286444,-2.63795515315,-0.0673119462114,2.11151177295,-0.906895014458,-0.0659333273748,0.000207154423236,0.00301509281556,0.0242725710992,0.00526484892433,0.0042727215212,-0.0722871631788,0.57373759424,0.819006149852,0.00590308063247,0.0,0.819012868946,-0.573669530064,-0.0100964190149,0.0,-0.00488270577954,0.0106275987747,-0.999931604325,0.0,0.262537161929,-0.263796414552,0.305649494002,1.0,-0.01464,-0.0192411428571,3.018
-0.659791033254,-0.517902416929,-0.125389684605,-2.63762813676,-0.0672935577117,2.11155661338,-0.907862409221,-0.0681005950503,1.89948888746e-05,-0.00151449624827,0.0165414774547,-0.000108376491333,0.0041387461584,-0.0603458767961,0.57377787928,0.818978161104,0.00587058651021,0.0,0.818986267177,-0.573713792764,-0.00973268041651,0.0,-0.00460290487778,0.0103925265496,-0.999935402243,0.0,0.262358788249,-0.26414465816,0.305798300329,1.0,-0.01434,-0.0188468571429,3.033
-0.660900357443,-0.517862419709,-0.125377693309,-2.63736070409,-0.0672660467636,2.11155947953,-0.908976237045,-0.0585132101412,0.00238560418359,-7.00072633249e-05,0.0101751573168,0.00290388092859,0.00178604962376,-0.0639106555153,0.57378999251,0.818969763263,0.00585817874986,0.0,0.818978804437,-0.573728392722,-0.0094971663737,0.0,-0.00441697365873,0.0102473005435,-0.999937739649,0.0,0.262130814155,-0.264499064612,0.305905781537,1.0,-0.014,-0.0184,3.05
-0.662027419247,-0.517779817063,-0.125432053536,-2.6371713764,-0.0672466558862,2.11176799038,-0.910131899755,-0.0436886011401,0.0198736381234,-0.0297520953325,0.00667673791492,0.00162467267579,0.0254850805596,-0.0559591930182,0.573822467305,0.81894699248,0.00586058242399,0.0,0.818957436228,-0.57376411878,-0.00917608569691,0.0,-0.0041522158172,0.0100652054779,-0.999940723614,0.0,0.261895812201,-0.264881437158,0.305978078687,1.0,-0.01362,-0.0179005714286,3.069
-0.663012455632,-0.517363671021,-0.125286514901,-2.63699805974,-0.0671274960869,2.11168169385,-0.910998825965,-0.0701417186693,0.0311701875929,-0.0085751272664,0.0138083189918,0.0223269043035,0.00154496205424,-0.058494112509,0.57389123559,0.818898401719,0.00591644116845,0.0,0.818908069762,-0.573829429444,-0.00949242249955,0.0,-0.00437838585079,0.0102928376631,-0.999937441658,0.0,0.261683538127,-0.265142146892,0.305901233291,1.0,-0.0133,-0.01748,3.085
-0.663970476774,-0.517254228675,-0.125275581561,-2.63688935082,-0.0670785811774,2.11172150338,-0.91209656629,-0.048814087565,0.012575086336,-0.0102401600638,0.00513625075356,0.00437114300777,-0.00500413436933,-0.0623085188141,0.573780719589,0.818975731135,0.00593165576394,0.0,0.818985757798,-0.573719342857,-0.0094441016804,0.0,-0.00433146782586,0.0102769829126,-0.99993780907,0.0,0.261475789061,-0.26539683881,0.305912093426,1.0,-0.01296,-0.0170331428571,3.102
-0.664993789814,-0.517040232575,-0.125237922404,-2.63674546808,-0.0670823811026,2.11168377504,-0.913072942159,-0.058905865965,0.00223513809746,-0.00379993409063,0.00651202376621,0.00598206963267,-0.00486737837846,-0.0598068156344,0.573798481303,0.818963428224,0.00591210506262,0.0,0.818972794929,-0.573736108909,-0.00954910476784,0.0,-0.00442846468473,0.0103213137379,-0.999936927603,0.0,0.261234053818,-0.265684867913,0.305896153192,1.0,-0.01262,-0.0165862857143,3.119
-0.665891430785,-0.516811972903,-0.125204698036,-2.63657728128,-0.0670869883301,2.1117225944,-0.913959332331,-0.0559043940102,0.0255673417782,0.000466397119723,0.0144233703945,-0.00630871306423,0.00158487284569,-0.0514387154025,0.5737909632,0.818968923727,0.0058804268709,0.0,0.81897787444,-0.573728525836,-0.00956905012456,0.0,-0.00446307196964,0.0103067724247,-0.999936923726,0.0,0.26104145881,-0.265957911726,0.305892454607,1.0,-0.0123,-0.0161657142857,3.135
-0.666812411828,-0.516601290901,-0.125173039301,-2.63642170785,-0.0670780152575,2.11177291138,-0.914916172142,-0.0550292890046,0.00551872713119,-0.00379979882478,0.00813393712525,0.00255462982248,0.0040482253628,-0.0610248740748,0.573751070704,0.818997008946,0.0058613228216,0.0,0.819005752886,-0.57368870224,-0.00957060932078,0.0,-0.00447581189782,0.0102918026046,-0.99993702097,0.0,0.260842595254,-0.266234553486,0.305890455866,1.0,-0.01196,-0.0157188571429,3.152
-0.667752185798,-0.516416757825,-0.125149973231,-2.63629615008,-0.0670489965014,2.11180684755,-0.915887542737,-0.0517842643039,0.00827574263603,6.73321441899e-05,0.00828930779778,0.00712186708601,0.0010655326548,-0.0575969253825,0.573727794604,0.819013258643,0.00586913684561,0.0,0.81902199711,-0.573665197372,-0.00958939385301,0.0,-0.00448700754982,0.0103088524448,-0.999936795165,0.0,0.260629618985,-0.266506101708,0.305882854646,1.0,-0.0116,-0.0152457142857,3.17
-0.668530866826,-0.516298463719,-0.125116247288,-2.63618030526,-0.0670467688072,2.11183526473,-0.916604123817,-0.0507081261863,0.00203334068278,-0.00351947908001,0.00592582083801,0.00228792766287,-0.00459368372502,-0.0424210371989,0.573761527178,0.818989798839,0.00584518857071,0.0,0.818998417108,-0.573699321654,-0.00956179946584,0.0,-0.00447772171313,0.0102735906497,-0.9999371997,0.0,0.260457650366,-0.266733687392,0.305895074966,1.0,-0.0113,-0.0148514285714,3.185
-0.669471317682,-0.516079273211,-0.125090619052,-2.63601896329,-0.0670312128365,2.11184506216,-0.917547368414,-0.0477053777444,0.0169119481465,0.000991658450804,0.0121310230813,-0.000606129114077,0.000155670231597,-0.0420297279558,0.573756109951,0.81899363529,0.00583939638439,0.0,0.81900199646,-0.573693479685,-0.00960562660642,0.0,-0.00451701038906,0.010293962443,-0.999936813481,0.0,0.260246864702,-0.267011173682,0.305888904836,1.0,-0.01092,-0.014352,3.204
-0.670293430781,-0.515985878658,-0.125099927885,-2.63589710765,-0.0670221609643,2.11189809648,-0.918376078955,-0.0522469210015,0.00505140809311,-0.000822596841851,0.00678927787463,0.000676122042872,0.0186030723589,-0.0564135826857,0.573767201651,0.818985876657,0.00583772619001,0.0,0.81899460414,-0.573705455532,-0.00952027231462,0.0,-0.00444791884072,0.0102436834776,-0.999937639539,0.0,0.260059534982,-0.267263933838,0.305914156489,1.0,-0.0106,-0.0139314285714,3.22
-0.671087239342,-0.515776077569,-0.125091786769,-2.6357737297,-0.0670104443362,2.11193245824,-0.919130603028,-0.0464662736239,0.0139091618011,-0.000816058728982,0.00875467886189,-0.00106466762161,0.00159214216702,-0.0470347408024,0.573816741327,0.818951156774,0.00583927157292,0.0,0.818959683577,-0.573754482976,-0.00956957900983,0.0,-0.0044867959424,0.0102735104399,-0.999937159848,0.0,0.259865096064,-0.267517212093,0.305895502177,1.0,-0.01026,-0.0134845714286,3.237
-0.67187368106,-0.515687854946,-0.125082524034,-2.63565353584,-0.0669942705168,2.11196612453,-0.919897746298,-0.0434799062741,0.0011451059891,-0.0013960790381,0.00812686809483,-0.000297080797154,0.00211693665528,-0.0495651073429,0.573827258866,0.818943817056,0.00583509973464,0.0,0.818952615634,-0.573765740551,-0.00949922195401,0.0,-0.00443143408448,0.0102297796404,-0.999937855069,0.0,0.259701990055,-0.267736353169,0.305921035966,1.0,-0.00994,-0.013064,3.253
-0.672610572321,-0.51550172826,-0.125052894967,-2.63553646629,-0.0669677332345,2.11197465178,-0.920644634513,-0.0428744753841,0.00527899118048,-0.000589540998155,0.00444725100927,0.00419000876935,0.000680256099978,-0.0388538925437,0.573815561482,0.818951974818,0.00584048322208,0.0,0.818960579571,-0.573753448045,-0.00955493939366,0.0,-0.00447412523957,0.0102660960918,-0.999937292771,0.0,0.259537242063,-0.267947297053,0.305906902458,1.0,-0.0096,-0.0126171428571,3.27
-0.67329588988,-0.515387726741,-0.125040785233,-2.63543256515,-0.0669586065444,2.112007916,-0.921339749314,-0.0434377581009,0.00539580746385,-0.000666620450755,0.00448957709765,0.000152869409939,-0.00164658464153,-0.0460809357007,0.573808111957,0.818957242152,0.0058337877435,0.0,0.818965894173,-0.573746295914,-0.00952885128609,0.0,-0.00445669346632,0.010245602621,-0.999937580807,0.0,0.259383035291,-0.268151596066,0.305915151697,1.0,-0.00928000000001,-0.0121965714286,3.286
-0.674045603379,-0.515215892879,-0.125007414125,-2.63531483725,-0.0669352991436,2.11204289743,-0.922112121361,-0.0391276262028,0.00570568821459,0.00206269357236,0.00416604761527,0.00178987023702,0.000331936744025,-0.0321110371574,0.573781950946,0.8189755959,0.00583035075539,0.0,0.818984144034,-0.573719996875,-0.00954378900831,0.0,-0.00447122755804,0.0102512160671,-0.999937458391,0.0,0.259219605799,-0.268369408685,0.305908946735,1.0,-0.00892000000001,-0.0117234285714,3.304
-0.674727038723,-0.515032842389,-0.12499956265,-2.63520746227,-0.0669111915479,2.112069174,-0.922755983185,-0.0377644185368,0.0103487517578,-0.00100987088091,0.00449595101847,-0.00124741045472,0.000758175038569,-0.0384107136639,0.573823175458,0.818946624662,0.00584261609707,0.0,0.818955100905,-0.57376070669,-0.00958859018852,0.0,-0.00450036667539,0.0102871935858,-0.999936958187,0.0,0.259064769395,-0.268570691948,0.305892522261,1.0,-0.00858000000001,-0.0112765714286,3.321
-0.675324216834,-0.514916117981,-0.124979209787,-2.63513763061,-0.0668936615777,2.11209165705,-0.923342539468,-0.0400892706321,0.0032689118797,-0.0022694727534,0.00318873103246,0.0039014738741,0.00392405632006,-0.0378663202642,0.573828605086,0.818942800187,0.0058454176961,0.0,0.818951212109,-0.573765910055,-0.00960934676103,0.0,-0.00451569088143,0.0103014282896,-0.999936742555,0.0,0.258927096114,-0.268738786137,0.305883518925,1.0,-0.00826000000001,-0.010856,3.337
-0.675936075999,-0.51478749845,-0.124945978925,-2.63506714208,-0.0668745793744,2.11209895871,-0.923962063178,-0.0381887839347,0.00248965075889,-0.000304829863653,-0.000581794897183,0.000885237645406,0.000288465809735,-0.0432370365339,0.573810655828,0.818955370529,0.00584630156459,0.0,0.818963576795,-0.573747471206,-0.00965640038034,0.0,-0.00455394789047,0.0103290523418,-0.999936284088,0.0,0.258785968021,-0.268905469946,0.30586940951,1.0,-0.00792000000001,-0.0104091428571,3.354
-0.676519003173,-0.514715929085,-0.124921364596,-2.63501412019,-0.0668601025401,2.11211926542,-0.924538907753,-0.0334850805687,0.00869595907286,0.00239094086288,0.00916350801565,0.0048170648706,-8.85673967917e-06,-0.0326999149061,0.5738104604,0.818955501974,0.00584706968057,0.0,0.818963734531,-0.573747313965,-0.00965236454178,0.0,-0.00455020413028,0.0103273645971,-0.999936318564,0.0,0.258642492806,-0.269076794044,0.305869569983,1.0,-0.00758000000001,-0.00996228571429,3.371
-0.677102142002,-0.514611999117,-0.124885534272,-2.6349022941,-0.0668423488973,2.11214074217,-0.925129632173,-0.030383682909,0.00776275115457,0.00158023284035,0.00872963590165,4.67871358027e-05,0.00250199009852,-0.0298252761783,0.573788534489,0.818970970183,0.00583220261871,0.0,0.818979197018,-0.573725794313,-0.00961949544385,0.0,-0.00453208969308,0.0102962070447,-0.99993672214,0.0,0.258528239614,-0.269237161389,0.305884482373,1.0,-0.00726000000001,-0.00954171428572,3.387
-0.677675755601,-0.514495889645,-0.12487443942,-2.63478994597,-0.0668206879357,2.11217732241,-0.925696586831,-0.0297315822753,0.0136871009592,0.000114444987115,0.00786564079285,-0.000223023852625,0.00399834506025,-0.0313156194145,0.573801000542,0.818962226683,0.00583351902776,0.0,0.81897063179,-0.573738627529,-0.00958323787845,0.0,-0.00450148129858,0.0102765501022,-0.999937062611,0.0,0.258406411518,-0.269413671744,0.305896030424,1.0,-0.00690000000001,-0.00906857142858,3.405
-0.678192390576,-0.514400230631,-0.124874407938,-2.63467392616,-0.0668001771209,2.11222282471,-0.926192930543,-0.0314641051727,0.0091882087272,-0.000164062055399,0.00887163074272,0.000246624796819,0.000873262479176,-0.0310916747974,0.573832077844,0.818940438833,0.00583532185782,0.0,0.818949173049,-0.573770404078,-0.00951431910595,0.0,-0.00444361123683,0.0102386506375,-0.999937710236,0.0,0.258299839439,-0.269580500757,0.305917321929,1.0,-0.00658000000001,-0.00864800000001,3.421
-0.678679058475,-0.514270183194,-0.124862015824,-2.63456689022,-0.0667841158018,2.11223698459,-0.92664479715,-0.034304431551,0.0052920535794,0.000873068201227,0.0083777786447,0.00524273037232,0.00118791551381,-0.0268911673665,0.573864112653,0.818917992528,0.00583511983947,0.0,0.818926698461,-0.57380237419,-0.00952075749469,0.0,-0.00444859964665,0.0102423536738,-0.999937650132,0.0,0.258196092373,-0.269729865192,0.305919387034,1.0,-0.00626000000001,-0.00822742857144,3.437
-0.679144355912,-0.514188115154,-0.124838765585,-2.63452657573,-0.0667674687531,2.11225180677,-0.927115603152,-0.0228084657444,0.00328432256197,0.000491104569482,-0.000686414034935,-0.000154673271487,0.00317752725825,-0.0331812930925,0.573852370599,0.818926195711,0.00583863319473,0.0,0.818934831322,-0.573790373848,-0.00954441344475,0.0,-0.00446610465539,0.0102587418843,-0.999937404103,0.0,0.258086858125,-0.269854685437,0.305909169195,1.0,-0.00592000000001,-0.00778057142858,3.454
-0.679601132283,-0.51409529826,-0.124831120591,-2.63451302547,-0.066744685459,2.11225234267,-0.927597677701,-0.0273718430302,0.00266406305649,-0.00354918262688,-0.000882387510961,0.00047802843931,-0.000598756164867,-0.0262769832562,0.573836960192,0.81893682307,0.00586257956996,0.0,0.81894537394,-0.573774099483,-0.00961790857242,0.0,-0.00451275006189,0.0103204425373,-0.999936559764,0.0,0.257968534373,-0.269970720504,0.30588120168,1.0,-0.00556000000001,-0.00730742857144,3.472
-0.679996344837,-0.514040396715,-0.124804511895,-2.63450129297,-0.0667282674686,2.1122594723,-0.928004046073,-0.0209755388957,0.00677686153433,0.00200310362765,0.000818824600936,0.00019298010458,2.09586433362e-05,-0.0225469244284,0.573816672727,0.818950999703,0.00586797126219,0.0,0.81895945651,-0.57375344898,-0.00965066204502,0.0,-0.00453673792563,0.0103435404852,-0.999936212555,0.0,0.257871908001,-0.27006851724,0.305867455856,1.0,-0.00524000000001,-0.00688685714286,3.488
-0.680402394459,-0.513939745591,-0.124746117948,-2.63444010974,-0.0667153864645,2.11227995621,-0.928412845546,-0.0249461790368,0.00678348589022,0.00416499207087,0.00372859139755,0.000112713877486,0.000633842409665,-0.0264178560982,0.573781625459,0.818975702625,0.00584736655246,0.0,0.818983861363,-0.573718308102,-0.00966874742535,0.0,-0.00456381583845,0.0103368474682,-0.999936158547,0.0,0.257791246199,-0.27017676768,0.305861155481,1.0,-0.00490000000001,-0.00644000000001,3.505
-0.680777699731,-0.513822541352,-0.1247115896,-2.63436369189,-0.0666926178827,2.11229731487,-0.928778370188,-0.0206280394666,0.00812236140424,0.0011151843727,0.00677444633233,0.00302220861647,6.76078160549e-05,-0.0190276386223,0.573778803116,0.818977694689,0.00584530570485,0.0,0.818985735857,-0.573715277967,-0.0096897467084,0.0,-0.00458223345629,0.0103471924784,-0.999935967322,0.0,0.257716893324,-0.270284476607,0.305854828153,1.0,-0.00456000000001,-0.00599314285715,3.522
-0.681132177385,-0.513751607919,-0.124690141436,-2.63431180283,-0.0666780258257,2.11231967638,-0.929131502451,-0.018076278181,0.000510697462908,0.00400767787212,0.00315050429123,-5.12802489031e-05,0.000397337681357,-0.0217284829919,0.573773551757,0.818981389779,0.00584306430557,0.0,0.818989432142,-0.573710092807,-0.00968433543926,0.0,-0.00457915369501,0.0103422225788,-0.999936032846,0.0,0.25764071645,-0.270385468368,0.305854593256,1.0,-0.00422000000001,-0.00554628571429,3.539
-0.681444585988,-0.513729013248,-0.124686608229,-2.63428067653,-0.0666594954653,2.11232934152,-0.929424540524,-0.015397429721,0.00107391599944,0.000741155187785,3.17365888198e-05,0.000253485814632,0.00305444782516,-0.0133214376617,0.573796320252,0.818965356458,0.00585445873097,0.0,0.8189736162,-0.573733030898,-0.00966292538349,0.0,-0.00455479247301,0.0103393973311,-0.999936173327,0.0,0.257566647707,-0.270472572059,0.305861308305,1.0,-0.00390000000001,-0.00512571428572,3.555
-0.681767884234,-0.513695317353,-0.124678928738,-2.63423764908,-0.0666437960158,2.11233787649,-0.929706383397,-0.0204514217279,0.00125346473687,-0.00104659001254,0.00529210705874,0.00424715490305,0.000585773912026,-0.0164459280297,0.573833929368,0.818938957172,0.00586112900528,0.0,0.818947357641,-0.573770766658,-0.00964777910408,0.0,-0.00453808504787,0.0103363781119,-0.999936280506,0.0,0.257489428948,-0.270567033456,0.305866734529,1.0,-0.00354000000001,-0.00465257142858,3.573
