imanlab/proactive-slip-control/data_set/data_sample_2022-02-21-14-10-49/robot_state.csv
position_joint1,position_joint2,position_joint3,position_joint4,position_joint5,position_joint6,position_joint7,velocity_joint1,velocity_joint2,velocity_joint3,velocity_joint4,velocity_joint5,velocity_joint6,velocity_joint7,ee_T_00,ee_T_10,ee_T_20,ee_T_30,ee_T_01,ee_T_11,ee_T_21,ee_T_31,ee_T_02,ee_T_12,ee_T_22,ee_T_32,ee_T_03,ee_T_13,ee_T_23,ee_T_33,v_x,v_y,time
0.465088621449,0.5477951994,-0.123993182629,-1.35577626782,0.0794921850451,1.89409314552,0.159154942377,-0.00378878422916,0.000705659092109,-0.000740575367566,-0.000670889767037,0.000135107260454,0.00042261162234,0.000868367151911,0.573788102973,0.818989676394,0.00196716725482,0.0,0.818946894715,-0.573729600759,-0.0118775313144,0.0,-0.00859911900351,0.00842635390904,-0.99992752323,0.0,0.661685855356,0.260902448815,0.303230951095,1.0,0.0,0.0,0.0
0.465088542401,0.547795100431,-0.123990627346,-1.35577384164,0.0794953408912,1.89409158088,0.15915642584,-0.000570858594861,-0.000526795120896,-0.0010846170772,-0.000739495511515,0.000181239470654,-0.000168370387886,0.00122447346123,0.573788289866,0.81898953783,0.00197034001784,0.0,0.818946756226,-0.573729734208,-0.0118806335813,0.0,-0.00859983752464,0.00843073430915,-0.999927480127,0.0,0.661685358852,0.260904570076,0.303231961269,1.0,-0.00018,-0.000236571428571,0.01
0.465085462225,0.547791805148,-0.123991388531,-1.35577689693,0.0794939562213,1.89409162013,0.159155614962,0.00169514448693,0.00101243613612,0.000431323613783,0.000572503257929,0.000541947989664,7.83894321322e-05,0.000263580604302,0.573790474656,0.818988008415,0.00196981403768,0.0,0.818945233535,-0.573731934192,-0.0118793543705,0.0,-0.00859906911808,0.00842959249576,-0.999927496362,0.0,0.661685809695,0.260901550357,0.303232867586,1.0,-0.0004,-0.000525714285714,0.021
0.465085092956,0.547783487632,-0.123989093817,-1.35578627472,0.0794899352593,1.89409199684,0.159157242566,0.000883347172414,0.000244346849132,0.000519845232723,-0.00130389321115,-6.10683602198e-05,-0.000247965873938,0.00156218947407,0.573789941255,0.818988386366,0.00196804800096,0.0,0.818945604446,-0.573731423733,-0.0118784376118,0.0,-0.00859933703452,0.00842761453687,-0.999927510731,0.0,0.66168375001,0.260901003799,0.303234245779,1.0,-0.00074,-0.000972571428571,0.038
0.465086174579,0.547738380615,-0.123983833408,-1.35583697426,0.0794945574405,1.89410033653,0.159153531629,0.00136243572019,-0.00584938780769,0.00108066782483,-0.00810842224187,0.000130128866877,0.000447404883625,0.00125796656888,0.573786311789,0.818990908445,0.00197666093917,0.0,0.818948127943,-0.573727650798,-0.0118866878976,0.0,-0.00860118988213,0.00843936406776,-0.999927395698,0.0,0.661673234274,0.26090065426,0.303242628312,1.0,-0.00108,-0.00141942857143,0.055
0.465078777171,0.547613698886,-0.123986048107,-1.35598385496,0.0794912000215,1.89413067734,0.159149291452,-0.00108988917242,-0.0147723310391,0.00021291031439,-0.0117368644732,-0.000312020498899,0.00114269638047,-0.00040132646554,0.573797564282,0.818982998082,0.00198770656395,0.0,0.818940292199,-0.573738788607,-0.0118889512527,0.0,-0.00859659009591,0.00844982695032,-0.999927346892,0.0,0.661651537021,0.260880198278,0.303263746154,1.0,-0.0014,-0.00184,0.071
0.46507127713,0.547464292347,-0.12398855236,-1.35619773615,0.0794860544901,1.8941861229,0.159147576349,0.000607625673888,-0.0108130274785,-0.000787368658166,-0.0129425870965,-0.000560167501625,0.00462471192248,0.00121987253244,0.57381448377,0.818971151178,0.00198460450454,0.0,0.818928316219,-0.573755631644,-0.0119010484035,0.0,-0.00860810303284,0.00845440554476,-0.999927209145,0.0,0.661620324486,0.260853289696,0.303272672054,1.0,-0.00176,-0.00231314285714,0.089
0.465051916105,0.547289619814,-0.123989263077,-1.35641141322,0.0794810671282,1.89431050122,0.159139531263,-0.00239887945756,-0.0126229988403,0.00161837504323,-0.0169622316771,-0.00438460157972,0.00870499741688,0.00149056448132,0.573835141308,0.818956489937,0.00206036186806,0.0,0.818914636795,-0.57377597341,-0.0118615716083,0.0,-0.00853208918217,0.00849401064683,-0.999927524992,0.0,0.661606251609,0.260824653039,0.303305515394,1.0,-0.0021,-0.00276,0.106
0.465032609811,0.547095960171,-0.123986152463,-1.35663362456,0.0794795313914,1.89443166793,0.159129033506,-0.000174700569308,-0.0111355015708,0.000167257592709,-0.00991500951315,-4.30149946438e-05,0.00397205870428,0.00134844198116,0.573852390142,0.818944183425,0.00214608077039,0.0,0.818903379311,-0.573792811995,-0.0118241768058,0.0,-0.00845209782793,0.00854292939446,-0.999927787593,0.0,0.661588988144,0.260797841842,0.303347340275,1.0,-0.00242,-0.00318057142857,0.122
0.465005511007,0.546887655496,-0.123988553762,-1.35694098232,0.0794752743631,1.89455270448,0.159104640453,-0.000884814756421,-0.0124907159726,-0.000799199514392,-0.0219343827443,-4.8541054871e-05,0.00222924027824,-0.00322388487715,0.573872393242,0.818930098677,0.00217178641984,0.0,0.818889523465,-0.573812604706,-0.0118232796478,0.0,-0.00843640357311,0.00856367181107,-0.999927742699,0.0,0.661555986567,0.260752306829,0.303359167348,1.0,-0.00276,-0.00362742857143,0.139
0.464968336284,0.546626821091,-0.123985918857,-1.35733005461,0.079468343488,1.89469816161,0.159053154616,-0.00471634582787,-0.0150572021413,0.000506512699286,-0.0255394390575,0.000328715682762,0.00451926053209,-0.00800278716943,0.573878760554,0.818925571244,0.00219632639428,0.0,0.818885155227,-0.573818712187,-0.0118294122439,0.0,-0.00842727724742,0.00858735285009,-0.999927616565,0.0,0.661512095743,0.260695235605,0.303371241508,1.0,-0.0031,-0.00407428571429,0.156
0.464933491066,0.546377853261,-0.123989606154,-1.35770944444,0.0794548038445,1.8948471565,0.158943103142,-0.000650038480481,-0.0175483342977,-0.000776941549651,-0.0267238281299,-0.00142414377367,0.00984398597706,-0.00353230069989,0.573837437132,0.818954472902,0.0022167456509,0.0,0.818914261929,-0.573777252124,-0.0118255425317,0.0,-0.00841282469552,0.00860142925184,-0.999927617278,0.0,0.661472008232,0.260636209788,0.303380010362,1.0,-0.0034,-0.00446857142857,0.171
0.464884902149,0.546067262479,-0.12398665875,-1.35824862126,0.079429808214,1.89502418993,0.15892072718,0.000441123379943,-0.0168095558367,0.000592567865499,-0.0354037796723,-0.00468162297068,0.0143565776158,-0.00366756896055,0.573880280878,0.818924557832,0.00217685538191,0.0,0.818883711791,-0.573820129527,-0.0118605402506,0.0,-0.00846392719996,0.00858928695591,-0.9999272904,0.0,0.661405120514,0.260553814126,0.303358539174,1.0,-0.00376,-0.00494171428571,0.189
0.464822198938,0.545725343853,-0.123986737671,-1.35881439304,0.079358192557,1.89521633213,0.158841029004,-0.00347077755784,-0.0205453773851,0.000582413570925,-0.0356597976219,-0.00192570337479,0.012486825424,-0.0051402841486,0.57387894399,0.818925620263,0.0021290896339,0.0,0.818884458593,-0.57381929213,-0.0118494875293,0.0,-0.00848229952869,0.0085438142972,-0.99992752429,0.0,0.661342896922,0.26045106807,0.303347894259,1.0,-0.0041,-0.00538857142857,0.206
0.464754332264,0.545362392886,-0.123991608127,-1.35947054206,0.0793025864058,1.89542837188,0.158740930751,-0.00421808333337,-0.0207015206528,0.000583025794708,-0.0434685849775,-0.000970717272698,0.0104248825939,-0.00309220448073,0.573877725129,0.81892667755,0.00204946316716,0.0,0.818884595721,-0.573818509728,-0.0118778653857,0.0,-0.00855124557432,0.00849487973676,-0.99992735397,0.0,0.661265907929,0.260335623121,0.303311015688,1.0,-0.00444,-0.00583542857143,0.223
0.464688353523,0.544937293575,-0.123989930777,-1.360169332,0.0792856406954,1.89565406771,0.158692776045,-0.00577244245831,-0.0260229284099,0.00140469176581,-0.0396395797911,5.16215520825e-05,0.0145602871752,-0.0056656657569,0.57392546381,0.818893287931,0.00202283813929,0.0,0.818850573774,-0.57386606864,-0.0119256024719,0.0,-0.00860512332356,0.00850097277096,-0.999926839981,0.0,0.661179246029,0.260228171939,0.303298842386,1.0,-0.00478,-0.00628228571429,0.24
0.464611098378,0.544513004464,-0.123998764187,-1.36088871644,0.0792589517282,1.89591520185,0.158581339971,-0.00140914111733,-0.0289229405636,-0.00335636094545,-0.041262309188,-0.00214632217687,0.0137302113062,-0.00545182297183,0.573936721341,0.818885453895,0.00200004926212,0.0,0.818842317754,-0.573877296244,-0.0119521718444,0.0,-0.00863984314665,0.00849767890133,-0.999926568586,0.0,0.661100698518,0.260105556162,0.303279663383,1.0,-0.00512,-0.00672914285714,0.257
0.46454871901,0.544041690182,-0.124001344946,-1.36164050288,0.079218750501,1.89617834661,0.158479833053,-0.00299638597042,-0.0364754427336,0.000203293553149,-0.0466875145479,-0.00735095523042,0.0130485221009,-0.0054770038703,0.573937609696,0.818884861638,0.0019875759442,0.0,0.818841499731,-0.573878174701,-0.0119660277665,0.0,-0.00865833923688,0.00849542660416,-0.999926427738,0.0,0.661011697645,0.259991125988,0.303278238002,1.0,-0.00544,-0.00714971428571,0.273
0.4644677271,0.543532902453,-0.124005087313,-1.36247653065,0.0791717455761,1.89646463079,0.158395185195,-0.00697142691265,-0.0296152595425,-0.00101646081689,-0.0463485712528,-0.00430149967145,0.020825068956,-0.00322034639848,0.573971169121,0.818861422164,0.00195325638277,0.0,0.818817560175,-0.573911823585,-0.011990362747,0.0,-0.0086976160148,0.00848164644782,-0.999926203852,0.0,0.660914281294,0.259854684447,0.303265218813,1.0,-0.00578,-0.00759657142857,0.29
0.464400595014,0.542980281263,-0.124006207052,-1.36334474331,0.0791150705727,1.89678690844,0.158278099513,-0.00256386864702,-0.0336841505096,0.000481756661795,-0.0467140244959,-0.00709676711374,0.0214337204977,-0.00921470606271,0.573964270652,0.818866251274,0.00195587333929,0.0,0.818822460573,-0.573904951108,-0.0119846592511,0.0,-0.00869151493922,0.00848044250115,-0.999926267113,0.0,0.660814006629,0.259726568693,0.303270847691,1.0,-0.00612,-0.00804342857143,0.307
0.46433873143,0.542433467568,-0.124016552092,-1.36420893054,0.079072733873,1.89708458715,0.158164459265,-0.00642351549639,-0.0356961988557,-0.00445423596905,-0.056293950909,-0.00250716804662,0.0161803821144,-0.0093623819165,0.573965740772,0.818865252905,0.00194239709788,0.0,0.818821208249,-0.573906402204,-0.0120007221854,0.0,-0.00871238801774,0.00847864257766,-0.999926100727,0.0,0.660709411026,0.259597642779,0.303272412086,1.0,-0.00644,-0.008464,0.323
0.464263596953,0.541817217366,-0.124011608428,-1.36516681115,0.0790170638404,1.89743850425,0.158032038041,-0.0066575573317,-0.0410994204797,0.000648866412356,-0.0529213363164,-0.00187697370579,0.0236220224479,-0.0104586695134,0.573957375445,0.818871058038,0.00196682009891,0.0,0.818827262459,-0.573897866106,-0.0119958506997,0.0,-0.00869446849224,0.00849575647083,-0.99992611144,0.0,0.66059353813,0.259448197919,0.303287352203,1.0,-0.0068,-0.00893714285714,0.341
0.464177690059,0.541118228736,-0.124011561346,-1.36622614251,0.0789541937018,1.89784363662,0.157902429689,-0.00629478814055,-0.0372109881648,0.00224743463237,-0.0625714289286,-0.000470379245851,0.0232788674472,-0.00641309881011,0.573959935823,0.818869199264,0.00199335619443,0.0,0.818825764736,-0.573900328469,-0.011980270832,0.0,-0.0086664538645,0.00850857070451,-0.999926245681,0.0,0.660477347693,0.25930430161,0.303307839093,1.0,-0.00714,-0.009384,0.358
0.464096957568,0.540453990732,-0.12401159751,-1.36723295256,0.0788961491173,1.89820867475,0.157768844817,-0.00170068033877,-0.0450792967522,0.000660830250315,-0.062664339563,-0.00585362819739,0.0221706101816,-0.00510746508385,0.573956885569,0.818871285462,0.00201451105487,0.0,0.818828083319,-0.573897146816,-0.0119742117062,0.0,-0.00864938251302,0.00852238356618,-0.999926275863,0.0,0.660359315666,0.25915555238,0.303329765317,1.0,-0.00746,-0.00980457142857,0.374
0.463995579428,0.539721790462,-0.124017424462,-1.36835481272,0.0788320491307,1.89864042284,0.157643411309,-0.00685209892554,-0.0427024029435,-0.00204067764629,-0.0654767478694,-0.00822617746017,0.0282598157215,-0.00898644672759,0.573986333544,0.818850556242,0.00204996298562,0.0,0.818807829193,-0.573926455776,-0.0119544600001,0.0,-0.00861255404819,0.00854038683603,-0.999926440147,0.0,0.660236619168,0.258980600583,0.303350833185,1.0,-0.0078,-0.0102514285714,0.391
0.463897787359,0.538963322302,-0.124017348765,-1.36952289146,0.0787693764243,1.8990813384,0.157485331116,-0.00539232669277,-0.045363128863,-0.000293419648783,-0.07481163545,-0.00673175200631,0.023255320626,-0.0129124574722,0.573984773089,0.818851572897,0.00208055927249,0.0,0.818809174248,-0.573924698758,-0.0119466825832,0.0,-0.00858864082841,0.00856095973658,-0.999926469905,0.0,0.660103164684,0.258807161426,0.303368946287,1.0,-0.00814,-0.0106982857143,0.408
0.463797106063,0.538282943999,-0.124025744067,-1.37058297176,0.0786981030263,1.89948959161,0.157358885462,-0.00547708238385,-0.0454111144813,0.0020003448528,-0.0755075324274,-0.00717144158636,0.0268873194213,-0.0065725410316,0.574003689613,0.818838243655,0.0021075910958,0.0,0.818796263587,-0.573943568098,-0.0119250273006,0.0,-0.00855519477076,0.00857086239935,-0.999926671792,0.0,0.659980512223,0.25863029775,0.303383848384,1.0,-0.00846,-0.0111188571429,0.424
0.463679532621,0.537442399066,-0.124023622729,-1.37191358794,0.0786208802198,1.89999441786,0.157193124307,-0.00295877334,-0.0445463938586,-0.00212103329053,-0.0710123038993,-0.00164498220401,0.0255695219046,-0.00438749794201,0.57402097088,0.818826120236,0.00211109200657,0.0,0.818784204057,-0.573960851223,-0.011921214329,0.0,-0.00854988212414,0.00857172084367,-0.999926709873,0.0,0.65983785174,0.258433584624,0.30338453612,1.0,-0.0088,-0.0115657142857,0.441
0.463558122063,0.536594602666,-0.124030399456,-1.37321411304,0.0785481105528,1.9004833592,0.157031095248,-0.0122447478473,-0.0497040404378,-0.000586821753117,-0.071273130913,-0.003595123409,0.0270724469471,-0.00752152343682,0.574044605389,0.818809468233,0.00214304871652,0.0,0.818767950208,-0.573984334642,-0.0119068971224,0.0,-0.0085195677375,0.00858991504733,-0.999926812484,0.0,0.659693104157,0.25822770151,0.303406659253,1.0,-0.00914,-0.0120125714286,0.458
0.463438828382,0.535784741408,-0.124035256322,-1.37450976362,0.0784887172493,1.90095151865,0.15687884326,-0.0094954403425,-0.0525572080926,-0.000894089163673,-0.0822291477833,-0.00672977538413,0.0356591631676,-0.00753270021803,0.574076328426,0.818787244039,0.00213659559915,0.0,0.818745464995,-0.574015901682,-0.011931264316,0.0,-0.008542891655,0.0085989499258,-0.999926535833,0.0,0.659542307427,0.258025175437,0.303402339357,1.0,-0.00946,-0.0124331428571,0.474
0.463311833954,0.534874694335,-0.124036351758,-1.3759343006,0.0783883750338,1.90147386653,0.156709422625,-0.00723276387167,-0.0584359580255,-0.00101431999144,-0.0846174852302,-0.00528561262351,0.0353236654611,-0.00758465876245,0.574093564784,0.818775163915,0.00213465012273,0.0,0.818733471021,-0.574033256045,-0.0119193660247,0.0,-0.00853408501774,0.0085907062332,-0.999926681892,0.0,0.659378103296,0.257802860907,0.303411716125,1.0,-0.0098,-0.01288,0.491
0.463187064545,0.533978928701,-0.124045574474,-1.37741169815,0.0783074951247,1.90200457872,0.156523433733,-0.0046884545302,-0.053229843945,-0.000935466067104,-0.0853274111051,-0.00223282161148,0.0289950668262,-0.00938466856368,0.574111327899,0.818762820802,0.00209125626703,0.0,0.818720489645,-0.574051121798,-0.0119505773299,0.0,-0.00858436567441,0.00857328123716,-0.999926401049,0.0,0.659193877639,0.257558996722,0.303385139835,1.0,-0.01016,-0.0133531428571,0.509
0.463061755655,0.533062153233,-0.124048928643,-1.37889605321,0.0782353820831,1.90257110094,0.156327702591,-0.00582613626822,-0.0517127332533,-0.000440717174821,-0.0863680379842,-0.00298264731324,0.036715253562,-0.0150441214361,0.574115922196,0.818759581024,0.00209839534479,0.0,0.818717196206,-0.574055539398,-0.0119639970502,0.0,-0.00859120714804,0.00858687887688,-0.999926225614,0.0,0.659031381974,0.257352604129,0.30337599189,1.0,-0.01048,-0.0137737142857,0.525
0.46293422112,0.532108577847,-0.124050315441,-1.38044715242,0.0781335336266,1.90314825366,0.15614120568,-0.00668317809868,-0.0550072775353,-0.000931305961565,-0.0896755603017,-0.00618135120317,0.027064721591,-0.00866034909743,0.574126009714,0.818752568688,0.00207440049075,0.0,0.818709929975,-0.574065784091,-0.0119696699287,0.0,-0.00860952141618,0.0085705961248,-0.999926207789,0.0,0.658848935699,0.257118845532,0.303360052517,1.0,-0.01082,-0.0142205714286,0.542
0.462807867086,0.531101625016,-0.12405174031,-1.38206181335,0.078040462805,1.90372966155,0.155943150218,-0.010125346071,-0.0588622841512,0.000367079984515,-0.101523861932,-0.0123340459429,0.0339050062299,-0.0122135439921,0.574131220055,0.818748967609,0.00205355778166,0.0,0.818705973921,-0.574070998276,-0.0119901670095,0.0,-0.00863821520716,0.00856535414708,-0.999926005236,0.0,0.658652707731,0.256880731145,0.303351654422,1.0,-0.01116,-0.0146674285714,0.559
0.462677491177,0.530126947381,-0.124049973115,-1.38361027363,0.0779468139056,1.90427700956,0.155738158702,-0.00745688303413,-0.0587799581735,0.000260430852423,-0.0945389987897,-0.00451899443168,0.0335811842352,-0.00930385591522,0.574127753428,0.818751452852,0.00203177197976,0.0,0.818708103954,-0.574067553673,-0.0120096311945,0.0,-0.00866669547939,0.00855865554304,-0.999925816151,0.0,0.658464187178,0.256646889193,0.303348732212,1.0,-0.01148,-0.015088,0.575
0.462539450917,0.529072664052,-0.124050681749,-1.38526120231,0.0778329153768,1.90489689938,0.155513336126,-0.00742494387862,-0.0566985310489,0.00092774002813,-0.0999805099183,-0.0107330586822,0.0358471461455,-0.00970075622413,0.574117911974,0.818758342791,0.00203621233686,0.0,0.818715168032,-0.574057809529,-0.0119938256378,0.0,-0.00865130777356,0.00855311273119,-0.99992599683,0.0,0.658261105021,0.256379861459,0.303353648478,1.0,-0.01184,-0.0155611428571,0.593
0.462392002982,0.527925573295,-0.124045640991,-1.38706875674,0.0777341163595,1.90559529657,0.155262414334,-0.00577375034985,-0.0623628673551,0.00200563510778,-0.101814650984,-0.00505699859053,0.0413219356987,-0.0193590367018,0.574099441037,0.818771183194,0.00208045046158,0.0,0.818728481961,-0.574039052714,-0.011982724519,0.0,-0.00861701562437,0.00858276474147,-0.99992603886,0.0,0.658060053733,0.256134884546,0.303366922824,1.0,-0.01218,-0.016008,0.61
0.462255242001,0.526815404543,-0.124053044885,-1.38873478166,0.0776234783568,1.90622306701,0.155027981911,-0.00528475676948,-0.0623564998806,0.000941754392838,-0.102245490998,-0.0109972854964,0.0348479900281,-0.0164322140446,0.574084882881,0.818781250268,0.00213503115985,0.0,0.81873938374,-0.574024393941,-0.0119399989614,0.0,-0.00855085194061,0.00860277263146,-0.999926434911,0.0,0.657866911953,0.255882119313,0.303409908189,1.0,-0.0125,-0.0164285714286,0.626
0.462099510513,0.525653607489,-0.124053407172,-1.39056485832,0.0775046978257,1.90688891849,0.154788829567,-0.0118079795282,-0.0709730037985,0.00116779614083,-0.110756494328,-0.00464787047236,0.0393331333685,-0.00796172292643,0.574083399392,0.818782307918,0.00212830540912,0.0,0.818740381466,-0.57402296607,-0.0119402295795,0.0,-0.00855491725716,0.00859738269529,-0.999926446496,0.0,0.657647407855,0.255603486592,0.303413960811,1.0,-0.01284,-0.0168754285714,0.643
0.461939240393,0.524400788191,-0.124066970781,-1.39254460339,0.077394399407,1.90760424533,0.154513913924,-0.00684149692535,-0.0738486609382,0.000124260517999,-0.115795044354,-0.00297318440004,0.0433363038976,-0.0179025934418,0.574075845947,0.818787623773,0.00212065019788,0.0,0.818745517422,-0.57401536457,-0.011953486569,0.0,-0.00857024607099,0.00859864630825,-0.999926304366,0.0,0.657408102687,0.255302364352,0.303415225921,1.0,-0.0132,-0.0173485714286,0.661
0.461780442408,0.523198663083,-0.124076606167,-1.39444369756,0.077266021234,1.90830898918,0.154258863192,-0.00893099232332,-0.0710139951626,-0.00204605813988,-0.1130271246,-0.00538340744289,0.0463544196796,-0.0163248656255,0.574071099625,0.81879096131,0.00211687349003,0.0,0.818748941891,-0.574010770961,-0.0119395089725,0.0,-0.00856101867127,0.00858748031051,-0.999926479368,0.0,0.65718338095,0.255009817544,0.303417810052,1.0,-0.01354,-0.0177954285714,0.678
0.461639432545,0.522133830275,-0.124069817434,-1.39616981119,0.0771612211799,1.90898268926,0.154015357277,-0.0125691605101,-0.0763577098611,0.00105181982019,-0.116860925833,-0.0101371293536,0.0448079593307,-0.0122751729589,0.574048512385,0.818806775828,0.00212513239787,0.0,0.818764853246,-0.573988141866,-0.0119362887185,0.0,-0.0085538779733,0.00859215792376,-0.999926500296,0.0,0.65696350817,0.254742433243,0.30340342372,1.0,-0.01386,-0.018216,0.694
0.461461824996,0.520799399658,-0.124077293281,-1.39831446033,0.0770250118509,1.9097855019,0.153736646761,-0.0109382947413,-0.0758432023214,0.000760888949967,-0.11828926567,-0.00602480337347,0.0420612273744,-0.0183061822037,0.574047172154,0.818807747131,0.00211288472976,0.0,0.818765721135,-0.573986908376,-0.0119360717409,0.0,-0.00856074465882,0.00858199104884,-0.999926528841,0.0,0.656723351847,0.254433354147,0.30338926607,1.0,-0.0142,-0.0186628571429,0.711
0.461313816613,0.519639592126,-0.12408643652,-1.400126672,0.076905980747,1.91043860383,0.153502297594,-0.0123673091742,-0.0784236367357,-0.00128824257096,-0.123468008351,-0.00594500675936,0.0417268932689,-0.0170518278439,0.574047157879,0.818807773021,0.00210672085093,0.0,0.818765736178,-0.573986988983,-0.0119311625592,0.0,-0.00856026309836,0.0085741258842,-0.999926600437,0.0,0.656502465752,0.254156078412,0.303398019392,1.0,-0.0145,-0.0190571428571,0.726
0.461125243399,0.518224413471,-0.124086796402,-1.40233314803,0.0767716987215,1.9112240424,0.153196465814,-0.0114853991041,-0.0744944062764,0.000225561378108,-0.12265655668,-0.00461477882555,0.0488496009192,-0.0182652161504,0.574032114329,0.818818329658,0.00210276877399,0.0,0.818776161574,-0.573971883711,-0.0119423971152,0.0,-0.00857188853918,0.00857718154895,-0.999926474639,0.0,0.656229983205,0.253820415473,0.303409225479,1.0,-0.01486,-0.0195302857143,0.744
0.460947353288,0.516857802267,-0.124095444832,-1.40446841649,0.0766352924786,1.91198696187,0.152902092465,-0.0071987290952,-0.077009403013,-0.00216781597162,-0.131666442339,-0.00817216388363,0.0395811574567,-0.0151205680186,0.574018885414,0.81882762816,0.00209319167624,0.0,0.818785358023,-0.573958718646,-0.011944608781,0.0,-0.00857933524384,0.00857047072333,-0.999926468316,0.0,0.655967044758,0.253492939798,0.303418109332,1.0,-0.0152,-0.0199771428571,0.761
0.460776717524,0.515571377644,-0.124089004443,-1.40651254312,0.0765014911325,1.91278325565,0.15261507668,-0.0105731054816,-0.0833572601001,0.00225922787015,-0.126193377372,-0.00710310539268,0.0433054279424,-0.0187567025283,0.573991043973,0.818847076521,0.00211981439866,0.0,0.8188052241,-0.573930842417,-0.0119222485463,0.0,-0.00854603604176,0.00857914416845,-0.999926679089,0.0,0.655724119442,0.253191464587,0.303416173023,1.0,-0.01552,-0.0203977142857,0.777
0.460591069198,0.514175577506,-0.124097211185,-1.40874684246,0.0763728167851,1.9135788466,0.152315029624,-0.00941741287182,-0.0819310912762,0.00487079788019,-0.13345897912,-0.00810473077164,0.0433032090982,-0.0210722894222,0.573984794377,0.818851565214,0.00207770839964,0.0,0.818809018695,-0.573924621545,-0.01196104466,0.0,-0.00860203775038,0.00856686907432,-0.999926304135,0.0,0.655427288765,0.252830401619,0.30339588309,1.0,-0.01588,-0.0208708571429,0.795
0.460404474917,0.512760093428,-0.124102443639,-1.41101864866,0.076235426736,1.91436587688,0.151989443527,-0.00554288212333,-0.0834054402268,-0.000111520925661,-0.135043162666,-0.0079601444533,0.0442832037945,-0.0177501127448,0.573957784831,0.818870623698,0.00202725846218,0.0,0.818827330382,-0.573897738465,-0.0119973207689,0.0,-0.00866098124473,0.00854609482582,-0.999925973094,0.0,0.655154569866,0.252506275202,0.303379369032,1.0,-0.0162,-0.0212914285714,0.811
0.460216968804,0.511421567391,-0.124103218648,-1.41318287311,0.0761008133077,1.91518894233,0.151689387884,-0.0135867913123,-0.085454739762,-0.00109400937154,-0.135902018018,-0.0130173298183,0.0483940494572,-0.0258934749759,0.573943282105,0.818880804303,0.00202093342605,0.0,0.818837439415,-0.573883275064,-0.011999221454,0.0,-0.00866631907551,0.00854185295295,-0.99992596309,0.0,0.65489334122,0.252177837233,0.303358161862,1.0,-0.01652,-0.021712,0.827
0.460000059176,0.509864366731,-0.124106144026,-1.41566443265,0.0759434776999,1.91612098313,0.151341911801,-0.0111063811723,-0.0887478912208,-0.000256093762778,-0.139494943229,-0.0122089675098,0.0599769169235,-0.0259567646317,0.573925481024,0.818893278181,0.00202190078874,0.0,0.818849960075,-0.573865505801,-0.0119946253817,0.0,-0.0086621857545,0.00853981894002,-0.999926016278,0.0,0.654592163537,0.251797920256,0.303348043294,1.0,-0.01688,-0.0221851428571,0.845
0.459789448706,0.508352344444,-0.124109641997,-1.41804284706,0.0757945583707,1.91695990872,0.151024946417,-0.0144981330856,-0.0926539086087,0.00159048502818,-0.139666090477,-0.0114349838707,0.0549737999211,-0.016438670348,0.573923987542,0.818894386134,0.00199694379944,0.0,0.818850683225,-0.5738640601,-0.0120144083623,0.0,-0.00869272464592,0.00853072019256,-0.999925828925,0.0,0.654292876159,0.251428635922,0.303346777136,1.0,-0.01722,-0.022632,0.862
0.459593127437,0.506995772016,-0.124112785193,-1.42016451948,0.0756651303482,1.91772545816,0.150717952782,-0.0116553155374,-0.0910497455088,-0.000803239623407,-0.139252308036,-0.0046479305729,0.0511714039494,-0.0185215865029,0.573910460542,0.818903864838,0.0019975824216,0.0,0.818860110507,-0.573850473433,-0.0120208344785,0.0,-0.00869776165351,0.00853478753525,-0.999925750415,0.0,0.654030652011,0.251095540266,0.303352127304,1.0,-0.01752,-0.0230262857143,0.877
0.459355871932,0.505308833349,-0.124124514053,-1.42276155998,0.075498360777,1.9187262238,0.150366432124,-0.0122162173927,-0.09553040612,-0.000547165718815,-0.146111469115,-0.00166140353237,0.0564004826939,-0.0132339517856,0.57391449379,0.818900868045,0.00206616416814,0.0,0.818858150575,-0.57385435743,-0.0119688176891,0.0,-0.00861576376414,0.00856113814322,-0.999926235044,0.0,0.653723513773,0.250688545233,0.303382288409,1.0,-0.01788,-0.0234994285714,0.895
0.45911446054,0.503563428811,-0.124129125758,-1.42537482696,0.075333260024,1.91973124228,0.149998981472,-0.0167706311232,-0.0911274157024,8.82092713222e-05,-0.140609906994,-0.0096574343164,0.0547068286785,-0.0201222586356,0.573903987845,0.818907968967,0.00216748693398,0.0,0.818866683794,-0.573843549623,-0.0119030092472,0.0,-0.00850383445644,0.0086062330088,-0.999926806098,0.0,0.653429614225,0.250303757548,0.303439738923,1.0,-0.01822,-0.0239462857143,0.912
0.45891452683,0.502054666472,-0.124142832062,-1.42759430019,0.0751832903423,1.92054679801,0.149686009772,-0.0156742937639,-0.0955534745561,-0.00153877774325,-0.151479372991,-0.00895758164213,0.0580987214568,-0.0191920942682,0.573894647611,0.818914265161,0.00225979235272,0.0,0.818874308706,-0.573833973897,-0.0118399258261,0.0,-0.00839930024405,0.00864552241345,-0.99992735071,0.0,0.653142945059,0.249931594257,0.303513008204,1.0,-0.01854,-0.0243668571429,0.928
0.458668147557,0.500243401706,-0.124136220675,-1.43032480895,0.0750092495445,1.92151753039,0.149306371068,-0.0119124706811,-0.0974125952213,-0.000568314585789,-0.148165399386,-0.00913914667859,0.0547066022909,-0.0201616648007,0.573872775362,0.818929467415,0.00230477749627,0.0,0.818890023729,-0.573811854705,-0.0118250301623,0.0,-0.00836151798829,0.00867358917006,-0.9999274243,0.0,0.652796021178,0.249512396892,0.303561195706,1.0,-0.0189,-0.02484,0.946
0.458440972315,0.498658623419,-0.124138325393,-1.43280347365,0.0748571660925,1.92242851404,0.148954275963,-0.014772912456,-0.0991515877892,-0.000757483836599,-0.157588682874,-0.0140364304031,0.0523631389053,-0.0233049172338,0.573857036537,0.818940456147,0.00231900944832,0.0,0.818901147113,-0.573796010479,-0.0118235577278,0.0,-0.00835231219707,0.0086842384949,-0.999927408807,0.0,0.652486756338,0.249127063039,0.303565811132,1.0,-0.01922,-0.0252605714286,0.962
0.458196008256,0.497075587177,-0.124135780464,-1.43530730288,0.0747065842369,1.9233406817,0.148578224514,-0.0122113177217,-0.100631214314,-0.00380621877516,-0.155191260112,-0.0135094646278,0.0537119130009,-0.020056687382,0.573834170063,0.818956492123,0.00231434192821,0.0,0.818917004897,-0.573773042879,-0.0118398165961,0.0,-0.00836854877704,0.00868951259034,-0.999927227233,0.0,0.65217382016,0.248730281819,0.303556657384,1.0,-0.01954,-0.0256811428571,0.978
0.457929654526,0.495403180284,-0.124135188214,-1.43801508268,0.0745454640087,1.92426400649,0.148192408213,-0.0172317103474,-0.098557134684,0.00145757667034,-0.158514036725,-0.0104098961733,0.0585285508662,-0.0277081412306,0.573837058102,0.818954752867,0.00221142644842,0.0,0.818913676515,-0.57377608185,-0.0119224668363,0.0,-0.00849526083871,0.00865268724892,-0.999926478071,0.0,0.651799793288,0.24826537034,0.303505194809,1.0,-0.0199,-0.0261542857143,0.996
0.45762507016,0.493586426371,-0.124147324955,-1.44097304308,0.0743538999775,1.92533154742,0.14778463268,-0.0186601608136,-0.0992160304694,-0.00275894674387,-0.166627432592,-0.0111679501494,0.0570931030994,-0.0213453922815,0.573850020984,0.818945826686,0.00215250367465,0.0,0.818904011976,-0.573789312795,-0.0119495017923,0.0,-0.0085510756542,0.0086200817125,-0.999926283931,0.0,0.651453144859,0.247803987518,0.303463470044,1.0,-0.0222017142857,-0.0291793959184,1.013
0.457357483332,0.491712727863,-0.124172751749,-1.44393797921,0.0741789759371,1.92643530154,0.147364925299,-0.0205352632449,-0.120405362463,0.000766015058568,-0.191776733635,-0.00974865733278,0.0683698984465,-0.0242233400038,0.573845333411,0.818949089894,0.00216064472883,0.0,0.818907368715,-0.573784579762,-0.0119467314847,0.0,-0.00854418475089,0.00862511006172,-0.999926299476,0.0,0.651083536343,0.247334673476,0.303452741801,1.0,-0.025164,-0.0330726857143,1.029
0.457019320565,0.489499472884,-0.124183889841,-1.44752575381,0.073967224706,1.92769564788,0.14683886884,-0.0226932581158,-0.139578271554,-0.00192365508106,-0.217444366268,-0.00953476631425,0.0760321693878,-0.0319541005751,0.573821118034,0.818966297731,0.00206750565593,0.0,0.818923119648,-0.573760513048,-0.0120226733619,0.0,-0.00866007791946,0.00859215747756,-0.999925586171,0.0,0.650616876695,0.246763475392,0.303394097162,1.0,-0.0283114285714,-0.0372093061224,1.046
0.456613581193,0.48695680454,-0.124210501389,-1.45149956549,0.0737235267969,1.9291957854,0.146266295102,-0.0242656357094,-0.15089189005,0.000118270193518,-0.245795899214,-0.0139192413507,0.0949818002537,-0.0321289677511,0.573836973477,0.818955017708,0.00213395017982,0.0,0.818912791459,-0.573776172778,-0.0119787494279,0.0,-0.0085858124863,0.00862153440761,-0.999925973744,0.0,0.650104459532,0.246069107894,0.303404772189,1.0,-0.031644,-0.0415892571429,1.064
0.456193035025,0.484292435833,-0.12423451125,-1.45555182742,0.0734712199618,1.93070504328,0.145641483644,-0.0296210705276,-0.171535544514,0.000215106907211,-0.255810020292,-0.0188501344256,0.0896730746605,-0.0399835217973,0.573816877823,0.81896887333,0.00221859040695,0.0,0.818927791779,-0.573755774747,-0.0119302010664,0.0,-0.0084976978752,0.00866278285598,-0.999926369951,0.0,0.649633709679,0.245438406689,0.303453001836,1.0,-0.0344211428571,-0.0452392163265,1.079
0.455661691733,0.481038716882,-0.124294220849,-1.46063363745,0.0731573216789,1.93245754516,0.144885428156,-0.0296841136795,-0.188324263958,-0.00738337639388,-0.297059368921,-0.0204718440468,0.106175066899,-0.0432325053545,0.573839384859,0.818953290964,0.00214813996128,0.0,0.818911229735,-0.573778504959,-0.0119738031689,0.0,-0.00857359404337,0.00863034194305,-0.999926002604,0.0,0.648981649787,0.24456804794,0.303444783866,1.0,-0.0377537142857,-0.0496191673469,1.097
0.455119637904,0.477672152222,-0.124351049469,-1.46580335029,0.0728421782099,1.93433834309,0.144125125936,-0.0340188981083,-0.207379582544,-0.00192537696709,-0.3138834648,-0.022150458598,0.124293503453,-0.0461328282664,0.573867907754,0.818933144625,0.00220816336894,0.0,0.818891909264,-0.57380682223,-0.0119381156719,0.0,-0.00850962323898,0.00865931529895,-0.999926298569,0.0,0.648334012404,0.243692332587,0.303481293627,1.0,-0.0409011428571,-0.0537557877551,1.114
0.45458535241,0.474514594479,-0.124376154152,-1.47064548681,0.0725545360633,1.93612918721,0.143426943345,-0.0368436329073,-0.213539163366,-0.00409643232747,-0.329949000758,-0.0207896012831,0.1261703744,-0.0515395475087,0.573908107484,0.818904714174,0.00230220972188,0.0,0.818864597,-0.573846529408,-0.0119029142689,0.0,-0.00842639978263,0.00871654485821,-0.999926506116,0.0,0.647728900393,0.242875115838,0.303517749941,1.0,-0.0436782857143,-0.0574057469388,1.129
0.45389690138,0.470463236739,-0.124393738356,-1.47687653422,0.0721687393578,1.93831755103,0.142495854669,-0.0406051782064,-0.231220517522,0.00025135297155,-0.344036416017,-0.0215458919882,0.1237516799,-0.048934999613,0.573915255407,0.818899667929,0.00231524888919,0.0,0.818859453038,-0.573853347493,-0.0119280611693,0.0,-0.00843943449053,0.00874172801691,-0.999926176343,0.0,0.646918207983,0.241822295333,0.303542473135,1.0,-0.0470108571429,-0.0617856979592,1.147
0.453215888972,0.466327633014,-0.124409683387,-1.48305860731,0.0717674069548,1.94067665978,0.141487331947,-0.0391919054785,-0.247159223434,3.31367294239e-05,-0.373539323775,-0.0290496354955,0.131598849439,-0.0600012811169,0.573842808746,0.81894967149,0.00257163746173,0.0,0.818913006546,-0.573780152557,-0.0117716244774,0.0,-0.00816497066451,0.0088611800243,-0.999927403736,0.0,0.646147978225,0.240791707991,0.303659128812,1.0,-0.0501582857143,-0.0659223183673,1.164
0.452515258602,0.462260909953,-0.124413548074,-1.48937761911,0.071355544053,1.94282444314,0.140539962406,-0.0445538702252,-0.258448348285,0.000577251503786,-0.412654716463,-0.0313964412022,0.134779947282,-0.0578672656866,0.573826903046,0.818961087316,0.00248388883478,0.0,0.818922977663,-0.57376425145,-0.0118527344494,0.0,-0.00828192112699,0.0088357016571,-0.999926667391,0.0,0.645294960017,0.23972443829,0.303640928773,1.0,-0.0531205714286,-0.0698156081633,1.18
0.451729172809,0.45771418391,-0.124427474582,-1.49639786654,0.070869708697,1.94526512184,0.139490456809,-0.050883176501,-0.268405728771,0.000137991575238,-0.419624762506,-0.026729976885,0.15080454037,-0.0720370679446,0.573813216698,0.818970814586,0.00243805270792,0.0,0.818932132031,-0.573750768418,-0.0118729006129,0.0,-0.00832488475165,0.00880959660634,-0.999926540953,0.0,0.644356071108,0.238528946498,0.303640775562,1.0,-0.056268,-0.0739522285714,1.197
0.450882888834,0.452971205006,-0.124449330282,-1.50374567382,0.070374646875,1.94789088991,0.138319556979,-0.0527026658113,-0.290242382371,-0.00324030591084,-0.434793144417,-0.0305968923285,0.156565780213,-0.0752851503342,0.573764744482,0.81900476684,0.00244065230079,0.0,0.818966147121,-0.573702323038,-0.01186765823,0.0,-0.00831962094536,0.00880822508878,-0.999926596845,0.0,0.643384383008,0.237266292576,0.303630974404,1.0,-0.0594154285714,-0.0780888489796,1.214
0.450032781452,0.448188282255,-0.124504912358,-1.51085818712,0.069888469099,1.95056632013,0.137213310391,-0.0594877720145,-0.302138777271,-0.00408326171446,-0.451502404954,-0.0223855155318,0.156829025316,-0.0678323728065,0.573785160338,0.818989628321,0.00270654384874,0.0,0.818954965061,-0.573722302969,-0.0116718112715,0.0,-0.00800644195389,0.0089138212436,-0.999928217763,0.0,0.642481753572,0.236015373429,0.303759705474,1.0,-0.0623777142857,-0.0819821387755,1.23
0.449077144414,0.442974554042,-0.124532776579,-1.51897111985,0.069352233794,1.95325425762,0.136001232839,-0.0588700946768,-0.308902713655,-0.00149007210735,-0.483402047808,-0.0298748923586,0.166889155054,-0.0797238112921,0.573810730495,0.818972287571,0.00252678846446,0.0,0.818934864778,-0.573748056281,-0.0118153318652,0.0,-0.00822684778823,0.00884920975278,-0.999927002567,0.0,0.641349601895,0.234597122483,0.303702756379,1.0,-0.0655251428571,-0.0861187591837,1.247
0.447999823242,0.437227512744,-0.12455167716,-1.527910821,0.0687460157033,1.95631697939,0.134541702296,-0.060596195031,-0.31845596252,-0.000939861879787,-0.503648345759,-0.0297944409809,0.17643412852,-0.0774014357662,0.573738664056,0.819023134757,0.00240769630137,0.0,0.81898389344,-0.573676171309,-0.0119071264142,0.0,-0.00837113517616,0.00880361278957,-0.999926207526,0.0,0.640112672527,0.233032470315,0.303642308696,1.0,-0.0688577142857,-0.0904987102041,1.265
0.447035908611,0.432143111857,-0.124559408818,-1.53539680174,0.0682340776317,1.95913545943,0.133318514673,-0.0701826171912,-0.33996551422,0.00104302755205,-0.496793823162,-0.0451673900248,0.187648582819,-0.0858445191684,0.57371704314,0.819037212195,0.00274706232733,0.0,0.819002691323,-0.573653624773,-0.01169860209,0.0,-0.00800588231889,0.00896171137998,-0.999927794182,0.0,0.639136950659,0.231708543973,0.303791418778,1.0,-0.0716348571429,-0.0941486693877,1.28
0.445794739674,0.425988570437,-0.12463018944,-1.54497396436,0.0675340267456,1.96235462189,0.131784346077,-0.0690749167988,-0.351889361641,-0.00751952792503,-0.550790644109,-0.0369341446755,0.179070390106,-0.0892164609573,0.573744128361,0.819018931796,0.00253208065539,0.0,0.818981795366,-0.573681677101,-0.0117855470628,0.0,-0.00820013576706,0.00883578650422,-0.999927340685,0.0,0.63780397996,0.229941141719,0.303704780618,1.0,-0.0749674285714,-0.0985286204082,1.298
0.444632495034,0.420236798008,-0.124737446171,-1.55381597013,0.066906306362,1.96521808132,0.130336757479,-0.0753402708556,-0.359766239433,-0.00644723931881,-0.557921044451,-0.0371161771627,0.182260107458,-0.0833817767133,0.573787043272,0.818989517163,0.00231228283641,0.0,0.818949503347,-0.573725411774,-0.0118999896302,0.0,-0.00841951344072,0.00872187066837,-0.999926517683,0.0,0.636550249726,0.228274500726,0.30365537591,1.0,-0.0779297142857,-0.102421910204,1.314
0.44332380113,0.413837674738,-0.12477597523,-1.56324914568,0.0662569432555,1.9687026098,0.128815988548,-0.0786073891514,-0.383071023616,-0.000652354102647,-0.559404759714,-0.0406866625862,0.201729279149,-0.0978461347307,0.573853946381,0.818941535891,0.00267505448502,0.0,0.818906564216,-0.573791301503,-0.0116759712759,0.0,-0.00802716940303,0.00889109305301,-0.999928253934,0.0,0.635288912585,0.226534482997,0.303805452397,1.0,-0.0810771428571,-0.106558530612,1.331
0.44185458651,0.406970337392,-0.124804156418,-1.57373013779,0.0655349832111,1.97219829067,0.127050508013,-0.0876054216587,-0.384076746351,-0.00875308722617,-0.595969747602,-0.0461300717743,0.200851035468,-0.0924542736888,0.573857577999,0.818939313081,0.0025746001577,0.0,0.818902575128,-0.573794787972,-0.0117839147273,0.0,-0.00817317623955,0.00887080625433,-0.999927251347,0.0,0.63378659171,0.224578491181,0.303765021458,1.0,-0.0844097142857,-0.110938481633,1.349
0.440313731887,0.399857953322,-0.124900196395,-1.58448321293,0.0647697099572,1.97587739836,0.125243887816,-0.0859741547014,-0.41058255801,-0.00462879761167,-0.589917303725,-0.0511496494797,0.223176676683,-0.0951852847059,0.573926730915,0.818890839413,0.00257828780223,0.0,0.81885426758,-0.573864046829,-0.0117682251488,0.0,-0.00815746215486,0.00886551164681,-0.999927426624,0.0,0.632267617072,0.222518979358,0.303765925103,1.0,-0.0877422857143,-0.115318432653,1.367
0.438861737803,0.393299268113,-0.124922033313,-1.59423149966,0.0640171394245,1.97930235952,0.123561727606,-0.0908200807199,-0.410714140229,0.000702578875001,-0.621734327576,-0.0511733843984,0.21124909594,-0.101629905607,0.573922229402,0.818893500236,0.00273070869573,0.0,0.818859423334,-0.573859576008,-0.0116266393106,0.0,-0.00795408916755,0.00890902482779,-0.999928678328,0.0,0.630894488798,0.220658662822,0.303835679976,1.0,-0.0907045714286,-0.119211722449,1.383
0.437373500467,0.386659272223,-0.124966217635,-1.6044324161,0.0632560404436,1.98252662711,0.121803718724,-0.0969774446044,-0.411533014928,-0.00357534327555,-0.643875093159,-0.0472936819915,0.200333768099,-0.110442988416,0.573908660603,0.818903970577,0.00242552258376,0.0,0.818865571394,-0.573846720669,-0.0118264138246,0.0,-0.0082929787236,0.00877362717382,-0.999927122329,0.0,0.629356716647,0.218703655426,0.303718631061,1.0,-0.0936668571428,-0.123105012245,1.399
0.435733026464,0.379231206359,-0.124997991466,-1.61527412805,0.0624737604811,1.98623108293,0.11986244121,-0.100540579007,-0.430962174208,-0.00310851133867,-0.64502716713,-0.040966849993,0.223010232992,-0.112503962489,0.573878858294,0.81892409865,0.00266899889854,0.0,0.818888785773,-0.57381594107,-0.0117119259707,0.0,-0.00805981948083,0.00890701145931,-0.999927849626,0.0,0.627683315292,0.21650884764,0.303849772448,1.0,-0.0969994285714,-0.127484963265,1.417
0.434072748012,0.372234478045,-0.125017899783,-1.62579366767,0.0616712667738,1.98972937356,0.11797064829,-0.107431183793,-0.4508919525,-0.00469549344575,-0.669568769918,-0.0513154690446,0.21440301378,-0.115486690628,0.573853540827,0.818942017643,0.00261387087397,0.0,0.81890599485,-0.573790831071,-0.0117388533766,0.0,-0.00811378134338,0.00887706801493,-0.999927679493,0.0,0.626210716925,0.214571867811,0.303819185954,1.0,-0.0997765714286,-0.131134922449,1.432
0.432133180734,0.364076859452,-0.125133426574,-1.63788207555,0.060733464569,1.99365073093,0.115885753198,-0.108971222387,-0.462472144207,-0.0140494267516,-0.661697636674,-0.0506707687627,0.228988787424,-0.120240577326,0.573984743004,0.818850240027,0.00255853602255,0.0,0.818813740473,-0.573922480759,-0.0117384578478,0.0,-0.00814379447833,0.00883283022115,-0.999927827256,0.0,0.624396325885,0.212134066396,0.303837998817,1.0,-0.103109142857,-0.135514873469,1.45
0.430349611221,0.356685314478,-0.125156737387,-1.64884206861,0.059902929661,1.99723771988,0.113798244423,-0.11621268189,-0.463787456768,0.000371941720232,-0.696097062363,-0.058243188734,0.217367004921,-0.133445058769,0.573897167622,0.818911615693,0.00255999617516,0.0,0.81887491202,-0.573834669332,-0.0117642525607,0.0,-0.00816502571526,0.00884795821707,-0.999927520369,0.0,0.622721980898,0.209969153237,0.303838308441,1.0,-0.106071428571,-0.139408163265,1.466
0.428436824667,0.349161849921,-0.125200603145,-1.66009941532,0.0590587107307,2.00079665355,0.111726336371,-0.126222778059,-0.476309793554,-0.0094055389253,-0.706875677611,-0.0542023284533,0.226523153825,-0.128899591065,0.573940045527,0.818882027444,0.00240752400984,0.0,0.818842789306,-0.573877533347,-0.011908401307,0.0,-0.00837011301624,0.00880626161163,-0.999926192759,0.0,0.620972282685,0.207684678201,0.303769154281,1.0,-0.109033714286,-0.143301453061,1.482
0.426255117515,0.340392147283,-0.125247805752,-1.67267712841,0.0580719699985,2.00507742844,0.109358322315,-0.120049149036,-0.485372266293,0.00105424241436,-0.707412325241,-0.0598068439943,0.23407960883,-0.131628103732,0.573953368004,0.818871550237,0.00276811689432,0.0,0.818837468807,-0.573890032438,-0.0116695007478,0.0,-0.00796738087035,0.0089645596838,-0.999928076169,0.0,0.619071366126,0.205131689018,0.303937197329,1.0,-0.112366285714,-0.147681404082,1.5
0.424234594763,0.332564371592,-0.125247007379,-1.68436441249,0.057131898638,2.00866283892,0.107107244853,-0.128299584348,-0.496541881317,0.00112263433544,-0.727110792567,-0.0693076878747,0.222846173555,-0.136971752535,0.573857824323,0.818939349811,0.00250712905871,0.0,0.818901368769,-0.57379489403,-0.0118623233052,0.0,-0.00827610482287,0.0088605490542,-0.999926495678,0.0,0.617063349824,0.20262450833,0.303828812282,1.0,-0.115513714286,-0.15181802449,1.517
0.422013165827,0.323938930667,-0.125253711632,-1.69671237479,0.0560937979112,2.01271514595,0.104651964844,-0.132323482491,-0.504912707461,0.00103935150723,-0.725275293849,-0.063230574858,0.241925635306,-0.141419113326,0.573752651217,0.819012281062,0.00274328121172,0.0,0.81897788865,-0.573689440236,-0.0116786542264,0.0,-0.0079913236327,0.00894751774726,-0.999928037747,0.0,0.615240740459,0.200240779494,0.303957418373,1.0,-0.118476,-0.155711314286,1.533
0.419653709754,0.315257452,-0.125271733176,-1.7094692236,0.0550864107458,2.01666269013,0.102193784546,-0.14192208536,-0.504584549702,-0.00130221821109,-0.760415949366,-0.0613723531143,0.22322611128,-0.153703238983,0.573773216158,0.818998246743,0.00262966779555,0.0,0.818961777113,-0.573709745467,-0.0118102703636,0.0,-0.00816408186358,0.00893018615503,-0.999926797092,0.0,0.613163573058,0.197587093719,0.303898177045,1.0,-0.121623428571,-0.159847934694,1.55
0.417200608374,0.306321938289,-0.125364420631,-1.72219889922,0.0539841816103,2.02073050638,0.0995468709915,-0.150129692423,-0.520330558579,-0.00503569057967,-0.762386449719,-0.0685695891402,0.24218632977,-0.146252521416,0.573725506264,0.819031142139,0.00278900872029,0.0,0.81899748415,-0.573662300178,-0.0116375775909,0.0,-0.00793174201894,0.00896113874992,-0.999928390166,0.0,0.611131165317,0.19484400957,0.304005991063,1.0,-0.124770857143,-0.163984555102,1.567
0.414775592041,0.297877891625,-0.125407395839,-1.73460530665,0.0529741522489,2.02444917364,0.0970408118532,-0.159111069237,-0.535000061031,-0.000402931372816,-0.800980510654,-0.0608798716952,0.226930561094,-0.149843753369,0.573739373269,0.819022132058,0.00257403599616,0.0,0.81898504601,-0.573676231017,-0.011824689438,0.0,-0.00820817711852,0.00889255810532,-0.999926771438,0.0,0.609058586794,0.192183464167,0.303900572464,1.0,-0.127733142857,-0.167877844898,1.583
0.411915150083,0.288061882623,-0.12553086077,-1.74845183473,0.0518550962667,2.02878554699,0.0941275145553,-0.151142770816,-0.539842890863,-0.00781968933912,-0.786941154204,-0.0691543716062,0.241015177595,-0.16677043012,0.573832719193,0.818955951481,0.00281190646496,0.0,0.818921968426,-0.573768716933,-0.0117053833298,0.0,-0.00797296288199,0.00901983758247,-0.999927534571,0.0,0.606801945621,0.18910827445,0.304026121859,1.0,-0.131065714286,-0.172257795918,1.601
0.409133496787,0.278770262221,-0.125582000426,-1.76193055669,0.0506915934784,2.03274323881,0.0912450815201,-0.165887668472,-0.552719606572,-0.00195122333572,-0.804750318853,-0.0682295984901,0.222485868026,-0.18334682214,0.573785183082,0.818989993015,0.00258880633161,0.0,0.818952697284,-0.573721543533,-0.0118666338446,0.0,-0.0082335589265,0.00892918051548,-0.999926236401,0.0,0.604498522651,0.186146227945,0.303933456316,1.0,-0.134213142857,-0.176394416327,1.618
0.406545379122,0.270298023038,-0.125640121611,-1.7737412315,0.049655586163,2.03640775125,0.0886650892455,-0.172524117573,-0.560257475683,-0.00803121717215,-0.808584036606,-0.0746429075201,0.239933253028,-0.177108636636,0.573814277743,0.818968848474,0.00281900493866,0.0,0.818934971674,-0.573750269104,-0.0116999048123,0.0,-0.00796460607256,0.00902232786688,-0.999927578703,0.0,0.602531077562,0.183478614631,0.304057644538,1.0,-0.136990285714,-0.18004437551,1.633
0.40332788396,0.260166231774,-0.12580008806,-1.78824682691,0.0483876971044,2.04068182422,0.0855026619239,-0.179367315359,-0.559200580752,-0.00733870487763,-0.796674745803,-0.0675245524841,0.224699862177,-0.185566599863,0.573941305331,0.818880265003,0.00269007879889,0.0,0.818844639629,-0.573877655939,-0.0117745091617,0.0,-0.0080982929845,0.00896080628586,-0.99992705814,0.0,0.600046314707,0.180131900532,0.303995149728,1.0,-0.140322857143,-0.184424326531,1.651
0.400183919688,0.250319348712,-0.125892905037,-1.80197365707,0.0471277277931,2.0447609261,0.0824411947879,-0.185829907356,-0.573142120655,-0.0011512440561,-0.815894806734,-0.0770460577572,0.239613803965,-0.191292177451,0.574000171085,0.81883865459,0.00279432371116,0.0,0.818804843255,-0.573936660292,-0.0116655705683,0.0,-0.00794860832596,0.00898421826437,-0.999928049135,0.0,0.597680146871,0.176956794894,0.304072839863,1.0,-0.143470285714,-0.188560946939,1.668
0.397144771004,0.241009639967,-0.125896054408,-1.81519911772,0.0459724654725,2.04853363186,0.0793734994447,-0.19155952043,-0.579322777338,-0.000146286631345,-0.824849844399,-0.0733723223758,0.225615011933,-0.198009286529,0.573905861267,0.818905155953,0.00267485664612,0.0,0.818869019098,-0.573841926077,-0.0118203358019,0.0,-0.00814494585895,0.0089742900198,-0.999926558291,0.0,0.595313022445,0.173960045263,0.303998220721,1.0,-0.146432571429,-0.192454236735,1.684
0.393809731908,0.230851472891,-0.125913587879,-1.8290643679,0.044729300406,2.05268973546,0.0761361833264,-0.19599813489,-0.585562349397,0.000329330129936,-0.81236650893,-0.0744056831718,0.243818527734,-0.186726595584,0.573894061223,0.818912212806,0.00302342706051,0.0,0.818880826269,-0.573829163483,-0.0116202584581,0.0,-0.00778119075835,0.00914479983418,-0.999927910255,0.0,0.592875771179,0.170753204706,0.304156451787,1.0,-0.14958,-0.196590857143,1.701
0.390342867239,0.220672825862,-0.125928702737,-1.84338618623,0.0433484254269,2.05657131262,0.0726904811581,-0.210325196162,-0.608473626454,-0.00258091405422,-0.84089781165,-0.0849740815547,0.231559731499,-0.20044140262,0.573756954132,0.81900922028,0.00275709695693,0.0,0.818974051066,-0.573692623882,-0.0117908390195,0.0,-0.00807523515756,0.00902324047181,-0.999926683167,0.0,0.590232650823,0.167415350182,0.304062595496,1.0,-0.152727428571,-0.200727477551,1.718
0.386913833253,0.210827657451,-0.126028395113,-1.85673208644,0.0421531553383,2.06040906687,0.0694237889178,-0.216967226588,-0.604607242788,-0.00269545821134,-0.855257477146,-0.0759036031001,0.234041025491,-0.20696400888,0.573833479896,0.818954651637,0.00302701407808,0.0,0.818922959756,-0.573768164986,-0.0116630071148,0.0,-0.00781482007531,0.0091716918703,-0.999927401692,0.0,0.587831629121,0.164189233747,0.304188483545,1.0,-0.155689714286,-0.204620767347,1.734
0.383179754017,0.200369206315,-0.126128309229,-1.87121597678,0.0407462936248,2.06424782966,0.0657785483855,-0.228047917978,-0.61321025161,-0.00565518812706,-0.854180106802,-0.0862362875033,0.225216397835,-0.223659433679,0.573772149287,0.818998257977,0.0028497430191,0.0,0.818964033199,-0.573707190407,-0.0117778989339,0.0,-0.00801131489126,0.00909184246804,-0.999926575922,0.0,0.584965125407,0.160468683505,0.304145506035,1.0,-0.159022285714,-0.209000718367,1.752
0.379005539044,0.18906997764,-0.126245655931,-1.88653970469,0.0392947964581,2.0684862597,0.0618314234959,-0.234876836757,-0.61877496127,-0.0121359296398,-0.835558771385,-0.0848516472785,0.232180790312,-0.225847647276,0.573828082571,0.818958619724,0.00297619440034,0.0,0.818925986435,-0.573762612508,-0.0117234862896,0.0,-0.00789357305138,0.0091647250431,-0.999926846984,0.0,0.582276484584,0.15687316422,0.304189550214,1.0,-0.162169714286,-0.213137338775,1.769
0.375108267213,0.178913243508,-0.126411853492,-1.90028022565,0.03798358713,2.07209990522,0.0582176939088,-0.240342346693,-0.637029690617,-0.00932279422708,-0.841480429788,-0.0823504993077,0.236056196248,-0.226722926186,0.573966076415,0.818861883336,0.00298429970362,0.0,0.818829051227,-0.573900206666,-0.0117594454219,0.0,-0.00791682383186,0.00919333104461,-0.999926400574,0.0,0.579684351923,0.153355461182,0.30421217266,1.0,-0.165132,-0.217030628571,1.785
0.370426718272,0.166753147181,-0.126463095509,-1.91682429558,0.0362780548956,2.07641174201,0.0538280464603,-0.244134685313,-0.641274233247,-0.000837857790197,-0.874342699443,-0.0970869745236,0.226705903173,-0.23077802568,0.573898037486,0.818910023837,0.00285697930401,0.0,0.818875576229,-0.573832676226,-0.0118151280963,0.0,-0.00803625347383,0.00912036499626,-0.999926116057,0.0,0.576480919123,0.14922962468,0.304154319067,1.0,-0.168649714286,-0.221653910204,1.804
0.366588318391,0.156931108614,-0.12649109633,-1.92974682674,0.0349984641484,2.0798270739,0.050221442397,-0.259107117713,-0.65619441505,-0.00735620803087,-0.841506883515,-0.0918069516217,0.235467491034,-0.234591635034,0.573840828564,0.818949228091,0.00310035227811,0.0,0.818918018449,-0.573774712436,-0.0116878282381,0.0,-0.00779298421595,0.00924606539977,-0.999926887163,0.0,0.573981453765,0.145951327141,0.304274481203,1.0,-0.171426857143,-0.225303869388,1.819
0.362366480333,0.146512350743,-0.126563179286,-1.94382930039,0.0334801008325,2.08332060108,0.0463159189005,-0.262800166565,-0.654882863923,-0.00641681818035,-0.878731403449,-0.0949616117951,0.21584220866,-0.241027852077,0.573795645572,0.818981658247,0.00288920051864,0.0,0.818947765789,-0.573730337006,-0.0117815197814,0.0,-0.00799138047886,0.00912646477119,-0.999926420032,0.0,0.571178823512,0.142332947569,0.304187663684,1.0,-0.174389142857,-0.229197159184,1.835
0.357408724763,0.13450370655,-0.126695248232,-1.95955198219,0.0319118627324,2.08728375992,0.041715670737,-0.284215488864,-0.665199590331,-0.0101640738654,-0.882567005635,-0.0943741588123,0.219658870031,-0.264868147205,0.573819319995,0.818964335877,0.00309054427055,0.0,0.818932819702,-0.573753027637,-0.0117152461801,0.0,-0.0078213102597,0.00925356089025,-0.999926596664,0.0,0.568061188231,0.138188014874,0.304278605445,1.0,-0.177721714286,-0.233577110204,1.853
0.352523171773,0.123148261982,-0.126862684856,-1.97461483162,0.0302902296921,2.09085567419,0.0372957116445,-0.296806251781,-0.670958310226,-0.00974334789047,-0.884532357342,-0.0912580294257,0.207270888007,-0.257967006759,0.573904524223,0.818905219428,0.00293011465727,0.0,0.818871435498,-0.57383856952,-0.0118158858622,0.0,-0.00799483172654,0.00918075430756,-0.999925895462,0.0,0.565001671862,0.134130301009,0.304220904805,1.0,-0.180869142857,-0.237713730612,1.87
0.347717334548,0.112210965658,-0.127014702201,-1.98870590798,0.0287719000374,2.09431295895,0.0329790785205,-0.303520834863,-0.678442478802,-0.00497554683378,-0.868089128457,-0.095693479179,0.206602427283,-0.275890479492,0.574004023843,0.818834733442,0.00313158469442,0.0,0.818804052915,-0.573937929065,-0.0116586196191,0.0,-0.00774929665189,0.00925642702858,-0.999927130825,0.0,0.562157462766,0.130250352012,0.304323035815,1.0,-0.183831428571,-0.241607020408,1.886
0.342540501513,0.100536904118,-0.127080048616,-2.0038397448,0.0270753579334,2.09776567443,0.0282595547926,-0.310220627798,-0.693444824425,-0.00223062500987,-0.886555652251,-0.104778171118,0.21292062854,-0.276517517575,0.573925469199,0.818890015382,0.00307333901595,0.0,0.818858600986,-0.573859605338,-0.0116829728387,0.0,-0.00780355493545,0.00922196330642,-0.999927027299,0.0,0.558989238615,0.126151701458,0.304328688707,1.0,-0.186978857143,-0.245743640816,1.903
0.336585424914,0.0873761848344,-0.127125153909,-2.02084635689,0.0253292442356,2.10159802169,0.0227920077931,-0.317670612628,-0.694626561917,-0.00595369352207,-0.893723815967,-0.0973679649629,0.196456525618,-0.299801988503,0.573832500257,0.818955013181,0.00311366907855,0.0,0.818922819357,-0.573764968818,-0.0118289219458,0.0,-0.00790099280486,0.00933785429849,-0.999925186596,0.0,0.555370184788,0.12155885175,0.304306778083,1.0,-0.190496571429,-0.250366922449,1.922
0.331015837268,0.0753523584186,-0.127253854414,-2.03595110977,0.0235658222661,2.10497911921,0.0176857635345,-0.326693074984,-0.710078079286,-0.00631110998579,-0.898918520981,-0.0971606216354,0.19524763,-0.301562940881,0.573733252829,0.819023877114,0.0032848465903,0.0,0.818994709969,-0.573666118154,-0.011644605038,0.0,-0.00765295171656,0.00937134953442,-0.99992680239,0.0,0.552157154081,0.117298526455,0.304430206893,1.0,-0.193644,-0.254503542857,1.939
0.325155613602,0.0634338512614,-0.127449960879,-2.05131424703,0.0218289244954,2.10816831987,0.0125190850432,-0.350365223394,-0.700552018669,-0.0124368994719,-0.914086682507,-0.104678161995,0.175441985987,-0.30576737679,0.573867964339,0.818930341761,0.00306622718917,0.0,0.818897516792,-0.573800581918,-0.0118531044299,0.0,-0.00794761693249,0.00931322204978,-0.999925046831,0.0,0.548804404286,0.112867963444,0.30431698749,1.0,-0.196791428571,-0.258640163265,1.956
0.319456136108,0.0519336118525,-0.12757548271,-2.06554706451,0.020153253,2.11120598468,0.00746414273866,-0.357567012314,-0.708088641302,-0.00282541836591,-0.890350252058,-0.105256196582,0.183788055012,-0.316013351087,0.573898585265,0.818908112082,0.0032656851146,0.0,0.81887847226,-0.573831217105,-0.0116845558786,0.0,-0.00769477367931,0.00938012992228,-0.999926399102,0.0,0.545704559461,0.10869304402,0.304434336942,1.0,-0.199753714286,-0.262533453061,1.972
0.314076315558,0.0412518730087,-0.127629459295,-2.07910667271,0.018623854498,2.11387266871,0.00267086593694,-0.365628925933,-0.704374299944,-0.00331070480038,-0.900496877583,-0.104986024375,0.170589573039,-0.319719435671,0.573860979454,0.818935029063,0.00312111118313,0.0,0.818902374828,-0.573792759129,-0.0118960907019,0.0,-0.00795140747658,0.00938276826917,-0.999924366529,0.0,0.542638822471,0.104821341817,0.304338477692,1.0,-0.19998,-0.262830857143,1.987
0.30775042791,0.0290968809677,-0.127723703053,-2.09405862441,0.0167949395914,2.11688521352,-0.00290923200673,-0.374571417142,-0.696976511114,-0.00631763395618,-0.887255394176,-0.107625715447,0.164530674548,-0.322653008702,0.573845961572,0.818945100793,0.00323746436438,0.0,0.818914540687,-0.573778023642,-0.0117686676312,0.0,-0.00778045659272,0.00940479010754,-0.999925504434,0.0,0.53928202376,0.100358948613,0.304404015237,1.0,-0.19998,-0.262830857143,2.004
0.301308776487,0.0169656419738,-0.127871418192,-2.10891748984,0.0149970833245,2.1196457907,-0.00859706694622,-0.384796274027,-0.721854919854,-0.0102694023687,-0.83807639425,-0.114370905215,0.166215454224,-0.335556534337,0.573870264044,0.818928026257,0.00324880858282,0.0,0.818897398532,-0.57380202348,-0.0117913285696,0.0,-0.0077922265182,0.00942731524147,-0.999925200669,0.0,0.535866204577,0.0958636362273,0.304432480323,1.0,-0.19998,-0.262830857143,2.021
0.295431205428,0.00638429038115,-0.128028295371,-2.12179587977,0.0134057312372,2.12198397376,-0.0136933799515,-0.396602632273,-0.706475141126,-0.00748610258561,-0.875913453759,-0.0996734528741,0.148998304896,-0.346182637489,0.573986784681,0.818846311208,0.00326136977397,0.0,0.818815797709,-0.573918424985,-0.0117931244899,0.0,-0.00778514617037,0.00943974044464,-0.999925138598,0.0,0.532883699237,0.091837134612,0.304451907117,1.0,-0.19998,-0.262830857143,2.036
0.288417628978,-0.00631765217117,-0.128076144218,-2.1370195839,0.0115877805142,2.12472143951,-0.0199393528291,-0.38301358896,-0.707933062112,0.000348557222755,-0.850330887788,-0.105053743226,0.160275889446,-0.35011062667,0.573889130347,0.818913951059,0.00345741675127,0.0,0.818885731609,-0.573819804923,-0.0117361384686,0.0,-0.00762710016303,0.00956665573297,-0.999925150419,0.0,0.529296732329,0.0871847586539,0.304531313227,1.0,-0.19998,-0.262830857143,2.054
0.281633503084,-0.0181149423867,-0.128112757646,-2.15129898108,0.00972337296951,2.12711657388,-0.0258570906294,-0.406722314936,-0.703267322846,-0.00247999630889,-0.867442862141,-0.114781646737,0.131318746201,-0.352845114113,0.573819230446,0.81896342118,0.00333952701915,0.0,0.818933670986,-0.573750315678,-0.0117883283329,0.0,-0.00773830400641,0.00949940350635,-0.999924937175,0.0,0.525861767086,0.082749682264,0.304483782441,1.0,-0.19998,-0.262830857143,2.071
0.275115024384,-0.0292918993074,-0.12824292735,-2.16434916675,0.0080658816837,2.12923616904,-0.0315764857205,-0.411731296632,-0.696015188165,-0.0120789129159,-0.799090607874,-0.106345851623,0.15255675502,-0.356349053076,0.573840710633,0.818947573929,0.00352943032232,0.0,0.818920549284,-0.573771484469,-0.0116689532799,0.0,-0.00753131950474,0.00958662803299,-0.999925685133,0.0,0.522706893012,0.0785391960984,0.304603984845,1.0,-0.19998,-0.262830857143,2.087
0.267966255457,-0.0409375798629,-0.128402820643,-2.17829222582,0.00627809805427,2.13136787045,-0.0377314893819,-0.415058393974,-0.680423539096,-0.00396394720463,-0.839984342972,-0.102582967592,0.122019602104,-0.365832152168,0.573964480018,0.818861386472,0.00339887102098,0.0,0.818831801484,-0.573894591346,-0.0118416976444,0.0,-0.00774626439523,0.00958000195684,-0.999924106595,0.0,0.519061839493,0.073724587151,0.304517170784,1.0,-0.19998,-0.262830857143,2.105
0.260864899029,-0.0526095639572,-0.128453928931,-2.19174718412,0.00455021898662,2.13342359966,-0.0439762017733,-0.419913690135,-0.69433600989,-0.00277438575036,-0.799531672534,-0.109533346792,0.117117667236,-0.364079258602,0.57390249666,0.818903836075,0.0036302189906,0.0,0.818877654196,-0.57383234044,-0.0116867199972,0.0,-0.00748730693105,0.00967992936407,-0.999925116797,0.0,0.5159181774,0.0696018789208,0.304630651119,1.0,-0.19998,-0.262830857143,2.121
0.253566926422,-0.064051431912,-0.12854784485,-2.20529673649,0.00274477960953,2.13526191934,-0.0503677102534,-0.421563409071,-0.67605299173,-0.00699647058519,-0.803010797098,-0.106999110292,0.0965860348652,-0.374063936686,0.573858299089,0.818935693329,0.00342485897463,0.0,0.818905969025,-0.5737877425,-0.0118906414294,0.0,-0.00777267823179,0.00962836609901,-0.999923437089,0.0,0.512454416299,0.0651353127007,0.304514922938,1.0,-0.19998,-0.262830857143,2.138
0.246105216298,-0.0755899231318,-0.128742591418,-2.21840765832,0.00097716307782,2.13702316116,-0.0568787158825,-0.443088670614,-0.680350068623,-0.0111828816605,-0.759878622193,-0.099466906434,0.0999485838154,-0.378446662149,0.573931536833,0.81888374326,0.00357112767288,0.0,0.818856181675,-0.573860786451,-0.0117939987971,0.0,-0.00760873023971,0.00969337445299,-0.999924069975,0.0,0.509096889967,0.0606180462117,0.304599495636,1.0,-0.19998,-0.262830857143,2.155
0.238513979877,-0.0868958555898,-0.128848964403,-2.23155438173,-0.000745331362918,2.13863836522,-0.063508255125,-0.437861847017,-0.662494882685,0.000998162172045,-0.773784427328,-0.105936186216,0.0893003009084,-0.381033508906,0.573943444449,0.818875909911,0.00345161441682,0.0,0.818845533091,-0.573871538128,-0.0120082290486,0.0,-0.00785261740142,0.00971857050165,-0.999921939847,0.0,0.50564320396,0.056143109061,0.304496309253,1.0,-0.19998,-0.262830857143,2.172
0.230872247826,-0.0982850492801,-0.128896824259,-2.24425447831,-0.00254594707959,2.14015107047,-0.0702114094552,-0.454450265248,-0.668132879239,-0.00032371444636,-0.758245173891,-0.119976648472,0.0851427738465,-0.39901713914,0.573838069719,0.818949227808,0.00357476094493,0.0,0.818921166425,-0.573766624406,-0.0118630013198,0.0,-0.00766426481072,0.00973507661151,-0.999923240718,0.0,0.502279777731,0.0517388883936,0.304588584814,1.0,-0.19998,-0.262830857143,2.189
0.223510129494,-0.108822796707,-0.12902409191,-2.25620114607,-0.00419535934481,2.14141755401,-0.0765929731664,-0.467079345025,-0.653084778404,-0.00944456787812,-0.737317667544,-0.10543751319,0.0735916470096,-0.403163464903,0.573890000314,0.818913184599,0.00349435709239,0.0,0.81888333803,-0.573817908893,-0.0119930409919,0.0,-0.00781628519971,0.00974434470751,-0.999921973672,0.0,0.499048233182,0.0475276811779,0.304536507122,1.0,-0.19998,-0.262830857143,2.205
0.215437851363,-0.120084169277,-0.129213304483,-2.26855474236,-0.00600140120394,2.1427029643,-0.0835694166173,-0.480552321722,-0.665860096999,-0.00433954513532,-0.714468187478,-0.101579363411,0.0824233548231,-0.408989793148,0.573995277643,0.818838872209,0.00361517698131,0.0,0.818811308871,-0.573923633033,-0.0118511945495,0.0,-0.00762953016414,0.0097628654671,-0.999923235417,0.0,0.495691772391,0.0429674571167,0.304622965258,1.0,-0.19998,-0.262830857143,2.222
0.207904461358,-0.130491127893,-0.129276120513,-2.28010729771,-0.00755820526674,2.14375383594,-0.0902317904721,-0.47260689935,-0.664711160707,-0.00334189697515,-0.719673250663,-0.0972411110116,0.0644556309706,-0.417726081443,0.573919202973,0.818892178007,0.00361886167343,0.0,0.81886365359,-0.573846268924,-0.0119801240154,0.0,-0.00773390848038,0.0098391669526,-0.99992168566,0.0,0.492468430149,0.038839808563,0.304594429578,1.0,-0.19998,-0.262830857143,2.238
0.199672008282,-0.141555401013,-0.12939684912,-2.29214579453,-0.00932305087513,2.1447856155,-0.0974494583081,-0.481771834442,-0.654028925612,-0.00726814278879,-0.684302172213,-0.0998067579311,0.0586769454444,-0.428996183084,0.573892389212,0.818910772685,0.00366317981944,0.0,0.818882985118,-0.573819501613,-0.0119408188707,0.0,-0.00767660898809,0.00985265039046,-0.999921994435,0.0,0.489077156753,0.0343687895645,0.304628717274,1.0,-0.19998,-0.262830857143,2.255
0.191268441478,-0.152513703108,-0.129599069754,-2.30399427717,-0.0110597733451,2.14576487053,-0.104752968978,-0.495280628225,-0.645386723652,-0.00734614532554,-0.706101005994,-0.0965334034371,0.0455111946763,-0.435650554807,0.574000955264,0.818834298477,0.00374725163872,0.0,0.818807728159,-0.573927910816,-0.0118913579861,0.0,-0.00758654553471,0.00989411993703,-0.999922272338,0.0,0.485700977747,0.0298475046913,0.304653549313,1.0,-0.19998,-0.262830857143,2.272
0.182818671235,-0.163404116478,-0.129660243709,-2.31574275332,-0.0127847530694,2.1464567229,-0.112203716479,-0.499521396053,-0.650031255961,-0.00116464819294,-0.672283212994,-0.0892667781244,0.0425945527139,-0.437665110708,0.573903022249,0.818903325263,0.00366221620381,0.0,0.818874876314,-0.573829305612,-0.0120254672917,0.0,-0.00774635731321,0.00990053947967,-0.999920983511,0.0,0.482249564606,0.025437080645,0.304629265198,1.0,-0.19998,-0.262830857143,2.289
0.174203849619,-0.17417559687,-0.129737480414,-2.32713957584,-0.0144332348439,2.1472450485,-0.119821544273,-0.507960334199,-0.620644378819,-0.00399490665131,-0.677432993879,-0.10333804685,0.0395469813644,-0.454593635947,0.573842294192,0.818945135745,0.00382530234365,0.0,0.818919021956,-0.573768263571,-0.0119315589205,0.0,-0.00757660092947,0.00997963813712,-0.999921497889,0.0,0.478899344196,0.0210203477124,0.304677957468,1.0,-0.19998,-0.262830857143,2.306
0.165369498148,-0.184903074695,-0.129944231803,-2.33853930449,-0.016181552274,2.14775213446,-0.12752891519,-0.532692389372,-0.626875212089,-0.0137260827516,-0.670808364124,-0.0939366128396,0.030328420226,-0.463749841744,0.573932140431,0.81888258248,0.0037364679274,0.0,0.818854639013,-0.573857546094,-0.0120558641194,0.0,-0.00772828562165,0.00997906412255,-0.999920342768,0.0,0.475450496335,0.0164905622809,0.304641553655,1.0,-0.19998,-0.262830857143,2.323
0.157017745578,-0.194988318296,-0.130016745009,-2.34883793213,-0.0177604679582,2.14830820391,-0.134944497974,-0.520146449529,-0.624354925424,-0.00154604693006,-0.645577504642,-0.0952822620482,0.0375731981896,-0.466075195881,0.573841252585,0.818945109081,0.0039839735361,0.0,0.818921621967,-0.57376742718,-0.0117925180804,0.0,-0.00737169268785,0.010029788521,-0.999922527744,0.0,0.472330827332,0.012339002936,0.304771283244,1.0,-0.19998,-0.262830857143,2.339
0.147427832532,-0.206070845675,-0.130152507178,-2.36053051912,-0.0195249031313,2.14862518507,-0.143418109898,-0.53966698808,-0.61153321884,-0.00681561672604,-0.648494420216,-0.0973955558118,0.0164605353949,-0.470988878517,0.573823601502,0.818958131326,0.003847128254,0.0,0.818931499819,-0.573748438467,-0.0120280863898,0.0,-0.00764336248333,0.0100527279086,-0.999920257656,0.0,0.468667528107,0.00762277210949,0.304680319642,1.0,-0.19998,-0.262830857143,2.357
0.138685566907,-0.215963992925,-0.130358255645,-2.37054009756,-0.0210431872144,2.14889524209,-0.151071137834,-0.549017819292,-0.619694522929,-0.00840819927804,-0.619776955213,-0.0925598587553,0.0248411525367,-0.496350300589,0.573959027476,0.818862327089,0.00403372710804,0.0,0.818838292681,-0.573883386902,-0.0119354756203,0.0,-0.00745876597111,0.0101536396868,-0.999920632056,0.0,0.465308041472,0.00309702127266,0.30475907145,1.0,-0.19998,-0.262830857143,2.374
0.129428708653,-0.226274732498,-0.130432097598,-2.38110545758,-0.0227231557946,2.14912165948,-0.159330034223,-0.545772502274,-0.596971029731,-0.00679041737888,-0.63558030122,-0.0987080955074,0.00173261034529,-0.49019826432,0.573844387176,0.818942756659,0.00401590883255,0.0,0.818918529822,-0.573768881544,-0.0119356183836,0.0,-0.0074705285331,0.0101380849635,-0.999920702074,0.0,0.462110434115,-0.00103041524743,0.304740581171,1.0,-0.19998,-0.262830857143,2.39
0.119926326285,-0.23649775504,-0.130573971103,-2.3915364587,-0.0244067660151,2.1491428174,-0.167770947077,-0.566154826678,-0.594862188726,-0.00818876517659,-0.60873374259,-0.103371232634,0.00126595108965,-0.494287930634,0.57381096025,0.81896665193,0.00391814047526,0.0,0.818940514469,-0.573734962943,-0.0120570709352,0.0,-0.00762651166945,0.0101273984115,-0.999919632831,0.0,0.458673076845,-0.00549805219792,0.304692007168,1.0,-0.19998,-0.262830857143,2.407
0.110195261088,-0.246744853014,-0.130770178363,-2.40152822401,-0.0259880662355,2.14922377558,-0.176373308029,-0.568006677016,-0.607837608641,-0.00760460073324,-0.590193139145,-0.0912580510136,-0.00156037173313,-0.518185522297,0.573920008736,0.818888832013,0.00420134248249,0.0,0.818867451365,-0.573844451094,-0.0118063519306,0.0,-0.00725731239777,0.0102164409122,-0.999921474793,0.0,0.455358694297,-0.0100176099567,0.304823650052,1.0,-0.19998,-0.262830857143,2.424
0.101096526684,-0.25618735629,-0.130874367196,-2.41104330116,-0.027454434126,2.14916507824,-0.184607684656,-0.580145568453,-0.595827839647,-0.0107526830322,-0.59148443973,-0.0939798673232,-0.00982336874405,-0.520339564156,0.573794166579,0.818977037474,0.00419683110191,0.0,0.818954778077,-0.573717493988,-0.0119187019916,0.0,-0.00735348940262,0.0102760944063,-0.999920160852,0.0,0.452127489423,-0.014139977407,0.304765608628,1.0,-0.19998,-0.262830857143,2.44
0.0910803892288,-0.266132001566,-0.131058173694,-2.4208181723,-0.0290854236014,2.14902028036,-0.193420603413,-0.593681116468,-0.589180471716,-0.0141592488043,-0.556444109236,-0.0916201668956,-0.00381240439551,-0.524483367611,0.573915746056,0.818891624447,0.00423919101675,0.0,0.818870169,-0.573839261586,-0.0118699235902,0.0,-0.00728770707905,0.0102838811138,-0.999920562402,0.0,0.448744825553,-0.0186570974457,0.304776328223,1.0,-0.19998,-0.262830857143,2.457
0.0810072876412,-0.276006445251,-0.131199870594,-2.43032513423,-0.0306633209934,2.1488431506,-0.202466742732,-0.586875714851,-0.57500354255,-0.00109300518237,-0.564301159135,-0.0916605925333,-0.0163836759934,-0.532130737392,0.573879982845,0.818915874497,0.00439348250949,0.0,0.818897285004,-0.573804231739,-0.0116913280841,0.0,-0.00705335110489,0.010307428509,-0.999922000536,0.0,0.445403934955,-0.0231113480335,0.304843193905,1.0,-0.19998,-0.262830857143,2.474
0.0727062025396,-0.284024640264,-0.131305117465,-2.43818638822,-0.0319747158193,2.14851785151,-0.210058166698,-0.604757429284,-0.571107385258,-0.00397659186884,-0.557411938492,-0.0888971879799,-0.0182371233619,-0.542031779569,0.57371618318,0.819031014409,0.00432267214187,0.0,0.819010913145,-0.573639829964,-0.0117990054161,0.0,-0.00718423278122,0.0103097945063,-0.999921044351,0.0,0.44256820381,-0.0267233503321,0.304795021338,1.0,-0.19998,-0.262830857143,2.488
0.0603015001139,-0.295384226808,-0.131543728077,-2.44898188093,-0.0336899263039,2.14807082612,-0.22105418327,-0.624668721978,-0.570304273925,-0.0099834252037,-0.526407462283,-0.0935423358357,-0.0198468046549,-0.555722368504,0.573946716331,0.818868342817,0.00453330411959,0.0,0.818850952413,-0.573869600338,-0.011728019509,0.0,-0.00700231329275,0.010443559753,-0.999920946709,0.0,0.438603673965,-0.0320718796962,0.304845725599,1.0,-0.19998,-0.262830857143,2.508
0.0499193548504,-0.304933340449,-0.131641060082,-2.45796575726,-0.03528609997,2.14759907561,-0.23052873503,-0.607696234798,-0.549038186284,-0.0127629850328,-0.541733749153,-0.0871420781329,-0.0362933543267,-0.567050904814,0.573755522023,0.819002085766,0.00457508041896,0.0,0.818986145984,-0.573679673481,-0.0115789387338,0.0,-0.00685867638378,0.010390607569,-0.999922493913,0.0,0.435239210128,-0.0364502351352,0.304890755581,1.0,-0.19998,-0.262830857143,2.525
0.0398074966754,-0.313740227431,-0.131835819331,-2.46640362074,-0.0366886157757,2.14695005216,-0.239584144515,-0.643576776874,-0.540705594733,-0.0173899725366,-0.521104631513,-0.0826006730396,-0.0407253017655,-0.572180062515,0.573859270386,0.818929801781,0.00450160498555,0.0,0.818911548403,-0.573781602778,-0.011802334808,0.0,-0.00708248194089,0.0104594969285,-0.999920215504,0.0,0.431975766921,-0.0406804982384,0.304817393793,1.0,-0.19998,-0.262830857143,2.541
0.0288890434348,-0.323032111792,-0.131986751693,-2.47490187085,-0.0382042455909,2.14635460954,-0.249397856024,-0.635997018478,-0.545721850796,-0.00370760809622,-0.487421976227,-0.0817440117776,-0.0271182701558,-0.579836438431,0.573905607761,0.818896571605,0.00463738019528,0.0,0.818881261412,-0.573829279206,-0.0115838221177,0.0,-0.0068250190862,0.0104456853284,-0.999922150356,0.0,0.428641834129,-0.045184300111,0.304904370498,1.0,-0.19998,-0.262830857143,2.558
0.01742012008,-0.332679786451,-0.132127297771,-2.4838377086,-0.0396729235849,2.1456379443,-0.260006717572,-0.646233167522,-0.527730889524,-0.0123975437862,-0.496070154377,-0.0816904311789,-0.0537070559291,-0.592490232812,0.573741231464,0.819011126185,0.00474567213024,0.0,0.818996992502,-0.573664257152,-0.0115755448918,0.0,-0.00675820769718,0.0105282612848,-0.999921738109,0.0,0.425068948854,-0.049812643076,0.30490675801,1.0,-0.19998,-0.262830857143,2.576
0.0074069198199,-0.34060587099,-0.132335970716,-2.49117069883,-0.0409614230086,2.1448480191,-0.268909638495,-0.675502298698,-0.538232138743,-0.00712398225084,-0.48176122081,-0.0898575786177,-0.0507632411338,-0.588257094707,0.573964880694,0.818854632559,0.00470673640413,0.0,0.81883914606,-0.57388667903,-0.011716629739,0.0,-0.00689321593153,0.0105791976905,-0.999920278897,0.0,0.422021940016,-0.0538475457418,0.304871006769,1.0,-0.19998,-0.262830857143,2.591
-0.00375647647069,-0.349472773629,-0.132438986483,-2.49922671216,-0.0423985198799,2.14397907856,-0.279238197862,-0.662959999666,-0.517053963439,-0.0105617208362,-0.459774931936,-0.0760932483076,-0.0481355361377,-0.613267682515,0.573780580964,0.818983747105,0.00471315040687,0.0,0.818968381753,-0.573702447449,-0.0117063393588,0.0,-0.00688348827781,0.0105769949999,-0.999920369212,0.0,0.418634722023,-0.0582343622652,0.304877658447,1.0,-0.19998,-0.262830857143,2.608
-0.0159272833071,-0.358733405563,-0.132701917838,-2.50743367658,-0.0438973159552,2.14308031759,-0.290336013034,-0.684796630418,-0.515633777046,-0.0213831243918,-0.461134679439,-0.0907688626901,-0.0587394962582,-0.618013596454,0.573872355799,0.8189185464,0.0048662627627,0.0,0.818905990257,-0.573795029355,-0.0115321424194,0.0,-0.00665177598946,0.0106031936085,-0.999921660012,0.0,0.415084268706,-0.0630249511465,0.304949101987,1.0,-0.19998,-0.262830857143,2.626
-0.0261587467314,-0.36626673325,-0.132783561753,-2.51429955386,-0.0451666096374,2.14213952791,-0.29974294443,-0.677326031215,-0.501482470478,-0.00209739683573,-0.450782492919,-0.0829276264402,-0.0550121904442,-0.621853876891,0.573769173327,0.818991597582,0.00473769245085,0.0,0.818976482856,-0.573690858731,-0.0117075206021,0.0,-0.00687052242995,0.010597677156,-0.999920239399,0.0,0.411831053365,-0.0671904428897,0.304883012518,1.0,-0.19998,-0.262830857143,2.642
-0.0384979767296,-0.37516944719,-0.132995582808,-2.52227609797,-0.0465207337677,2.14102882825,-0.311127772515,-0.70564690848,-0.490856313019,-0.0174315425337,-0.437904189422,-0.0819054045064,-0.0660767953383,-0.648919277085,0.573786363987,0.818979266379,0.00478713330165,0.0,0.818963743606,-0.57370626322,-0.0118430191279,0.0,-0.00695291262417,0.0107160578112,-0.999918408227,0.0,0.408411133334,-0.0716173627317,0.304847922977,1.0,-0.19998,-0.262830857143,2.659
-0.0511891377428,-0.383935512513,-0.1331791527,-2.52975090895,-0.0479706629725,2.13998918388,-0.322728966226,-0.693461253643,-0.478768718029,-0.00575559143635,-0.417809406732,-0.0750511256966,-0.0626412916298,-0.658458757653,0.573859968585,0.818926807285,0.00493636172168,0.0,0.818914913744,-0.573782046034,-0.0115444618054,0.0,-0.00662180100964,0.0106675701063,-0.999921174243,0.0,0.404895277609,-0.0764053924679,0.304962621891,1.0,-0.19998,-0.262830857143,2.677
-0.0617229627267,-0.3910522231,-0.133315477981,-2.53604135158,-0.0491245331784,2.13900253239,-0.332557703541,-0.711518229244,-0.477080069704,-0.00773725452274,-0.416903122005,-0.0767727773665,-0.0671616863848,-0.667849213691,0.573760096616,0.818996908969,0.00491543809255,0.0,0.818984190899,-0.573681366937,-0.0116331933814,0.0,-0.00670778332235,0.010700534266,-0.999920248925,0.0,0.401880085671,-0.0802942761565,0.304925461668,1.0,-0.19998,-0.262830857143,2.692
-0.0740231236371,-0.398991355374,-0.133524797194,-2.54295569005,-0.0504550685099,2.13777719354,-0.343865701178,-0.723334823679,-0.461038672893,-0.00363034955117,-0.407527588977,-0.0780180746906,-0.0763281802399,-0.670358637306,0.573839302235,0.818941675263,0.00487181983944,0.0,0.818927743581,-0.573759672378,-0.0117446177715,0.0,-0.00682303456274,0.0107293982694,-0.999919159838,0.0,0.398433301926,-0.0848151461428,0.304899742254,1.0,-0.19998,-0.262830857143,2.709
-0.0861840796488,-0.406770069092,-0.133643135409,-2.54961509497,-0.0516779705768,2.13658026585,-0.355312801724,-0.722892650164,-0.449806971168,-0.00447427593673,-0.382522107697,-0.068725691002,-0.068916025925,-0.6817450056,0.573678418443,0.81905412888,0.00491457828183,0.0,0.819040548301,-0.573598353308,-0.0117582406596,0.0,-0.00681177269868,0.010770895169,-0.999918790487,0.0,0.39485038501,-0.0894505920697,0.304906332561,1.0,-0.19998,-0.262830857143,2.727
-0.0980710301708,-0.413884553161,-0.133875232074,-2.55553812885,-0.0527657598084,2.13556345551,-0.366241759052,-0.74053314682,-0.437698472143,-0.00932090022693,-0.36598173366,-0.0645155794426,-0.0668419868819,-0.688002964662,0.573883933749,0.818908893136,0.00511881123247,0.0,0.818898794961,-0.573804535432,-0.0115700315373,0.0,-0.00653773049014,0.0108318521089,-0.999919961327,0.0,0.391908169522,-0.093478837462,0.30498214543,1.0,-0.19998,-0.262830857143,2.742
-0.110571702623,-0.421323661638,-0.133978110982,-2.56182321391,-0.0539680567603,2.13429459695,-0.378052716699,-0.739464560182,-0.433895305689,-0.0120946503627,-0.36732906926,-0.0746468513319,-0.0831848110297,-0.702188217802,0.573704684206,0.819034486934,0.00511775677108,0.0,0.819024198482,-0.573625027873,-0.0115946798378,0.0,-0.00656089559927,0.0108436975471,-0.999919681211,0.0,0.38850747975,-0.0978690684291,0.304984647459,1.0,-0.19998,-0.262830857143,2.759
-0.124157615945,-0.428923621116,-0.134212251812,-2.56831012389,-0.0552651132964,2.13287615175,-0.390635170584,-0.761766782438,-0.428573313816,-0.013782145628,-0.351435296086,-0.0773282231393,-0.0688394055152,-0.706996873338,0.573824776296,0.818950803589,0.00504522652142,0.0,0.818938413315,-0.573743439284,-0.0117935566087,0.0,-0.00676380726973,0.0108993746317,-0.999917723887,0.0,0.384842258832,-0.102633683233,0.30492598854,1.0,-0.19998,-0.262830857143,2.777
-0.136163902355,-0.435450089957,-0.134317264935,-2.57380149641,-0.0563024643411,2.13174306901,-0.402030782461,-0.763502654673,-0.39790735425,-0.00693472223761,-0.335445371221,-0.0677482190562,-0.0751744546705,-0.721273970869,0.57368430415,0.819049018254,0.00507659033982,0.0,0.819036804713,-0.573602512202,-0.0118159816261,0.0,-0.00676605344574,0.0109367680945,-0.999917300393,0.0,0.381670711265,-0.106759494444,0.304906681105,1.0,-0.19998,-0.262830857143,2.793
-0.14931875232,-0.442254197062,-0.134550586549,-2.57925083087,-0.0574719261741,2.13048589122,-0.414292048382,-0.78363842331,-0.401443870241,-0.0113940220437,-0.316745346257,-0.073776863505,-0.0731043076737,-0.735831736699,0.573809191621,0.818961033859,0.00515592214611,0.0,0.818950844536,-0.573728743464,-0.0116443144051,0.0,-0.00657826568149,0.0109042713727,-0.999918908355,0.0,0.378310143314,-0.111316788182,0.304987826291,1.0,-0.19998,-0.262830857143,2.81
-0.162413038869,-0.448903828524,-0.134648313831,-2.584625197,-0.0584798659072,2.12923742494,-0.426680694076,-0.772265574181,-0.393937633051,-0.00249668699655,-0.318573680231,-0.0546628621163,-0.0719323626855,-0.732164437905,0.57375157604,0.819000695331,0.00526658714027,0.0,0.818992298199,-0.573671396363,-0.0115538472439,0.0,-0.00644144254541,0.010942543049,-0.999919381035,0.0,0.374947082542,-0.115724250749,0.305032618326,1.0,-0.19998,-0.262830857143,2.827
-0.174965450579,-0.45489031788,-0.134891417881,-2.58965774609,-0.0594702919828,2.12792904986,-0.438541298823,-0.791061157776,-0.370386362585,-0.0166436376704,-0.308433105905,-0.0588035389204,-0.0823825925342,-0.749838560557,0.573812268173,0.818958315883,0.00524448679877,0.0,0.818947878304,-0.573729205793,-0.0118286915232,0.0,-0.00667841862338,0.011082623024,-0.999916283592,0.0,0.371667228486,-0.119942254315,0.304953625076,1.0,-0.19998,-0.262830857143,2.843
-0.189088425154,-0.461392192744,-0.135004993739,-2.59491450614,-0.0605317274233,2.12662785694,-0.452016960713,-0.780474747052,-0.347538278893,-0.00865610494335,-0.286762940134,-0.0580335094599,-0.069008914486,-0.75015967484,0.573694741718,0.81904037637,0.00528697483179,0.0,0.81903065701,-0.573611829955,-0.0117897546822,0.0,-0.00662374133156,0.0110941283337,-0.999916519699,0.0,0.368102972683,-0.124614747096,0.304963861711,1.0,-0.19998,-0.262830857143,2.861
-0.201946551175,-0.466912650955,-0.1352089931,-2.59940539267,-0.0615154786361,2.12546682919,-0.464134597978,-0.805382279591,-0.345297937479,-0.00822303299712,-0.272628630996,-0.0544453125002,-0.0775300572544,-0.751093672465,0.573814444682,0.818956537443,0.00528391481228,0.0,0.818946627766,-0.573731269869,-0.0118151490028,0.0,-0.00664467429214,0.0111071612281,-0.999916236128,0.0,0.364684967261,-0.129144178042,0.30494662547,1.0,-0.19998,-0.262830857143,2.878
-0.215526625793,-0.472640185413,-0.13532916616,-2.60387397464,-0.0624495773636,2.1242365433,-0.477101397927,-0.803760697761,-0.333406599102,-0.0137878335171,-0.258997669418,-0.0490192368362,-0.0766927999503,-0.769223915779,0.573738191478,0.819009515043,0.00535245831046,0.0,0.819001016284,-0.573655674903,-0.0117153266758,0.0,-0.00652462155404,0.0111054129491,-0.999917046118,0.0,0.361737202353,-0.133041194793,0.304996755717,1.0,-0.19998,-0.262830857143,2.893
-0.229416288141,-0.478170927409,-0.135552306864,-2.60816992724,-0.0634130430572,2.12303189911,-0.490285143485,-0.814357250861,-0.320781974806,-0.0031422458076,-0.252401754393,-0.0720943840738,-0.0770959633833,-0.780009072638,0.573833742125,0.818942052018,0.00543127384735,0.0,0.818935150218,-0.573751940587,-0.0116050553947,0.0,-0.00638778695363,0.0111074472815,-0.999917907027,0.0,0.358137770233,-0.13783086416,0.305044021997,1.0,-0.19998,-0.262830857143,2.911
-0.243187922716,-0.483374672766,-0.135638608819,-2.61236589116,-0.0642912285011,2.1218125248,-0.503589149339,-0.807916435393,-0.304801715799,-0.00845091349284,-0.246156587324,-0.0545756504058,-0.0654611937586,-0.781999412174,0.573674679122,0.819053585248,0.00541608046007,0.0,0.819045812457,-0.573591790741,-0.0117116007756,0.0,-0.00648593418866,0.0111548816037,-0.999916747172,0.0,0.354740236957,-0.142209417885,0.305005844581,1.0,-0.19998,-0.262830857143,2.928
-0.25896509749,-0.488847197403,-0.135839048362,-2.61674396496,-0.0652256488518,2.12044884853,-0.518635945595,-0.827473204823,-0.277408479531,0.0017873069773,-0.222507678352,-0.0448350026765,-0.0686865729433,-0.78772473357,0.573776980476,0.818981757669,0.00544097251782,0.0,0.818973174074,-0.57369204327,-0.01187966908,0.0,-0.00660791684545,0.0112725082175,-0.999914629353,0.0,0.350902744568,-0.147229115283,0.304962764393,1.0,-0.199692,-0.262452342857,2.947
-0.270462964704,-0.492622414021,-0.135895519738,-2.61973178567,-0.0658368328252,2.11958176371,-0.529805020538,-0.82789476623,-0.263691026271,0.000702659133901,-0.205569176445,-0.0489117244349,-0.0639977069292,-0.802079167877,0.573659994684,0.819063395361,0.00548742013986,0.0,0.81905529839,-0.573574708196,-0.0118835684029,0.0,-0.00658607728201,0.011311846115,-0.999914329192,0.0,0.348160183626,-0.150837952802,0.304950780809,1.0,-0.1971,-0.259045714286,2.961
-0.284637943245,-0.497035163946,-0.136007030227,-2.62315027931,-0.066565937804,2.11849775567,-0.543264753141,-0.813768900734,-0.258157591199,0.00401092778853,-0.192322656681,-0.0385265771963,-0.064917986271,-0.787966541803,0.57382298679,0.818948771631,0.00555303313891,0.0,0.818941419732,-0.573737240176,-0.0118860078647,0.0,-0.00654817570535,0.0113682922514,-0.99991393796,0.0,0.344797424725,-0.155276267409,0.304957613337,1.0,-0.193952571429,-0.254909093878,2.978
-0.297638562543,-0.500917095807,-0.135988223647,-2.62612884787,-0.0671796881397,2.11748486803,-0.555867929058,-0.808819034597,-0.234510468057,0.00181572505056,-0.179503329178,-0.0436266344521,-0.0616409276397,-0.790591517786,0.573704862573,0.819031334057,0.00558134340483,0.0,0.81902419077,-0.573618755532,-0.0119014762105,0.0,-0.00654624471539,0.0113994095133,-0.999913596339,0.0,0.341724121071,-0.159271443112,0.304969625493,1.0,-0.190990285714,-0.251015804082,2.994
-0.312462474314,-0.504889141776,-0.136008648144,-2.62912945903,-0.0678073768505,2.11650596008,-0.569977921546,-0.802847127139,-0.211258738227,0.0115223762926,-0.15932729312,-0.0356831733637,-0.0533349024237,-0.780719384701,0.573865914637,0.818917932664,0.00566378673523,0.0,0.818912311921,-0.573780265537,-0.0118143627103,0.0,-0.00642534813747,0.0114182245884,-0.999914165841,0.0,0.338304344614,-0.163843089499,0.30500253911,1.0,-0.187657714286,-0.246635853061,3.012
-0.326115951475,-0.508353032925,-0.135972995398,-2.6317162531,-0.0683291951254,2.11570056144,-0.583170522688,-0.811803690325,-0.200850276967,-0.00285564051351,-0.149790329483,-0.0379997634283,-0.0462724790775,-0.774322403965,0.573847643575,0.818930101461,0.00575480544696,0.0,0.818926537561,-0.573763256006,-0.0116532844056,0.0,-0.00624144963699,0.0114001921841,-0.999915536395,0.0,0.335179001554,-0.168010559415,0.30504647782,1.0,-0.184510285714,-0.242499232653,3.029
-0.339700249548,-0.51154622494,-0.135909741207,-2.63416363203,-0.0688268756368,2.1148148082,-0.596297950612,-0.780041696235,-0.184299646233,0.0133083334602,-0.139316003974,-0.027878195572,-0.0540122036257,-0.771889390692,0.573824574654,0.818946081241,0.00578104181027,0.0,0.818942558091,-0.573739554344,-0.0116943247182,0.0,-0.00626032957958,0.0114450524285,-0.999914905904,0.0,0.332039499634,-0.172105506048,0.305043733415,1.0,-0.181362857143,-0.238362612245,3.046
-0.352296820593,-0.514198399554,-0.135820882565,-2.63627849084,-0.0692038927752,2.11402995294,-0.608497875189,-0.798785702829,-0.159527559568,0.00374211943288,-0.128604412112,-0.0238661412745,-0.0483979244358,-0.758801442997,0.57380488877,0.818959658094,0.00581162100521,0.0,0.818955487959,-0.573717860325,-0.0118521047624,0.0,-0.00637228758208,0.011560477146,-0.999912870864,0.0,0.329138062785,-0.175864586288,0.304998541844,1.0,-0.178400571429,-0.234469322449,3.062
-0.365623289363,-0.516762493478,-0.135748298182,-2.63831422022,-0.0696467970695,2.11331516332,-0.621336438075,-0.765634483053,-0.143722162225,0.0145624337423,-0.112846701184,-0.0150317429286,-0.0407200525401,-0.751424190236,0.573847605983,0.81892976532,0.00580615901841,0.0,0.818924990093,-0.573759624751,-0.0119373576676,0.0,-0.00644464197297,0.0116052562731,-0.999911888427,0.0,0.326091571816,-0.179849086394,0.304960240737,1.0,-0.175253142857,-0.230332702041,3.079
-0.377883060511,-0.518911999432,-0.135634405012,-2.63999325839,-0.069963145346,2.11273109773,-0.63324444875,-0.769035989646,-0.131960416093,-0.0017482091023,-0.101627668885,-0.0263955656096,-0.0315809335373,-0.751880222159,0.573823671566,0.818946273749,0.0058430783147,0.0,0.818941763021,-0.57373515985,-0.0119625261969,0.0,-0.00644441085754,0.0116497458537,-0.999911372568,0.0,0.323323981342,-0.183488858403,0.304941829934,1.0,-0.172290857143,-0.226439412245,3.095
-0.390846001855,-0.520987825267,-0.135539415365,-2.64153793166,-0.0703070703099,2.11212159628,-0.645774774039,-0.744156341979,-0.118782908577,0.0118667576865,-0.0855400237805,-0.0227428648699,-0.0378749197248,-0.735825460819,0.573874645841,0.818910375691,0.00586807881744,0.0,0.818906261394,-0.573786153453,-0.0119470522398,0.0,-0.006416666206,0.0116617413836,-0.999911411167,0.0,0.320411683607,-0.187344612068,0.304953336733,1.0,-0.169143428571,-0.222302791837,3.112
-0.404210285694,-0.522962050939,-0.135385934292,-2.64298462259,-0.0705706394509,2.11154211083,-0.658878473416,-0.747683416754,-0.101932704143,0.00880703966906,-0.0741146184444,-0.0138293203424,-0.0374752189476,-0.718044108684,0.573783127973,0.818974051648,0.00593057174552,0.0,0.81897092866,-0.57369473394,-0.011904501713,0.0,-0.00634726242555,0.011687793106,-0.999911549964,0.0,0.317422285678,-0.19127968133,0.304974954535,1.0,-0.165810857143,-0.217922840816,3.13
-0.415398664782,-0.524441710763,-0.135329407877,-2.64403880626,-0.0708094898703,2.1110882964,-0.669665146458,-0.726750253238,-0.0941070735541,0.0111233654763,-0.0738891457855,-0.015283328064,-0.0270747771219,-0.716212511319,0.573910810679,0.818884214071,0.00598098925209,0.0,0.81888205118,-0.573822759449,-0.0118479489634,0.0,-0.00627019133896,0.0116976159566,-0.999911921362,0.0,0.314752927361,-0.194807308005,0.305004477211,1.0,-0.162848571429,-0.21402955102,3.146
-0.42765870154,-0.525811826775,-0.135163956631,-2.64506640293,-0.0710030634323,2.11067750521,-0.68170185597,-0.72234537908,-0.0767697474082,0.00284940513154,-0.0544206262798,-0.0152047351872,-0.025200480705,-0.705034035089,0.573833986117,0.818937756596,0.00602113778743,0.0,0.81893619694,-0.573745949077,-0.0118253186213,0.0,-0.00622971642973,0.0117169229895,-0.999911948298,0.0,0.312037234395,-0.198397375154,0.30500854672,1.0,-0.159701142857,-0.209892930612,3.163
-0.439940422771,-0.527007277586,-0.135090962473,-2.64595647723,-0.0711896822168,2.11028463943,-0.693550450505,-0.712816029691,-0.0650221288705,0.0117163175487,-0.046979617279,-0.0182612895314,-0.0272097445158,-0.687462820433,0.573989746724,0.818828170426,0.00607822945288,0.0,0.818827215313,-0.573901198038,-0.0118386340014,0.0,-0.00620562333221,0.0117725008861,-0.99991144531,0.0,0.309297450259,-0.201998456856,0.305008693137,1.0,-0.156553714286,-0.205756310204,3.18
-0.451711061076,-0.527958868019,-0.134884903096,-2.64673453174,-0.0713091904515,2.10996411222,-0.70518564694,-0.694320147127,-0.0503482346358,0.00884529026403,-0.0406914158919,-0.00912055498116,-0.0152693321297,-0.683949817024,0.573874809202,0.818908495793,0.00610948301499,0.0,0.818907503977,-0.573785320584,-0.0119017945812,0.0,-0.00624106918728,0.0118334694118,-0.999910505024,0.0,0.306836101671,-0.205197321385,0.304977648363,1.0,-0.153591428571,-0.201863020408,3.196
-0.46358480259,-0.528736899218,-0.134785406506,-2.64732875236,-0.0714478380632,2.1096749437,-0.716652366545,-0.697217657193,-0.0433963715525,0.00572274775471,-0.0301441653158,-0.00670032546204,-0.0199001400393,-0.673708661343,0.574044529964,0.818789196552,0.00615435864595,0.0,0.818788601763,-0.573954468813,-0.0119264518995,0.0,-0.00623304832649,0.0118856620211,-0.999909936018,0.0,0.304192889439,-0.208668427426,0.304969509704,1.0,-0.150444,-0.1977264,3.213
-0.474935944615,-0.529255537057,-0.134557271944,-2.64776248046,-0.0715213808303,2.10945932488,-0.727915576883,-0.666220983601,-0.0214226327592,0.0122217725805,-0.026340723739,-0.00455709089799,-0.0145984051977,-0.653180721485,0.573885071216,0.818900939814,0.00615814158326,0.0,0.818900138979,-0.573794542021,-0.0119638132429,0.0,-0.0062637904763,0.0119089860982,-0.999909466391,0.0,0.301550696354,-0.212143283384,0.30495068176,1.0,-0.147111428571,-0.19334644898,3.231
-0.485607374475,-0.529654334228,-0.134438474171,-2.64806955677,-0.0715962170825,2.10926046583,-0.738337419166,-0.674166429732,-0.0231657922609,0.00464962031597,-0.0199784377462,-0.00210244784154,-0.0108188040733,-0.639698922711,0.573970568569,0.818840699816,0.00620013245959,0.0,0.818840153959,-0.573879288823,-0.0120046251718,0.0,-0.00627186882309,0.0119674493636,-0.999908717742,0.0,0.299328333805,-0.215050558448,0.304941034061,1.0,-0.144334285714,-0.189696489796,3.246
-0.497277542585,-0.529893555092,-0.134188926185,-2.64825950276,-0.0716351452964,2.1090944469,-0.749847573652,-0.630993831619,-0.00761231091417,0.0143834787815,-0.0102046961168,-0.000418749404577,-0.00656651452957,-0.642045361704,0.57389817369,0.818891432784,0.00620116524409,0.0,0.818890703143,-0.573806529106,-0.012034548718,0.0,-0.00629684097115,0.0119849128442,-0.999908351629,0.0,0.296767551303,-0.218414478412,0.304934130593,1.0,-0.141001714286,-0.185316538776,3.264
-0.507404030961,-0.530030513629,-0.134033803945,-2.64838285338,-0.0716535416956,2.1090162726,-0.759879129716,-0.638156212607,-0.0119783286948,0.0155752967428,-0.00995286448247,-0.000198065016599,-0.00285642289787,-0.617501392579,0.573875929911,0.818906645718,0.0062505655335,0.0,0.818906596007,-0.573784146436,-0.0120202835294,0.0,-0.00625713512551,0.0120170120971,-0.999908215628,0.0,0.294381319566,-0.221524696666,0.304926921582,1.0,-0.137854285714,-0.181179918367,3.281
-0.518162106601,-0.530064648981,-0.133886966391,-2.6484020408,-0.0716680213765,2.10891377006,-0.770305874483,-0.619301298174,-0.000188651147767,0.00762874832057,0.00434729719903,0.000873093114571,-0.00332543354882,-0.604852158217,0.574012245227,0.818810857083,0.00628247995942,0.0,0.818811065452,-0.57391999001,-0.0120428843039,0.0,-0.00625532401749,0.0120571593052,-0.99990774366,0.0,0.292131469094,-0.224443965182,0.304923982041,1.0,-0.134892,-0.177286628571,3.297
-0.52834524723,-0.529951834341,-0.133681106947,-2.64832874149,-0.07167082734,2.10891652022,-0.780510515868,-0.599424132572,0.00751532794008,0.00534723095321,0.00125988665482,-0.000552903539046,0.000236835175616,-0.596918461122,0.573852618454,0.818922700897,0.00628722115339,0.0,0.818923178052,-0.573760776891,-0.0120060922869,0.0,-0.00622482047643,0.0120387104068,-0.999908156313,0.0,0.289885964004,-0.227374040349,0.304921596583,1.0,-0.131744571429,-0.173150008163,3.314
-0.538582604006,-0.52978747418,-0.13354111394,-2.64818929901,-0.071672275011,2.10890163407,-0.790475342713,-0.596809719845,0.00904935682328,0.00649360314336,0.0100425814228,-0.000632154463344,0.0001338471294,-0.580244852251,0.573984355001,0.818830143245,0.0063169318908,0.0,0.818831170309,-0.573892673466,-0.0119775111664,0.0,-0.00618242528403,0.0120476367086,-0.99990831183,0.0,0.287598536799,-0.230325100224,0.304927278582,1.0,-0.128597142857,-0.169013387755,3.331
-0.547870189484,-0.529487263365,-0.133327251979,-2.64793133921,-0.0716679241109,2.10892246365,-0.799667742424,-0.561068410409,0.0241680650996,0.0161162869913,0.0155673411177,-0.000641107643396,0.00512806879628,-0.566700148836,0.573927895367,0.818869925041,0.00628996696096,0.0,0.818870891437,-0.573836905896,-0.0119337961152,0.0,-0.00616293020677,0.0120000403785,-0.999909004521,0.0,0.28554983652,-0.232994413087,0.30494216011,1.0,-0.125634857143,-0.165120097959,3.347
-0.557428567404,-0.529030581739,-0.13313271233,-2.64761460906,-0.0716663589429,2.10894718712,-0.809196562454,-0.567865092534,0.0302994009089,0.0151253885024,0.0198779529717,0.000302681059138,0.00240857360769,-0.55750555677,0.573833845357,0.818936047994,0.00626211782982,0.0,0.818936359431,-0.573742426971,-0.0119838890585,0.0,-0.00622131584307,0.0120052682572,-0.999908580203,0.0,0.28342011078,-0.235739141845,0.304926419051,1.0,-0.122487428571,-0.160983477551,3.364
-0.567532167115,-0.528481780042,-0.132964021039,-2.64719600621,-0.0716427670774,2.10902733401,-0.819027864043,-0.551303151222,0.0357952864078,0.0140305667845,0.0303022898231,0.00404202886137,0.00295664524034,-0.546811576028,0.57397165608,0.818839495417,0.00625824768249,0.0,0.818839868449,-0.573880440727,-0.0119689803769,0.0,-0.00620930746271,0.0119945891306,-0.999908783006,0.0,0.281162921001,-0.238651366169,0.304927360337,1.0,-0.119154857143,-0.156603526531,3.382
-0.57601548598,-0.527789855192,-0.13272174367,-2.64670843757,-0.0715895244371,2.10915988794,-0.827607034822,-0.522925638466,0.0463935074646,0.020021719677,0.0307620319007,0.008852288995,0.00595352148095,-0.52360830375,0.573772742047,0.818979216309,0.00621535501397,0.0,0.818978966393,-0.57368162669,-0.0119829339584,0.0,-0.00624825918578,0.0119659562819,-0.999908883423,0.0,0.279306348042,-0.241090962308,0.304913590083,1.0,-0.116192571429,-0.152710236735,3.398
-0.584959950413,-0.527040739031,-0.132535293586,-2.64615213555,-0.0715599758918,2.10924922872,-0.836436510437,-0.52207867397,0.0490616319104,0.011932315922,0.0362870851274,0.00266610628805,0.0022374934245,-0.518956813587,0.573779396714,0.818974829343,0.00617897326451,0.0,0.8189738451,-0.573687938524,-0.0120306747343,0.0,-0.00630813880431,0.0119636011207,-0.999908535634,0.0,0.277311225539,-0.243669518312,0.30490487165,1.0,-0.113045142857,-0.148573616327,3.415
-0.593740274064,-0.52618882679,-0.132354967555,-2.64549377594,-0.0714870653563,2.10939451854,-0.845029704981,-0.511283532473,0.0549852732408,0.0138643770046,0.0442524561601,0.00546523735835,0.00900651401445,-0.494749109286,0.57387332946,0.818909107432,0.00616623060013,0.0,0.818908017131,-0.573782019457,-0.0120249960063,0.0,-0.00630942797629,0.0119506302555,-0.999908682608,0.0,0.275366625424,-0.246214024204,0.304909394634,1.0,-0.109897714286,-0.144436995918,3.432
-0.601978860472,-0.525212083829,-0.132079884497,-2.64479472716,-0.0713618844992,2.10954510611,-0.853376079017,-0.484822259697,0.0609483484928,0.0217695121893,0.0474665021139,0.00829818694847,0.00237454592316,-0.490677275405,0.573683484479,0.819042293952,0.00614225169413,0.0,0.819040433519,-0.573591456349,-0.0120977834858,0.0,-0.0063855761856,0.0119712815592,-0.999907952181,0.0,0.273565310925,-0.248576889322,0.30488932704,1.0,-0.106750285714,-0.14030037551,3.449
-0.610181194813,-0.524271764688,-0.131881507815,-2.64408275878,-0.0712289028702,2.10970421029,-0.861489099167,-0.48212971552,0.0577044137071,0.0108921212587,0.040529555734,0.0101958357205,0.0097284629752,-0.469769969327,0.573712839405,0.819021595727,0.00616040059354,0.0,0.819019845815,-0.573620488364,-0.0121150481086,0.0,-0.00638887704293,0.0119962799598,-0.999907631493,0.0,0.271742934411,-0.250938077617,0.304886988107,1.0,-0.103602857143,-0.136163755102,3.466
-0.618205460471,-0.523261641064,-0.131701710759,-2.64325440993,-0.0710707753592,2.10989388166,-0.869360232113,-0.465657189283,0.0576142314668,0.00831921414738,0.0509681870999,0.00425267872682,0.0167345049097,-0.453321560461,0.573824184523,0.818943357667,0.00619104925354,0.0,0.818942359537,-0.573732339885,-0.0120565678026,0.0,-0.00632176265712,0.0119886934907,-0.999908149054,0.0,0.269974418794,-0.253271717827,0.304913808961,1.0,-0.100455428571,-0.132027134694,3.483
-0.625368407709,-0.522191375271,-0.131468854782,-2.64243623448,-0.0708954952915,2.11008867085,-0.876544270245,-0.438054618429,0.0681200028074,0.0132336556749,0.0483996056403,0.0171974568184,0.0123715270275,-0.437700773315,0.573762179702,0.818986710465,0.00620291281028,0.0,0.818985782989,-0.573670137352,-0.01206680044,0.0,-0.00632424511562,0.0120038022376,-0.999907952091,0.0,0.268416051678,-0.255345568185,0.304915375564,1.0,-0.0974931428572,-0.128133844898,3.499
-0.632764600891,-0.521097701052,-0.131236295837,-2.64161423009,-0.0707238763779,2.1102834298,-0.883981375963,-0.444365707285,0.0614680384877,0.0169733967938,0.0513184853579,0.0124046184307,0.00936524467823,-0.42460745607,0.573682648891,0.81904232545,0.0062156564174,0.0,0.819041358343,-0.573590177124,-0.0120958228974,0.0,-0.00634187354941,0.0120302750155,-0.999907522285,0.0,0.266781939934,-0.257473208293,0.30490970368,1.0,-0.0943457142858,-0.12399722449,3.516
-0.640046959017,-0.519996295798,-0.131017426989,-2.64071796028,-0.0705455742412,2.11050948608,-0.891128651329,-0.422829473701,0.0681758329331,0.0117156263125,0.0518375523122,0.0048943732274,0.0219294590194,-0.413976257183,0.573763198583,0.818985830481,0.00622481522635,0.0,0.818985400646,-0.573671465,-0.0120295750218,0.0,-0.00628117355134,0.0120003912789,-0.999908264526,0.0,0.265180287044,-0.259585908805,0.304936882658,1.0,-0.0911982857143,-0.119860604082,3.533
-0.646635450188,-0.518882084606,-0.130871673177,-2.63986667453,-0.0703808188579,2.11073180234,-0.897614465242,-0.409130693494,0.0749420582408,0.0109293900018,0.0503723844693,0.0107844211438,0.01595420071,-0.39856128192,0.573860914267,0.818917111032,0.00625805371435,0.0,0.818917096535,-0.57376898186,-0.0120287721723,0.0,-0.00626001077313,0.0120279009484,-0.999908066706,0.0,0.263715386643,-0.261510830001,0.304936391819,1.0,-0.0882360000001,-0.115967314286,3.549
-0.653244992397,-0.517677918485,-0.13060207223,-2.63897495099,-0.0701736431217,2.11095839978,-0.904382944015,-0.382592915586,0.0721760907705,0.012643937053,0.0526264541288,0.0150252485341,0.0165298591974,-0.393350527966,0.57367678162,0.819046045731,0.0062667459209,0.0,0.819045853902,-0.573584293314,-0.0120704005934,0.0,-0.00629182798317,0.0120574929733,-0.999907510605,0.0,0.262270211293,-0.263411594851,0.304924193203,1.0,-0.0850885714286,-0.111830693878,3.566
-0.659753633898,-0.516541263215,-0.130370700534,-2.6380892048,-0.0699895299112,2.11118555752,-0.910794797215,-0.383278318195,0.0688756129386,0.0113432306181,0.0574977119984,0.00879767757416,0.0117978802103,-0.370769142853,0.573718475891,0.819016820573,0.00626936531965,0.0,0.819016767858,-0.573626168373,-0.0120540377643,0.0,-0.00627630851672,0.0120505715059,-0.999907691578,0.0,0.260828096519,-0.265288438863,0.304932802004,1.0,-0.0819411428572,-0.107694073469,3.583
