imanlab/proactive-slip-control/data_set/data_sample_2022-02-21-17-22-56/robot_state.csv
position_joint1,position_joint2,position_joint3,position_joint4,position_joint5,position_joint6,position_joint7,velocity_joint1,velocity_joint2,velocity_joint3,velocity_joint4,velocity_joint5,velocity_joint6,velocity_joint7,ee_T_00,ee_T_10,ee_T_20,ee_T_30,ee_T_01,ee_T_11,ee_T_21,ee_T_31,ee_T_02,ee_T_12,ee_T_22,ee_T_32,ee_T_03,ee_T_13,ee_T_23,ee_T_33,v_x,v_y,time
0.465060547892,0.547863360478,-0.124000961268,-1.35586655863,0.0794710632724,1.89409872813,0.159164435398,-0.000379120819023,0.00207613478756,0.000946180178125,-0.000200236341468,0.000105408919558,0.00561495049042,0.000860661569864,0.573823784443,0.818965008741,0.00182366815766,0.0,0.818920504608,-0.573766018839,-0.0119377409314,0.0,-0.00873040137501,0.00834375957009,-0.999927078225,0.0,0.66167473417,0.260864678476,0.30314039654,1.0,0.0,0.0,0.0
0.465054602431,0.547857005924,-0.124003519779,-1.35586962796,0.0794717861524,1.89409904209,0.159159702578,-0.00126267148482,-0.000757692755844,-0.000487205600267,-0.000168820875578,0.000235325128609,0.0057362761807,0.000132040970456,0.573826915933,0.818962807588,0.00182681155304,0.0,0.818918348193,-0.573769140204,-0.0119356459571,0.0,-0.00872685004823,0.00834516507901,-0.999927097497,0.0,0.661676360069,0.2608591224,0.303143550657,1.0,-0.00028,-0.000368,0.015
0.465054525241,0.547854830336,-0.12400663526,-1.35587276904,0.0794716658219,1.89409872387,0.159155038258,-0.0014315686313,-0.00256422254519,0.00270760709472,-0.000960750019976,0.000370117026578,0.00101132595245,-0.00150652315292,0.573825469554,0.81896382484,0.00182510163951,0.0,0.818919356346,-0.573767713867,-0.0119350419634,0.0,-0.00872735124926,0.00834340275505,-0.999927107829,0.0,0.661676376229,0.26085688264,0.303143672275,1.0,-0.00058,-0.000762285714286,0.03
0.465059458415,0.54781841854,-0.124002133885,-1.35589973911,0.0794682959628,1.89410110236,0.159158887257,0.000787151866042,-0.00251229279863,0.000927446830937,-0.00213043989061,-0.000172191847837,2.73903087262e-05,-0.000279761576788,0.573821969632,0.818966252589,0.00183607984157,0.0,0.818921910265,-0.573764151659,-0.0119310543888,0.0,-0.00871782195462,0.00835006790509,-0.999927135319,0.0,0.661669502343,0.260859647408,0.303156681768,1.0,-0.00094,-0.00123542857143,0.048
0.465057082649,0.547712503747,-0.124002395261,-1.35601468738,0.0794680623927,1.8941261661,0.159158032501,3.17860745583e-05,-0.0130539313714,0.00105491019805,-0.0109851460154,-0.0047297848549,-0.000577580714833,-0.000466270421289,0.573829600164,0.818960863921,0.00185478910356,0.0,0.818916682328,-0.573771622448,-0.0119306152635,0.0,-0.00870664926,0.00836521898184,-0.999927106028,0.0,0.661651645316,0.260847339661,0.303179187959,1.0,-0.00128,-0.00168228571429,0.065
0.465055299823,0.547587413309,-0.124001585895,-1.35619250567,0.0794674821411,1.89415334478,0.159153733663,0.00154590985414,-0.0122116501653,0.000541797228046,-0.0134039238767,-0.00018517960018,0.0018984745319,-0.00283272574794,0.573836491269,0.818956067781,0.00184044390319,0.0,0.818911549562,-0.573778430012,-0.0119555070442,0.0,-0.00873519620353,0.00836782808884,-0.999926835224,0.0,0.661619910082,0.260828910805,0.303185501033,1.0,-0.0016,-0.00210285714286,0.081
0.465038902627,0.547432348911,-0.124004504109,-1.35640602742,0.079461883714,1.89426357696,0.159149600144,-0.0010645413892,-0.0156707375977,0.00131050795436,-0.0091272166005,0.000401827109132,0.00177308578496,0.00146415683644,0.573859240272,0.818940022033,0.0018866817369,0.0,0.818896097132,-0.573800971382,-0.0119320678959,0.0,-0.00868923542695,0.00839248530983,-0.999927029027,0.0,0.661602298777,0.260799653675,0.303203375557,1.0,-0.00194,-0.00254971428571,0.098
0.465013412678,0.547244556046,-0.124003586199,-1.3566142031,0.0794610190508,1.89438824909,0.159141238112,-0.00198234200123,-0.0133901107317,-0.00061145021981,-0.0144366006189,0.000672829649327,0.00595518869213,0.00106874580416,0.573884294758,0.818922241142,0.00198143744551,0.0,0.818879505234,-0.573825584877,-0.011887007581,0.0,-0.00859770092003,0.00844448806,-0.999927382443,0.0,0.661590883608,0.260769423678,0.303248106318,1.0,-0.00228,-0.00299657142857,0.115
0.464987867881,0.547053374482,-0.124004454094,-1.35686128078,0.0794523029333,1.89450522439,0.159122737089,-0.00221817070257,-0.0128306419196,-0.000877753585955,-0.01173932988,-0.00305847613763,0.00297472945265,0.000648071090742,0.573902311712,0.818909480445,0.00203625899913,0.0,0.81886744181,-0.573843360231,-0.0118599141739,0.0,-0.00854386694381,0.00847402150976,-0.999927594027,0.0,0.661569947557,0.260731745759,0.303276091315,1.0,-0.0026,-0.00341714285714,0.131
0.464957921478,0.546820493799,-0.124004271827,-1.35722846965,0.0794457201972,1.89463903191,0.15909333386,-3.15890001868e-05,-0.0173566742379,-0.00031040526719,-0.0193395829549,0.000353874347825,0.00591366147391,5.99719275836e-05,0.573921428384,0.818896063365,0.00204410094628,0.0,0.818853980767,-0.573862297907,-0.0118729997645,0.0,-0.00854988491306,0.00848815260422,-0.999927422733,0.0,0.661526677416,0.260679530726,0.303277863972,1.0,-0.00294,-0.003864,0.148
0.46491190198,0.546528518336,-0.124004534159,-1.35766856878,0.0794362272839,1.89480191445,0.158948398934,-0.00270328544127,-0.0147177861221,5.15721460563e-05,-0.0255063519257,-7.83844544623e-05,0.00963127946968,-0.0072113212223,0.573862705111,0.818937158455,0.00206714454075,0.0,0.818895212425,-0.573803325977,-0.0118794388583,0.0,-0.00854254396031,0.00851010553211,-0.999927298881,0.0,0.661478465864,0.260610053562,0.303289304977,1.0,-0.0033,-0.00433714285714,0.166
0.464866365889,0.546260686793,-0.12400210755,-1.35811821912,0.0794186585363,1.89495690398,0.158915067913,-0.00501597335227,-0.0119669091781,0.00168243875696,-0.0302462033883,-2.09311949485e-05,0.00983960880362,-0.00146535791967,0.573891451988,0.818917057777,0.00204956533815,0.0,0.818874765955,-0.573832024614,-0.0119026093795,0.0,-0.00857130864963,0.00850930694638,-0.999927059522,0.0,0.661425518054,0.260539152447,0.303278296694,1.0,-0.00362,-0.00475771428571,0.182
0.464820350231,0.54593494015,-0.124009776915,-1.35866108508,0.079388423826,1.89514763233,0.158885872784,-0.000717681393721,-0.0202379911379,-0.000789953407384,-0.0337836121985,-0.00239323050734,0.0185100738032,-0.00179612292001,0.573932882649,0.818888081404,0.00202564789795,0.0,0.818845477837,-0.573873548088,-0.0119155835373,0.0,-0.00859522908012,0.00849760143412,-0.999926953736,0.0,0.661362933425,0.260452161307,0.303267326106,1.0,-0.00396,-0.00520457142857,0.199
0.464758877094,0.545580990473,-0.124007651657,-1.35926364343,0.0792964612314,1.89534369462,0.158778093228,-0.00209013355089,-0.019951034933,-0.00018764271272,-0.0393066928368,-0.00361526140092,0.0112403475254,-0.0129122133225,0.573902572808,0.818909504972,0.00195102337378,0.0,0.818866379304,-0.573843992193,-0.0119026203281,0.0,-0.00862775199003,0.00842873415472,-0.999927256522,0.0,0.661293617662,0.26034426846,0.303247913841,1.0,-0.0043,-0.00565142857143,0.216
0.464697821889,0.54519006503,-0.124010593888,-1.35995974389,0.0792761429588,1.8955638773,0.158704180765,-0.00199016992579,-0.0208614026987,-0.00241724082839,-0.0384593226608,-0.000638611140042,0.0108265755006,-0.000313268394656,0.573927401249,0.818892248855,0.00188938170898,0.0,0.818848077513,-0.573868840595,-0.0119635549931,0.0,-0.00871277290973,0.00841349059276,-0.999926647692,0.0,0.661205553541,0.260236338968,0.303212525125,1.0,-0.00464,-0.00609828571429,0.233
0.464633262287,0.544768370213,-0.124010580506,-1.36062513736,0.0792549785207,1.89578794641,0.158636713469,-0.00372659018827,-0.02717946571,6.18297471863e-05,-0.0389824841969,-0.00453233739813,0.0120290379166,-0.00551274019651,0.573956363827,0.818871963131,0.00188343314749,0.0,0.818827504298,-0.573897622439,-0.0119909993063,0.0,-0.00873836357709,0.00842467942537,-0.999926330176,0.0,0.661126348532,0.260131997114,0.303213728067,1.0,-0.00496,-0.00651885714286,0.249
0.464575961292,0.544315872641,-0.124014013897,-1.36138606184,0.0792230063612,1.89607379778,0.158513561785,0.000702476881372,-0.0290822818919,0.0023486778721,-0.0441957285353,0.00030160566179,0.0158024007497,-0.00604344251681,0.573938858651,0.818884263521,0.00186986350322,0.0,0.818839509452,-0.573880063997,-0.0120115281908,0.0,-0.00876314274703,0.00842516310469,-0.999926109248,0.0,0.661037722892,0.260021966332,0.303196685725,1.0,-0.0053,-0.00696571428571,0.266
0.46450932103,0.543827976474,-0.124016987136,-1.36215843948,0.0791865693946,1.89634161747,0.158443203747,0.000327562196873,-0.0250811127136,-0.00118800046624,-0.0510389461708,6.97719899858e-05,0.0157035510561,-0.00270090949848,0.573971115746,0.818861675711,0.00186044119119,0.0,0.818816689652,-0.573912253193,-0.012029184651,0.0,-0.00878267739852,0.00842792709681,-0.999925914567,0.0,0.660946272638,0.259903195237,0.303197599691,1.0,-0.00562,-0.00738628571429,0.282
0.464415533106,0.543267157507,-0.124015152514,-1.36306208704,0.0791318740032,1.89664995773,0.158309183195,-0.00721948872955,-0.0314038671494,0.000456475933646,-0.0521408835364,-0.000360785541912,0.0123425995,-0.00864758991257,0.573972463075,0.818860795769,0.00183185292261,0.0,0.818815380513,-0.573913671588,-0.012050605855,0.0,-0.0088166130104,0.00841682732201,-0.999925709417,0.0,0.660841448084,0.259754443251,0.303190900305,1.0,-0.00598,-0.00785942857143,0.3
0.464349491549,0.542696849063,-0.124023288015,-1.36396139592,0.0790777029902,1.89697834123,0.158198894803,-0.00287697022293,-0.0296341837713,0.000357027402133,-0.0496057337936,-0.00171649486794,0.0173097402132,-0.0129386793846,0.573977482237,0.818857284032,0.00182898174701,0.0,0.818811856924,-0.573918727193,-0.0120492506073,0.0,-0.0088170995071,0.00841375245779,-0.999925731005,0.0,0.660736783679,0.259620346533,0.303194975082,1.0,-0.00632,-0.00830628571429,0.317
0.464266826493,0.542124233799,-0.124021563532,-1.36483895387,0.0790321101875,1.89730612414,0.158083921217,-0.0037244820865,-0.0368969961273,-0.000553141186765,-0.0552892874028,-0.00142602939039,0.0235122014933,-0.00201788149419,0.573986423616,0.818850963021,0.00185277229411,0.0,0.818805766019,-0.573927486315,-0.0120459489916,0.0,-0.00880064942659,0.00843143414954,-0.999925726986,0.0,0.660638518929,0.259484949293,0.303210595585,1.0,-0.00664,-0.00872685714286,0.333
0.464179161144,0.541483843696,-0.124031446589,-1.36579550712,0.0789679681837,1.89766383054,0.157958452243,-0.00561264234695,-0.0400586550726,-0.00130993074648,-0.0525146721763,-0.00705815866252,0.0243184762977,-0.00129947875529,0.573998347718,0.818842536759,0.00188247510611,0.0,0.818797836662,-0.573939384788,-0.0120179934964,0.0,-0.00876058634549,0.00843983744729,-0.999926007898,0.0,0.660534634933,0.259330075441,0.303239405236,1.0,-0.00698,-0.00917371428571,0.35
0.464094958361,0.540802434719,-0.124026829234,-1.36685120006,0.078909113964,1.89805557303,0.157819205467,-0.0041439580617,-0.0479650440476,0.00081090645467,-0.0663314844799,-0.00389751890264,0.0111437878173,-0.00765225947713,0.573992852768,0.818846346051,0.00190090289674,0.0,0.818801808203,-0.573933735536,-0.012017195907,0.0,-0.00874941311116,0.00845441006362,-0.999925982621,0.0,0.660411039388,0.259177833926,0.303252427662,1.0,-0.00732,-0.00962057142857,0.367
0.464001266508,0.540133590602,-0.124030518025,-1.3678929734,0.078841966919,1.89844041489,0.157692203651,-0.00591616854199,-0.0414777869098,-0.000446618084096,-0.0645346794634,-0.00713535062531,0.0219185686141,-0.00839671634491,0.574007900564,0.818835782583,0.00190739441576,0.0,0.818791376858,-0.573948799388,-0.0120084871879,0.0,-0.0087384005105,0.00845488740233,-0.999926074885,0.0,0.660293580685,0.259014197988,0.303262751113,1.0,-0.00764,-0.0100411428571,0.383
0.463896673796,0.539341933838,-0.124032945831,-1.36911147739,0.0787801764942,1.89890681046,0.157549420882,-0.00825409475078,-0.0492605127681,0.000597951703245,-0.0680078657968,-0.00259877544585,0.0208394397138,-0.00451996712257,0.574029305757,0.81882068611,0.00194602980362,0.0,0.818776700142,-0.573969954793,-0.0119980498911,0.0,-0.00870745645092,0.00848075939132,-0.999926125732,0.0,0.660156792913,0.25883113854,0.303282681718,1.0,-0.008,-0.0105142857143,0.401
0.463794251477,0.538574368336,-0.124040716587,-1.37031050786,0.0787171107992,1.89936862297,0.157394238549,-0.00423797785332,-0.0432468071551,-0.000902788870079,-0.0715250643078,-0.0069812780944,0.0263028645405,-0.00954626946748,0.574041055357,0.818812382202,0.00197393503869,0.0,0.818768726814,-0.573981551759,-0.0119873739141,0.0,-0.00868257506081,0.00849760465624,-0.999926199079,0.0,0.660023435266,0.258647899462,0.303294502099,1.0,-0.00834,-0.0109611428571,0.418
0.463687382202,0.537841095066,-0.124044945144,-1.37145273996,0.0786433733828,1.8998114968,0.157255834907,-0.00873726143939,-0.0453085388452,-0.000441882524012,-0.0743456691907,-0.00359194205757,0.0342322491265,-0.00645383155815,0.574061601708,0.818797919485,0.00199784692195,0.0,0.81875465834,-0.574002075632,-0.0119655136536,0.0,-0.00865073595861,0.00850485215199,-0.999926413421,0.0,0.659899237346,0.258467077305,0.303307225079,1.0,-0.00866,-0.0113817142857,0.434
0.463577979569,0.53701424689,-0.124050328969,-1.37275217697,0.0785737370454,1.90029216175,0.157098680565,-0.0113359197089,-0.0494388506469,-0.00026393105789,-0.0743711101678,-0.00278250940913,0.0325984332528,-0.00320809139887,0.574079232537,0.818785534337,0.00200759333347,0.0,0.818742331969,-0.574019596195,-0.0119684554889,0.0,-0.00864736679665,0.00851470732369,-0.999926358692,0.0,0.659749038786,0.258269719819,0.303314403531,1.0,-0.009,-0.0118285714286,0.451
0.463461158537,0.536177687641,-0.124049275002,-1.37407151475,0.0784993529567,1.90078395875,0.156933000246,-0.00440620397793,-0.0485310629107,0.000502170035505,-0.0759913022216,-0.00864166331205,0.0361449182731,-0.00714365224565,0.574091162169,0.818777145352,0.00201759000668,0.0,0.81873400893,-0.574031418973,-0.0119707791536,0.0,-0.00864340674099,0.00852435219112,-0.999926310755,0.0,0.659597108065,0.258068973986,0.303319560696,1.0,-0.00934,-0.0122754285714,0.468
0.463357577882,0.535336072251,-0.124057767018,-1.37540166926,0.0784151072262,1.90126836826,0.156776563206,-0.0124265926173,-0.0521800831806,-6.3000890259e-05,-0.0839908758002,-0.0106655456381,0.0327873737697,-0.0124156624575,0.574104265694,0.818767977931,0.00200931024283,0.0,0.818724783927,-0.574044605228,-0.011969389817,0.0,-0.00864688587178,0.00851691382311,-0.999926344059,0.0,0.659440327749,0.257868128232,0.303322634516,1.0,-0.00966,-0.012696,0.484
0.463212368264,0.534270059362,-0.124053459952,-1.37712592837,0.0783308265826,1.90188657247,0.15656102266,-0.00488099288203,-0.0570609539229,0.00113410663457,-0.0864815715535,-0.00856183637043,0.0280275976756,-0.0162891729367,0.574115526673,0.818760137668,0.00198642908761,0.0,0.818716387036,-0.574055707802,-0.0120111964617,0.0,-0.00869413530172,0.00852230050901,-0.999925888456,0.0,0.659231973289,0.257612509165,0.303307490953,1.0,-0.01006,-0.0132217142857,0.504
0.463094799874,0.533458361735,-0.124055667576,-1.37844119483,0.0782413811854,1.90238038114,0.156400200242,-0.0099789093913,-0.0494584787858,0.000967601335221,-0.0865232114109,-0.00258056340998,0.0328582846599,-0.0167284460619,0.57412969558,0.818750240877,0.00197043607111,0.0,0.818706373758,-0.574070033328,-0.0120090509103,0.0,-0.00870141255369,0.00850812512163,-0.999925945871,0.0,0.659081492536,0.257407297991,0.303296807728,1.0,-0.01036,-0.013616,0.519
0.462972697857,0.532568550585,-0.124053191524,-1.37988700323,0.0781731821803,1.90292410105,0.156220763552,-0.0100315437011,-0.0604827866893,0.000586042131655,-0.0957516792057,-0.00674947343682,0.031143394531,-0.0115633438715,0.574141847827,0.818741721968,0.0019693105896,0.0,0.818697640814,-0.574081994027,-0.0120326206847,0.0,-0.00872123073973,0.00852086506088,-0.999925664734,0.0,0.658911221936,0.257194172035,0.303283145579,1.0,-0.01068,-0.0140365714286,0.535
0.462845162417,0.531588960058,-0.124056108471,-1.38145210484,0.0780756544675,1.90349370095,0.15601658621,-0.00766886579796,-0.0630045901777,0.000404878771211,-0.0904959713307,-0.00624644790204,0.0298321727479,-0.0180002102174,0.574140247189,0.818742883868,0.0019528378582,0.0,0.818698589738,-0.574080466476,-0.0120409332531,0.0,-0.00873751057167,0.00851213387976,-0.999925596975,0.0,0.658724526847,0.25695840979,0.303278170132,1.0,-0.01102,-0.0144834285714,0.552
0.462698174842,0.530514621162,-0.124061647973,-1.38319869881,0.0779658514843,1.90410589991,0.155802248093,-0.0117822487022,-0.0571189686093,-0.00128184029459,-0.0962899398312,-0.00928685643061,0.0300422803589,-0.0104170710666,0.574154349509,0.818733124097,0.00189772163489,0.0,0.818688095841,-0.57409479255,-0.0120713626775,0.0,-0.00879392167902,0.00848463085294,-0.999925336203,0.0,0.658512261715,0.256688953285,0.303257136356,1.0,-0.01138,-0.0149565714286,0.57
0.462578109766,0.529597490145,-0.124066284496,-1.38463879241,0.0778703142576,1.90464201408,0.155601044255,-0.00765844055964,-0.058901866725,-0.00174533703286,-0.0953535100468,-0.00526981598792,0.0365266894115,-0.0112665689949,0.574143698129,0.818740581952,0.00190269957214,0.0,0.818695701544,-0.574084200718,-0.0120592562115,0.0,-0.00878126175195,0.00848164121689,-0.999925472825,0.0,0.658343943333,0.256469232927,0.303264354906,1.0,-0.01168,-0.0153508571429,0.585
0.462437949412,0.528422166298,-0.124062139137,-1.38643404219,0.0777602772742,1.90532718121,0.1553589989,-0.00644702060743,-0.0641846577617,0.000785781180235,-0.0982376277669,-0.00655857644029,0.0377894430273,-0.0126337010789,0.574125132024,0.818753470858,0.00195796765403,0.0,0.818709311099,-0.574065396828,-0.0120304192082,0.0,-0.00872611400904,0.0085101362119,-0.999925713499,0.0,0.658132625255,0.256210405681,0.303296758856,1.0,-0.01204,-0.015824,0.603
0.462299987772,0.527300834725,-0.124064930709,-1.38817170443,0.0776516564834,1.90599235092,0.155108844286,-0.0101727648671,-0.0709474190324,-0.000529105945303,-0.104361017162,-0.00338911528591,0.0404943150064,-0.0122935313982,0.574100090996,0.818770937313,0.0019961541855,0.0,0.81872732653,-0.574040245427,-0.0120045126594,0.0,-0.00868324042285,0.00852626194672,-0.999925949355,0.0,0.657929774419,0.255954016634,0.303316762421,1.0,-0.01238,-0.0162708571429,0.62
0.462164166024,0.526278499122,-0.124062750741,-1.38975667344,0.077554843816,1.90658650958,0.154901946314,-0.00619421021124,-0.0683354739456,0.00124062740475,-0.102528374295,-0.00137905342763,0.0322347765008,-0.0047333089981,0.574099840417,0.818771048146,0.00202258560303,0.0,0.818727767668,-0.574039868789,-0.0119924305669,0.0,-0.00865817686766,0.0085409639104,-0.999926041219,0.0,0.65774312302,0.255715879418,0.303333197244,1.0,-0.01268,-0.0166651428571,0.635
0.46199908675,0.525019694622,-0.124070522201,-1.39171654722,0.0774418814248,1.90729182141,0.154636845708,-0.0118165112681,-0.0677951579397,0.00339001918981,-0.106428384242,-0.00553749842501,0.0325107924418,-0.0163815702266,0.574098414111,0.81877203433,0.00202820486799,0.0,0.818728753734,-0.574038346504,-0.0119979770703,0.0,-0.00865950744727,0.00854873384212,-0.9999259633,0.0,0.657506980063,0.255416285909,0.303347232667,1.0,-0.01304,-0.0171382857143,0.653
0.461837520972,0.52384417067,-0.124079307408,-1.39360973501,0.077311707362,1.90797190999,0.154373737006,-0.00637922465092,-0.0682272983762,-0.00121249469305,-0.111243934109,-0.0111618183618,0.0371939724251,-0.0202124883008,0.574087918925,0.818779498316,0.00198529159844,0.0,0.81873577383,-0.57402814852,-0.0120068421616,0.0,-0.00869151027943,0.00851857629154,-0.999925943011,0.0,0.657278895215,0.255120806082,0.303331947499,1.0,-0.01338,-0.0175851428571,0.67
0.46169369523,0.522680945062,-0.124074917203,-1.39543559724,0.0772005078211,1.90867284076,0.154125685354,-0.00619340381361,-0.0730520459831,-0.00109455988451,-0.117621019117,-0.00290542778986,0.0482132258735,-0.0190018792274,0.574067494338,0.818793740766,0.0020171583869,0.0,0.818750419992,-0.574007579712,-0.0119914593257,0.0,-0.00866083438286,0.00853562062216,-0.999926063831,0.0,0.657061347378,0.254856959923,0.303341143088,1.0,-0.0137,-0.0180057142857,0.686
0.461525923093,0.521445630384,-0.124083323853,-1.39742002961,0.0770869371183,1.90944585497,0.153850777421,-0.0115051251556,-0.0725465666132,-0.000958633904562,-0.116485657811,-0.0103168602418,0.040843421547,-0.0225647338108,0.574061542702,0.818797865865,0.00203640533222,0.0,0.818754792661,-0.574001544428,-0.0119817940793,0.0,-0.00864193399958,0.00854576835157,-0.999926140682,0.0,0.656831245483,0.254556570618,0.303331907715,1.0,-0.01404,-0.0184525714286,0.703
0.461350393125,0.520156951345,-0.124091400856,-1.39945256025,0.0769529850823,1.91019110976,0.153586772083,-0.0131180640364,-0.0812941748227,-0.0014386444974,-0.12154396635,-0.00753393881809,0.0491418634218,-0.0148025806471,0.57406693643,0.818794101682,0.00202939623973,0.0,0.818751026643,-0.574007055407,-0.0119751248254,0.0,-0.00864044016934,0.00853625782602,-0.999926234827,0.0,0.656587958589,0.254241203604,0.303334429321,1.0,-0.01438,-0.0188994285714,0.72
0.461157573935,0.518665953607,-0.124091117456,-1.40178262972,0.0768006953489,1.911016384,0.153275991159,-0.00914784251559,-0.0800465391195,-0.00160379961959,-0.125339522722,-0.00175382656487,0.0511036635718,-0.0226000829498,0.574052552571,0.818804226568,0.00201304328977,0.0,0.818760939325,-0.573992743074,-0.0119834066742,0.0,-0.00865675846316,0.0085274705849,-0.999926168664,0.0,0.656298345855,0.253889256588,0.30334361003,1.0,-0.01476,-0.0193988571429,0.739
0.461014036066,0.517557925911,-0.124098267316,-1.40353697064,0.0766856505867,1.91164175825,0.153029922182,-0.0104831304505,-0.0802144530938,-0.000554755435729,-0.126718261634,-0.00863061550894,0.0448783892014,-0.0225906545395,0.57403540602,0.818816305265,0.00198941429281,0.0,0.818772751125,-0.57397573898,-0.0119908289799,0.0,-0.00867657779454,0.00851220248191,-0.999926126975,0.0,0.656081363207,0.253621113358,0.303340573186,1.0,-0.01504,-0.0197668571429,0.753
0.460785944652,0.515958541764,-0.12410253409,-1.40607535897,0.0765273370969,1.91259326745,0.152681948308,-0.00758345151245,-0.0810286645898,0.00162220530447,-0.124391857255,-0.00947567595016,0.0523211255943,-0.00879244720961,0.574031791255,0.818818824861,0.00199539045514,0.0,0.818775373005,-0.573972123301,-0.0119848710824,0.0,-0.00866830645123,0.0085136374935,-0.999926186496,0.0,0.655779036853,0.253227732661,0.303336871149,1.0,-0.01544,-0.0202925714286,0.773
0.460655047771,0.514914295089,-0.124109580942,-1.40776542917,0.0764275779472,1.91322583457,0.152450514747,-0.0133032530654,-0.0749480901504,0.000666586342142,-0.132245343591,-0.00210846341806,0.0514864155462,-0.017263094882,0.574016765433,0.818829389419,0.00198265672595,0.0,0.818785749634,-0.573957131787,-0.0119939137844,0.0,-0.00868317631113,0.00850824247905,-0.999926103399,0.0,0.655571726224,0.252977724587,0.30331971379,1.0,-0.0157,-0.0206342857143,0.786
0.460444886189,0.513425073114,-0.124115151899,-1.41016195838,0.0762768268998,1.91404928848,0.152124042138,-0.0137354892912,-0.075549462564,-0.000308024845329,-0.133433114315,-0.0033915255828,0.0455575987308,-0.0125198541803,0.574004132655,0.818838405818,0.00191513801753,0.0,0.818793795615,-0.573944702858,-0.0120393199331,0.0,-0.00875924286332,0.00847888576729,-0.999925689319,0.0,0.655283649845,0.252626212523,0.303298210105,1.0,-0.01604,-0.0210811428571,0.803
0.460260234194,0.51206439914,-0.124120640384,-1.41231632031,0.0761492400927,1.91482057811,0.151813457823,-0.0114941690798,-0.0848308113692,-0.000322207924729,-0.131473993804,-0.00983462577761,0.0477698047611,-0.0246112167613,0.573986516349,0.818850819283,0.00188724931156,0.0,0.8188057297,-0.573927098961,-0.0120668549947,0.0,-0.0087979799646,0.00847166571721,-0.999925410432,0.0,0.654981399708,0.25225730076,0.303284259147,1.0,-0.0164,-0.0215542857143,0.821
0.460049394782,0.510532680806,-0.124119067545,-1.41477564877,0.0760018843057,1.9157636884,0.151462815847,-0.0133511597814,-0.0896972761302,0.00022276040971,-0.139522089395,-0.0125232394378,0.0551800036882,-0.0173237658782,0.573962806491,0.818867401063,0.00190345536943,0.0,0.818822518983,-0.573903317246,-0.0120586799559,0.0,-0.0087822296501,0.00847998917649,-0.999925478336,0.0,0.654702707236,0.251904562563,0.303272890643,1.0,-0.01674,-0.0220011428571,0.838
0.459847349596,0.50903676403,-0.124122703144,-1.41713506835,0.0758530046139,1.91662855305,0.151136138224,-0.0115219861691,-0.0944307934395,-0.000263365548703,-0.13964553046,-0.012735520768,0.0539023861842,-0.0210642198345,0.573945856975,0.818879287,0.00190091678627,0.0,0.818834371394,-0.573886380561,-0.0120599059439,0.0,-0.00878486606227,0.00847843228983,-0.99992546838,0.0,0.654410958409,0.251544544567,0.303271894466,1.0,-0.01708,-0.022448,0.855
0.459635255777,0.507528294562,-0.12413027145,-1.41951855423,0.07569898426,1.91747308089,0.150809789322,-0.0106124092897,-0.0897988747364,-0.000846705781035,-0.14314260143,-0.00876723994614,0.0508750640451,-0.0133464501005,0.573939417495,0.818883872406,0.00186961492945,0.0,0.818838553965,-0.573880084816,-0.0120754997468,0.0,-0.00881566694852,0.00846168098953,-0.999925339198,0.0,0.654112426307,0.251170884192,0.303266070807,1.0,-0.01742,-0.0228948571429,0.872
0.459449224677,0.506133800978,-0.124136607818,-1.42167208419,0.0755601578093,1.91828472203,0.150519019586,-0.0139571736132,-0.0923138862705,-0.000891085100309,-0.148259967387,-0.0129874012747,0.0463968211205,-0.0150931469052,0.573932033407,0.818888958066,0.00190847781307,0.0,0.818844225072,-0.57387260682,-0.0120462902496,0.0,-0.00876951977381,0.00847666109584,-0.999925618103,0.0,0.653850874623,0.250841001189,0.303286573733,1.0,-0.01772,-0.0232891428571,0.887
0.459220968069,0.504406690929,-0.124139876636,-1.4242939615,0.0754031435981,1.91929367211,0.150143027401,-0.0123703945528,-0.100564481745,-0.000344045405204,-0.148949900362,-0.00526268430326,0.0480159942822,-0.0252078790564,0.573906348386,0.818906725465,0.00200628301025,0.0,0.818863265777,-0.573846502739,-0.0119954223034,0.0,-0.00867200047302,0.008527284646,-0.999926038177,0.0,0.65353509695,0.250444582841,0.303333069653,1.0,-0.01808,-0.0237622857143,0.905
0.45900462099,0.502828051219,-0.124141509932,-1.42662215288,0.0752467694137,1.92017674971,0.149829558874,-0.0118051087757,-0.102229146414,0.000808086163319,-0.150629114659,-0.0101997669875,0.0556998404702,-0.0127795921358,0.573905989222,0.818906708453,0.00211312240172,0.0,0.818864767148,-0.573845823915,-0.0119252002195,0.0,-0.00855318466902,0.00857447039719,-0.999926658055,0.0,0.653238049419,0.250057171275,0.303405217067,1.0,-0.01842,-0.0242091428571,0.922
0.458768221699,0.501120057361,-0.124147952744,-1.42919327875,0.0750864728458,1.92107772345,0.149465250214,-0.010880109727,-0.0977796099489,-2.14732504499e-05,-0.153262199736,-0.0071883706668,0.0521412560857,-0.0210906242693,0.573892748557,0.8189159019,0.00214608259447,0.0,0.818874337668,-0.573832398064,-0.0119140648875,0.0,-0.00852528960926,0.008594932887,-0.999926720598,0.0,0.652931355364,0.249676190257,0.303450610428,1.0,-0.01874,-0.0246297142857,0.938
0.458527308102,0.499406554953,-0.124147696237,-1.43178644057,0.0749217360508,1.92202560802,0.149108197799,-0.0191710159111,-0.0957066621116,0.000264787770496,-0.154545540062,-0.0134998423041,0.0554007154363,-0.0116273230831,0.573884895612,0.818921254523,0.00220281197222,0.0,0.818880419057,-0.573824307545,-0.0118857165544,0.0,-0.00846960192313,0.00862503885375,-0.999926934605,0.0,0.65260927328,0.249271822765,0.303493845512,1.0,-0.01908,-0.0250765714286,0.955
0.458274744998,0.497723048396,-0.124145263014,-1.43442768142,0.074756659443,1.92300170983,0.148709420607,-0.0135576725714,-0.0962739728993,-9.95509022644e-05,-0.152218558753,-0.0130555617834,0.0565658634522,-0.0178356002058,0.573852927609,0.81894361661,0.00221747354316,0.0,0.818902926201,-0.573792238328,-0.0118832484967,0.0,-0.00845950426485,0.00863529876885,-0.999926931532,0.0,0.6522816646,0.248856993801,0.303495114983,1.0,-0.01942,-0.0255234285714,0.972
0.458024881768,0.496144292681,-0.124150517763,-1.43695422381,0.0746037777185,1.92389193281,0.148333836289,-0.0171453813308,-0.0982736210094,-0.00132337660564,-0.157748697576,-0.00816064703068,0.0568383643605,-0.0313507145451,0.573840114631,0.818952722379,0.00216984998973,0.0,0.818911284507,-0.573779489194,-0.0119227844029,0.0,-0.00851934535019,0.0086188525504,-0.999926565371,0.0,0.651961084199,0.248447982543,0.303470210587,1.0,-0.01974,-0.025944,0.988
0.457749276029,0.49446486958,-0.124151503214,-1.43969492376,0.0744273544163,1.92484043794,0.147956588718,-0.0189314128472,-0.0982823889145,-0.000918455047925,-0.163329488994,-0.0110181687465,0.0565482734274,-0.0191616584441,0.5738476315,0.818947712973,0.00207029937369,0.0,0.818904876696,-0.573787314606,-0.0119861346206,0.0,-0.00862827213783,0.00857375828761,-0.999926019058,0.0,0.651608367862,0.248000997507,0.303417886552,1.0,-0.0215251428571,-0.0282901877551,1.005
0.45744438371,0.492270279766,-0.12421163717,-1.44307906056,0.0742333592058,1.92609426742,0.14747422902,-0.0157586249814,-0.130776985269,-0.00223886656147,-0.204330702201,-0.0102761579582,0.0776460696782,-0.0309410008032,0.57386332656,0.818936588062,0.00211992070677,0.0,0.818894482005,-0.573802884687,-0.0119508898064,0.0,-0.00857076931941,0.0085943342163,-0.999926336953,0.0,0.651193964858,0.247448597245,0.303445290239,1.0,-0.0284782857143,-0.0374286040816,1.023
0.457059732346,0.489543639682,-0.124227978526,-1.44748361162,0.0739909464023,1.92772318971,0.146814671378,-0.0294760130647,-0.167396498269,-0.000248135613859,-0.267919352453,-0.018781130845,0.0932499730807,-0.0365098963441,0.573805136467,0.81897744121,0.00208879260719,0.0,0.81893461502,-0.57374451738,-0.0120029996245,0.0,-0.00863191880421,0.0085981329479,-0.999925778289,0.0,0.65063016966,0.246773843214,0.303387286613,1.0,-0.0354314285714,-0.0465670204082,1.041
0.4565857685,0.486527329607,-0.12426897285,-1.45225313555,0.0737039087891,1.92949928098,0.14611972228,-0.0247770580651,-0.193437862157,-0.00401567615784,-0.307227014846,-0.0195306224009,0.108880983603,-0.0422104416514,0.573813099942,0.818971827946,0.00210196756361,0.0,0.818929191915,-0.573752442854,-0.0119941590134,0.0,-0.00861703521205,0.00860393381533,-0.999925856765,0.0,0.650040659787,0.245990284207,0.303368401868,1.0,-0.041612,-0.0546900571429,1.057
0.456052208282,0.48299659203,-0.124362575748,-1.457720691,0.0733735387073,1.93147596325,0.14527693948,-0.0336263344826,-0.231263544911,-0.00476689552685,-0.360169098391,-0.0185971596169,0.125865067435,-0.0628841590013,0.573807381003,0.818975780059,0.00212322521608,0.0,0.818933575666,-0.573746790716,-0.0119651866367,0.0,-0.00858116961975,0.00860465849171,-0.999926158964,0.0,0.649358055674,0.24506842894,0.303390872349,1.0,-0.0477925714286,-0.0628130938775,1.073
0.45540194225,0.478962015538,-0.124445634458,-1.46404536245,0.0729976420706,1.93369273248,0.144337837405,-0.0441816469052,-0.262297662391,-0.00581954439863,-0.416683684641,-0.0279891157709,0.154399222082,-0.0649890542269,0.573837892875,0.818954568233,0.00205785606419,0.0,0.818911383672,-0.573777445058,-0.0120139975147,0.0,-0.00865833345233,0.00857945395682,-0.999925710356,0.0,0.64854865672,0.243991948412,0.303372160144,1.0,-0.0539731428571,-0.0709361306122,1.089
0.454625530427,0.474138872951,-0.124533748722,-1.47147341378,0.0725437542489,1.93640411872,0.143277238191,-0.0492960241055,-0.289571598741,-0.0070709694879,-0.460402650017,-0.0284746100333,0.164119391645,-0.0682748545372,0.573905437439,0.818907032099,0.00213741838949,0.0,0.818864979824,-0.573844743133,-0.011962545572,0.0,-0.00856983137981,0.00861579289646,-0.999926160325,0.0,0.647614497503,0.242732297131,0.303412719297,1.0,-0.06054,-0.0795668571429,1.106
0.453730372917,0.468781639044,-0.12458325005,-1.47961683017,0.072070254363,1.9393736855,0.142020602515,-0.0528543551381,-0.327227312427,-0.00403849832331,-0.489262154434,-0.0318972419313,0.188767511852,-0.0850840322561,0.573906971212,0.818905491067,0.00230911150856,0.0,0.818865349052,-0.573845247103,-0.0119129929188,0.0,-0.00843070496926,0.00872796912603,-0.999926370174,0.0,0.646579330649,0.241356573575,0.303497082261,1.0,-0.0671068571429,-0.0881975836735,1.123
0.45267895675,0.462536252818,-0.124616762985,-1.48915303015,0.0714534945003,1.94279135348,0.14049677953,-0.0643174987375,-0.361914605462,0.000468674609764,-0.551590483494,-0.0355335214209,0.187426021986,-0.0795986281243,0.573825619851,0.818962206145,0.0024103548023,0.0,0.818923305449,-0.573763427719,-0.0118699497397,0.0,-0.00833822732901,0.00878534613415,-0.999926643139,0.0,0.645337916784,0.239746172968,0.303561965178,1.0,-0.07406,-0.097336,1.141
0.451632411256,0.456525420749,-0.124678345254,-1.498517778,0.0708340711728,1.9459469355,0.139118473796,-0.0666234435652,-0.379665120878,-0.00890950688204,-0.60283075836,-0.0379637104146,0.20425203907,-0.090786524271,0.573863174582,0.818936405285,0.00222886937523,0.0,0.818894909901,-0.573801465198,-0.0119896612275,0.0,-0.00854000597453,0.00870580245404,-0.999925635886,0.0,0.644069905561,0.238124690379,0.303516535606,1.0,-0.0802405714286,-0.105459036735,1.157
0.450510250017,0.449971458753,-0.124765239021,-1.50828191576,0.0701551010827,1.94956825597,0.137529038045,-0.0764318347581,-0.430773784448,-0.00489802177862,-0.621094065185,-0.0498759537259,0.244690027996,-0.104213590868,0.573804217724,0.818976826329,0.0025346715566,0.0,0.818940047145,-0.573742098279,-0.0117452435443,0.0,-0.00816499170645,0.00881538405144,-0.999927808351,0.0,0.642819249258,0.236423269526,0.303684950215,1.0,-0.0864211428571,-0.113582073469,1.173
0.449200955218,0.442646157086,-0.124790068938,-1.51937932394,0.069446425059,1.95352654835,0.135853409299,-0.0741740853734,-0.444050758165,-0.00137903243889,-0.684396533486,-0.0514560867101,0.238010304734,-0.10890821796,0.573827575005,0.818959934282,0.00269946398899,0.0,0.818924975099,-0.573764510118,-0.0117012388238,0.0,-0.00803414382708,0.00892532381892,-0.999927892964,0.0,0.641330929993,0.234513146807,0.30376410862,1.0,-0.092988,-0.1222128,1.19
0.447679121089,0.434389913877,-0.124825171708,-1.53204153827,0.0685909386255,1.95784050954,0.133784657763,-0.0915359869817,-0.474122274626,-0.00168960946232,-0.694150668232,-0.0406685093824,0.255025397397,-0.120559022377,0.573726674628,0.819030900728,0.00261407212063,0.0,0.818994450581,-0.573663510492,-0.0117904007181,0.0,-0.00815726178326,0.00890554941617,-0.999927072476,0.0,0.639572862366,0.232295589677,0.303752173197,1.0,-0.0999411428571,-0.131351216327,1.208
0.446207062665,0.426616203179,-0.124858929666,-1.54384040739,0.0677486191281,1.96204525525,0.131864606705,-0.0951542363348,-0.490350634639,-0.00558231740544,-0.756356244006,-0.0601864395872,0.258284120859,-0.126740309271,0.573659566506,0.819077532237,0.00272852385294,0.0,0.819042885577,-0.573596348921,-0.0116930317832,0.0,-0.00801258256443,0.00894276976982,-0.999927910096,0.0,0.637963147983,0.230205140528,0.303796638454,1.0,-0.106121714286,-0.139474253061,1.224
0.444593403143,0.418469601496,-0.124937036395,-1.55632028786,0.0668615633345,1.96622758839,0.129815634161,-0.103452195698,-0.51685327139,-0.0117998928737,-0.807968508733,-0.0562287811769,0.264284688402,-0.12724001042,0.573639685583,0.819091969935,0.00256959413316,0.0,0.819055191307,-0.573576968396,-0.011781418456,0.0,-0.00817636265918,0.00886309923527,-0.99992729364,0.0,0.636199799759,0.227921886038,0.303754937273,1.0,-0.112302285714,-0.147597289796,1.24
0.442871233645,0.409874218008,-0.125042687898,-1.56919737286,0.065962019798,1.97080920163,0.127647975258,-0.112032813691,-0.531800669937,-0.00826375821575,-0.812419641353,-0.0525826096483,0.280531532293,-0.135562564579,0.573634767509,0.819094696635,0.00278896956023,0.0,0.819061126265,-0.573571672762,-0.0116255988404,0.0,-0.00792294496069,0.00895335661697,-0.99992852962,0.0,0.634426933174,0.225543024736,0.303845835304,1.0,-0.118482857143,-0.155720326531,1.256
0.4406912273,0.399797480347,-0.125138956934,-1.58450434646,0.0649409904938,1.9758939394,0.125103010533,-0.126178055745,-0.574272246354,-0.00948241163021,-0.836016925454,-0.0507642432562,0.291058958589,-0.146648150263,0.573739138792,0.81902196249,0.00267814832962,0.0,0.81898613729,-0.573675509585,-0.0117840370981,0.0,-0.00811515332428,0.00895450205365,-0.999926977924,0.0,0.632225005246,0.222641475705,0.303804363842,1.0,-0.125436,-0.164858742857,1.274
0.438508786849,0.389832253523,-0.125274063895,-1.59942141066,0.0637944039943,1.98104403779,0.122554505387,-0.123092543806,-0.588366376178,-0.00665642256436,-0.869794487041,-0.0648249234039,0.296917914299,-0.158149230337,0.57379735085,0.818980899286,0.00276290857558,0.0,0.818947062836,-0.573734404852,-0.0116313310543,0.0,-0.00794081514476,0.0089368748712,-0.999928535308,0.0,0.630109420014,0.219754717557,0.303854076156,1.0,-0.132002857143,-0.173489469388,1.291
0.436182491506,0.379390945223,-0.125383787182,-1.61497910202,0.0626362850691,1.98618989804,0.119762929554,-0.139470743947,-0.628542892975,-0.00195420760657,-0.915647163741,-0.0615049100668,0.313961117591,-0.154720105677,0.573758269562,0.819008326756,0.00274876595281,0.0,0.818974345599,-0.573695420261,-0.0116332679294,0.0,-0.00795094194331,0.00892602432754,-0.999928551754,0.0,0.627817701472,0.216736065083,0.303891040159,1.0,-0.138569714286,-0.182120195918,1.308
0.433802950893,0.369311202347,-0.125490006553,-1.63007918409,0.0615137438463,1.99121532515,0.117089179245,-0.154353266141,-0.636451385933,-0.00817185985321,-0.963533996882,-0.0745508565834,0.31967203327,-0.161517497281,0.573839354857,0.818951732701,0.00268350981733,0.0,0.818916847773,-0.573776656785,-0.0116743935239,0.0,-0.00802118394583,0.00889696914289,-0.9999282497,0.0,0.625431684874,0.213551943417,0.303851292139,1.0,-0.145136571429,-0.190750922449,1.325
0.431124964499,0.358145580726,-0.125635720132,-1.64650835598,0.060218363593,1.99665978636,0.11411667165,-0.162382882681,-0.656014544689,-0.0054698154954,-0.988450147574,-0.0787374909305,0.32066706823,-0.186356630649,0.573908817572,0.818902676574,0.00279683983683,0.0,0.818869890452,-0.573846434883,-0.0115377027452,0.0,-0.00784345010102,0.00891200885461,-0.999929525711,0.0,0.62312906152,0.210422061099,0.303941814729,1.0,-0.151317142857,-0.198873959184,1.341
0.428236219748,0.34669505849,-0.125763615416,-1.66353448886,0.0589850147937,2.00208037966,0.11087204852,-0.174677677558,-0.69529181965,-0.0048500323995,-0.99755230062,-0.075650097826,0.328849516787,-0.195018360554,0.573943335612,0.818878891645,0.00267492530378,0.0,0.818843633466,-0.573880364468,-0.0117123059541,0.0,-0.00805602811355,0.00891271709943,-0.999927829338,0.0,0.620500244808,0.206942173687,0.3038868926,1.0,-0.157884,-0.207504685714,1.358
0.425219668341,0.334859285669,-0.125865023061,-1.68094183139,0.0576151047596,2.00775998599,0.107586681134,-0.180991694577,-0.701171770987,-0.0033297832653,-1.04286730108,-0.0813379259676,0.337725654365,-0.202778303584,0.573972505003,0.818858299807,0.00271941895075,0.0,0.818823681537,-0.573909442674,-0.0116823398858,0.0,-0.00800563489549,0.00893223849869,-0.999928059875,0.0,0.617799452282,0.203376879083,0.303890652197,1.0,-0.164450857143,-0.216135412245,1.375
0.422822999231,0.325465718232,-0.125869025402,-1.6945244771,0.0564570751541,2.01210698615,0.104911450528,-0.179945171028,-0.727533032291,0.00226683965843,-1.05264212122,-0.0888170475197,0.342065305886,-0.213291471866,0.573830825633,0.818957345319,0.00279231142707,0.0,0.818924050247,-0.573767957009,-0.0115964795741,0.0,-0.00789503530809,0.00894128057919,-0.999928858429,0.0,0.615637496303,0.200612123256,0.303961301828,1.0,-0.169472571429,-0.222735379592,1.388
0.418879611324,0.310725850303,-0.125915496531,-1.71595015925,0.0547835715874,2.01881813484,0.100656306716,-0.197905720877,-0.753684972499,-0.00123570012637,-1.07333368986,-0.0805179393561,0.343126262461,-0.221304418424,0.5737646546,0.819003629137,0.00281487004463,0.0,0.818969701255,-0.573700669742,-0.0117011480141,0.0,-0.00796854327791,0.00901917207525,-0.999927575804,0.0,0.612159220817,0.196169173845,0.303964878182,1.0,-0.177198285714,-0.23288917551,1.408
0.415297968801,0.297840726473,-0.126027170377,-1.73465923369,0.0531595764678,2.02456336453,0.0968231213352,-0.222274816552,-0.772974751461,-0.00383388218343,-1.11637047992,-0.0893416534675,0.32764947718,-0.22129792574,0.573688126929,0.819057738268,0.002664827431,0.0,0.819022155585,-0.573625011032,-0.0117389216231,0.0,-0.00808639861807,0.00891720434874,-0.999927544187,0.0,0.60907535585,0.192163900743,0.303921865972,1.0,-0.183765142857,-0.241519902041,1.425
0.411713031873,0.285279164767,-0.126156301378,-1.75244718003,0.0517257652776,2.03006908028,0.09311327274,-0.222897807486,-0.782306354498,-0.0123303266251,-1.12878511169,-0.0959578475998,0.336371623996,-0.241251394156,0.573738883125,0.819021424658,0.00288909020294,0.0,0.818988420317,-0.573674600497,-0.0116690630327,0.0,-0.00789996706033,0.00906130107107,-0.999927739061,0.0,0.606132599417,0.188283678241,0.304040950224,1.0,-0.189945714286,-0.249642938775,1.441
0.40741694704,0.270931135444,-0.126311723617,-1.77287921806,0.0499608770221,2.03619332804,0.0886582689463,-0.241265806249,-0.79409760852,-0.0161867528116,-1.14422499436,-0.112440217189,0.356046028773,-0.253837780234,0.573712602963,0.819039907678,0.00286805397442,0.0,0.819006553836,-0.573648308328,-0.0116888847568,0.0,-0.00792856143084,0.00905518984184,-0.999927568102,0.0,0.602673440791,0.183722631952,0.304057618961,1.0,-0.196898857143,-0.258781355102,1.459
0.403325380455,0.257893804657,-0.126474418139,-1.79138201993,0.0483254005639,2.0416076092,0.0846242572496,-0.262310893739,-0.812756923934,-0.00990191954196,-1.14909260366,-0.107158167997,0.336157386529,-0.258160381366,0.573833131065,0.818955748019,0.00278700206408,0.0,0.818921274345,-0.573769027713,-0.0117386610228,0.0,-0.00801450275814,0.00901854152602,-0.999927214178,0.0,0.599291826359,0.179211980241,0.304049648309,1.0,-0.203465714286,-0.267412081633,1.476
0.398735544101,0.243730052798,-0.12662718186,-1.81133608954,0.0465157437804,2.04745610418,0.0801131199649,-0.275784635373,-0.840516406322,-0.0102569048908,-1.19854591195,-0.108668626613,0.34622403374,-0.271492204179,0.57389119654,0.818915176912,0.00275217328016,0.0,0.818880312491,-0.573827278842,-0.0117488200575,0.0,-0.0080421697883,0.00899641812533,-0.999927191332,0.0,0.596008596157,0.174854705152,0.304036557788,1.0,-0.209646285714,-0.275535118367,1.492
0.393730842796,0.228313850644,-0.126739448519,-1.83265732766,0.0446246801408,2.05367728258,0.0751038787482,-0.281881261151,-0.837970068174,-0.00134696270361,-1.21060279953,-0.108351137062,0.353741319914,-0.282396813633,0.573825030518,0.818960695213,0.00299348426934,0.0,0.818928663925,-0.573759941337,-0.0116670484387,0.0,-0.00783746363716,0.00914647059748,-0.999927455488,0.0,0.592213936288,0.169937270709,0.304140421679,1.0,-0.216599428571,-0.284673534694,1.51
0.388671241324,0.213468920563,-0.126846801085,-1.85311340167,0.0426547400931,2.05944194095,0.0701227903121,-0.297055021564,-0.868934811155,-0.01523863063,-1.20908919649,-0.111774953255,0.340741688468,-0.298720080984,0.573729393542,0.819027527035,0.00303971140226,0.0,0.818996425051,-0.573664550552,-0.0116011247179,0.0,-0.007758015179,0.00914559510151,-0.999928083059,0.0,0.588497554763,0.165086621949,0.304193357355,1.0,-0.223166285714,-0.293304261224,1.527
0.38360438377,0.199322532237,-0.127002848947,-1.87262152224,0.0408108574886,2.06471196522,0.0652441656121,-0.322304095922,-0.917832703284,-0.00740503298744,-1.2133356269,-0.122436201842,0.335010079148,-0.310250657299,0.573750678365,0.819013017705,0.00292964260577,0.0,0.818979971299,-0.573685601165,-0.0117211146224,0.0,-0.00791920414751,0.00912449175774,-0.999927012264,0.0,0.584875250501,0.160331389097,0.304161392416,1.0,-0.229346857143,-0.301427297959,1.543
0.377890372383,0.183991057804,-0.127242210556,-1.89358668203,0.038806395096,2.07037362374,0.0598363982113,-0.342004151528,-0.882616243177,-0.014014249034,-1.2422945297,-0.111655075443,0.317115417888,-0.331150563605,0.573868504377,0.818930524202,0.0029125789127,0.0,0.818896932091,-0.573803098954,-0.011771369664,0.0,-0.00796884054833,0.00914049622251,-0.999926471751,0.0,0.580953198747,0.155079651275,0.304142034348,1.0,-0.235913714286,-0.31005802449,1.56
0.371846128165,0.168326544576,-0.127437870624,-1.91469453089,0.0367139556347,2.07594187188,0.054223859062,-0.35593812965,-0.910965214308,-0.00847845477536,-1.25492416194,-0.127975353038,0.317670359196,-0.331974249261,0.573980179633,0.818852065479,0.00296566199529,0.0,0.818819067411,-0.573914461732,-0.0117589268089,0.0,-0.00792693781571,0.00917790821449,-0.999926462125,0.0,0.576931121375,0.149700767075,0.304178594841,1.0,-0.242480571429,-0.31868875102,1.577
0.366031584931,0.153318205933,-0.127575502733,-1.93467342957,0.0346749889532,2.08111485269,0.0486722072343,-0.365272415736,-0.942429245941,-0.01122472674,-1.24442292125,-0.135148060772,0.319252697966,-0.341599204246,0.573865348511,0.81893212312,0.00308000017929,0.0,0.818900683434,-0.573799338129,-0.0116934654702,0.0,-0.00780900278733,0.00923286665046,-0.999926884151,0.0,0.573031876597,0.144636061738,0.304246155014,1.0,-0.248661142857,-0.326811787755,1.593
0.359484881951,0.137129908434,-0.127749088223,-1.95614599254,0.0324550709886,2.08647095681,0.0425969717325,-0.396426780185,-0.974210217739,-0.00933120537597,-1.26953731271,-0.127589820699,0.326635117744,-0.366513078784,0.573862479528,0.818934073766,0.0030958547998,0.0,0.818902569911,-0.573796096228,-0.0117204030623,0.0,-0.00782199862504,0.00926128132236,-0.999926519803,0.0,0.568754959378,0.139067953022,0.30426263275,1.0,-0.255228,-0.335442514286,1.61
0.352546822887,0.120697026511,-0.127971182428,-1.9777295386,0.0301656989425,2.09167951402,0.0361886441823,-0.428772254674,-0.984224411054,-0.0146622082936,-1.25535012069,-0.135411938037,0.311844240848,-0.374241557699,0.573874602848,0.818925574587,0.00309683604617,0.0,0.818893860917,-0.573807951167,-0.0117484735716,0.0,-0.00784428735027,0.00927830926769,-0.999926187342,0.0,0.564382693269,0.133308099529,0.304280365161,1.0,-0.261794857143,-0.344073240816,1.627
0.347373271565,0.108900601181,-0.12817369398,-1.99309571696,0.028436719303,2.09535661714,0.0314845420445,-0.438230275728,-0.981103123128,-0.0099700640165,-1.29412332939,-0.147434935912,0.293891813161,-0.39520264421,0.573937412862,0.818881542034,0.00310050535872,0.0,0.818850380744,-0.573871338314,-0.0116828043522,0.0,-0.00778769162074,0.00924422647836,-0.9999269454,0.0,0.560977311769,0.12873612799,0.304299567621,1.0,-0.266816571429,-0.350673208163,1.64
0.337631319731,0.0870516196525,-0.128368631504,-2.0213355578,0.0253943643702,2.10178303514,0.0224859892479,-0.452338046075,-0.989147563043,-0.00877260438933,-1.29476219601,-0.124291252281,0.285279711402,-0.417640924049,0.573773066102,0.818996585027,0.00313196915949,0.0,0.818964809068,-0.573705691059,-0.0117969680823,0.0,-0.00786499946771,0.00933393477918,-0.999925506948,0.0,0.555279577066,0.121431394329,0.304289027955,1.0,-0.274928571429,-0.361334693878,1.661
0.329627699587,0.0697485644146,-0.128588513126,-2.04317339926,0.0228969970208,2.10661081366,0.0151461996969,-0.477562045765,-1.02785039744,-0.0133064136509,-1.30930068414,-0.154179672894,0.287859673338,-0.435555689128,0.573667602465,0.819069743444,0.00331423546432,0.0,0.819040654995,-0.573600009773,-0.0116696681772,0.0,-0.0076573740534,0.00940918530623,-0.99992641322,0.0,0.550597652653,0.11530166025,0.304400401122,1.0,-0.27998,-0.367973714286,1.678
0.321667019172,0.0534922489038,-0.128891584012,-2.06359186355,0.0205012291032,2.11089414932,0.00806218114214,-0.49890420438,-1.01082314676,-0.018788556167,-1.26949992846,-0.144160417496,0.263215388368,-0.456281497745,0.573788209366,0.818985076328,0.00335893522438,0.0,0.81895667931,-0.573720592908,-0.0116355312904,0.0,-0.00760238254292,0.00942733460691,-0.999926661882,0.0,0.546142897338,0.109334284862,0.304446504812,1.0,-0.27998,-0.367973714286,1.694
0.31300390277,0.0364197427554,-0.129048300125,-2.08496558967,0.0180473583978,2.11511625577,0.000392723350417,-0.511871370399,-1.00772548334,-0.00882048100733,-1.22977544356,-0.144567969252,0.255346911675,-0.457452445832,0.573822189794,0.818961424893,0.0033205327909,0.0,0.818931374001,-0.573753274391,-0.011803885089,0.0,-0.0077619094311,0.00949280243659,-0.999924816906,0.0,0.541339401811,0.103099821748,0.304416464022,1.0,-0.27998,-0.367973714286,1.711
0.30410729139,0.0195358041583,-0.129239036311,-2.10584877579,0.0154708662498,2.11907957888,-0.00748469483258,-0.526730921067,-0.99332075015,-0.00649770817766,-1.2119591789,-0.148413034133,0.223912254002,-0.474849710594,0.57380290539,0.818975247056,0.00324305041655,0.0,0.818944001508,-0.573734039005,-0.0118626211876,0.0,-0.00785469593091,0.00946286537769,-0.999924376106,0.0,0.536566234392,0.0968373003601,0.304397587938,1.0,-0.27998,-0.367973714286,1.728
0.29542017543,0.00360568909374,-0.129503420239,-2.12509983105,0.0130748082062,2.12260943308,-0.0150673130567,-0.551560061781,-0.982022136958,-0.0128717931301,-1.20127089081,-0.139005992127,0.207896830722,-0.477834715437,0.573942254152,0.818877051001,0.00337803842004,0.0,0.818847755627,-0.57387313374,-0.011778216205,0.0,-0.00770649383187,0.00952629854802,-0.999924926976,0.0,0.532111670797,0.0908560127416,0.304488273433,1.0,-0.27998,-0.367973714286,1.744
0.286094058704,-0.0131108391743,-0.129633251735,-2.14507917051,0.0106040314854,2.12618728441,-0.0233040767759,-0.549577548152,-0.967663568733,-0.00412171445887,-1.17667913915,-0.147695458134,0.19570986329,-0.478425526314,0.573887397248,0.818914425507,0.00362848133471,0.0,0.818888466526,-0.573817566263,-0.0116544815305,0.0,-0.00746208038656,0.00965986757018,-0.999925499382,0.0,0.527392716594,0.0846720316895,0.304589679739,1.0,-0.27998,-0.367973714286,1.761
0.27588650301,-0.030623591668,-0.129863518942,-2.16580558102,0.00783288229389,2.12954809988,-0.0322420088853,-0.576643038539,-0.979358806033,-0.0128656374752,-1.13756897379,-0.14764344366,0.185607847892,-0.498386086065,0.573885893368,0.81891529572,0.00366970431629,0.0,0.818890453651,-0.573816693475,-0.0115574265935,0.0,-0.00735895750248,0.0096379154777,-0.999926475462,0.0,0.522378924483,0.0780149522294,0.30466235793,1.0,-0.27998,-0.367973714286,1.779
0.266524227054,-0.0459350251421,-0.130105291439,-2.18406220816,0.00550920653216,2.1322497913,-0.0403751614963,-0.591542144059,-0.967721225801,-0.0168110621387,-1.1160118342,-0.144889040848,0.160498247478,-0.508652548589,0.57402035507,0.818821667121,0.00352935101477,0.0,0.818793578228,-0.573949754664,-0.0118111081096,0.0,-0.00764566828659,0.0096698125909,-0.999924016354,0.0,0.517842016756,0.0720574297051,0.304565550741,1.0,-0.27998,-0.367973714286,1.795
0.256481828444,-0.062159455327,-0.130254046718,-2.20284866023,0.00299801307016,2.13503592748,-0.0492121855232,-0.601945403787,-0.927312185782,-0.0101397382139,-1.11515304776,-0.145513514659,0.154310216435,-0.525258015699,0.573937190842,0.818879252426,0.00369023246461,0.0,0.818853547694,-0.573866443939,-0.0117012328905,0.0,-0.00746433997176,0.00973772016133,-0.999924727384,0.0,0.513119455004,0.065871662111,0.304630836715,1.0,-0.27998,-0.367973714286,1.812
0.246119705903,-0.0782537587788,-0.130505062818,-2.22127872374,0.000459296998885,2.13747770501,-0.0582923174135,-0.620161485659,-0.951408437039,-0.020612526931,-1.08050519929,-0.138444675532,0.130250335439,-0.548889700726,0.573951124429,0.818869172046,0.00375935363583,0.0,0.818844450593,-0.573880267962,-0.0116597889505,0.0,-0.00739056514352,0.0097706629568,-0.99992495403,0.0,0.508378342042,0.0595930550164,0.304678974206,1.0,-0.27998,-0.367973714286,1.829
0.23618551647,-0.093154861686,-0.130653190477,-2.23840308005,-0.00182836582817,2.13946538457,-0.0670295941872,-0.612311228684,-0.930649757093,-0.00940432034981,-1.05020720847,-0.140428338217,0.118657886478,-0.551073848748,0.573897291103,0.818907390965,0.00365119005635,0.0,0.818879755281,-0.573824840986,-0.0119056775885,0.0,-0.00765465119395,0.00982271085424,-0.999922457327,0.0,0.503840045388,0.0537623542651,0.304600113609,1.0,-0.27998,-0.367973714286,1.845
0.225362167508,-0.108877730178,-0.130856077294,-2.25613780391,-0.0044099174012,2.14144856287,-0.0764771885094,-0.648310775632,-0.900133685106,-0.00727245310051,-1.03821925862,-0.149468402322,0.113427153846,-0.55566096395,0.57386417486,0.818930856252,0.00359282498705,0.0,0.818902577391,-0.573792086765,-0.0119145629264,0.0,-0.00769581684077,0.00977970275414,-0.99992256291,0.0,0.499078451936,0.0475236328091,0.304582038487,1.0,-0.27998,-0.367973714286,1.862
0.213490762033,-0.125464521025,-0.13116047386,-2.27453733233,-0.00706442408964,2.14327782134,-0.0867810005888,-0.657944232037,-0.913415964339,-0.0124689919169,-1.02341585682,-0.14672208619,0.0941794738901,-0.572372620576,0.573993496619,0.818840072923,0.00362597781607,0.0,0.818811950927,-0.573920920362,-0.0119378847457,0.0,-0.00769434203026,0.00982145127041,-0.999922165069,0.0,0.494032906,0.0408237315929,0.304594963588,1.0,-0.27998,-0.367973714286,1.88
0.20351687528,-0.139089055602,-0.131332984394,-2.28958319227,-0.00922178257923,2.14452628881,-0.0956252301995,-0.674980210674,-0.897546278675,-0.0214480775832,-0.982659818919,-0.136502935586,0.0808562889793,-0.603697928697,0.573898682575,0.818906731555,0.00357967244388,0.0,0.818877073488,-0.57382511063,-0.0120759193232,0.0,-0.00783509653726,0.00986185575665,-0.999920674385,0.0,0.489516429964,0.03498788082,0.304567694936,1.0,-0.27998,-0.367973714286,1.896
0.191792140485,-0.154481972289,-0.131657180072,-2.30616040044,-0.0117315158793,2.14589575625,-0.105845546127,-0.700636793086,-0.90292315266,-0.0206686037781,-0.959752042805,-0.149765926325,0.0725994061783,-0.605863506855,0.574006850027,0.818830417687,0.00369189577814,0.0,0.818802613386,-0.573933338682,-0.0119812337589,0.0,-0.00769184466505,0.00990043477494,-0.99992140537,0.0,0.485067236996,0.0290211584903,0.304612635091,1.0,-0.27998,-0.367973714286,1.912
0.179296433898,-0.170650811461,-0.131817909656,-2.32329153059,-0.0142255019233,2.14698146476,-0.116910590168,-0.694799735096,-0.883161385016,-0.00717706581655,-0.930591077588,-0.130279403969,0.0543713520726,-0.61807371288,0.573895889894,0.818907359144,0.00387189929449,0.0,0.818881533037,-0.573821262318,-0.0119557795663,0.0,-0.00756904345793,0.0100321927344,-0.999921029227,0.0,0.480037431222,0.02252180433,0.304696329573,1.0,-0.27998,-0.367973714286,1.93
0.167058356715,-0.185644014676,-0.132115599699,-2.33923621358,-0.016731381015,2.14776439318,-0.127651265595,-0.742849057356,-0.892468882753,-0.0277821501308,-0.937871253312,-0.149199403876,0.0378637815685,-0.640885997468,0.573934673611,0.818880661013,0.00376833467568,0.0,0.818852922668,-0.57385968592,-0.0120705764556,0.0,-0.00772201494605,0.0100136270145,-0.999920045683,0.0,0.475235623974,0.0162215085234,0.304651150255,1.0,-0.27998,-0.367973714286,1.947
0.154612710771,-0.20048789816,-0.132311716013,-2.35457351289,-0.0191506526415,2.14849475643,-0.138701475432,-0.729972031127,-0.855724795763,-0.0142487369794,-0.901825375465,-0.13365883284,0.0413562112418,-0.655517973277,0.573830109077,0.818953098316,0.0039465905124,0.0,0.818928584612,-0.5737556813,-0.0118801676173,0.0,-0.00746506507608,0.0100493671435,-0.999921638441,0.0,0.47054766903,0.0100156044826,0.304735558264,1.0,-0.27998,-0.367973714286,1.964
0.142627295043,-0.214283937713,-0.132595586369,-2.36881425353,-0.0213169509352,2.14881343532,-0.149347626897,-0.762509339702,-0.870365539113,-0.0232521373592,-0.867747702144,-0.128559653928,0.0195699350613,-0.677132772257,0.573861358406,0.818931034806,0.00398101264122,0.0,0.8189057296,-0.573785135052,-0.0120321121698,0.0,-0.00756936992793,0.0101650340042,-0.999919685136,0.0,0.466046163628,0.00413561232009,0.304724534667,1.0,-0.27998,-0.367973714286,1.98
0.130376831278,-0.227895364445,-0.132824972636,-2.38271364045,-0.0236383062408,2.14909347577,-0.160116202082,-0.761455037298,-0.830721547048,-0.00247382554255,-0.879908212189,-0.129462610384,0.0157124951598,-0.679601591911,0.573880367019,0.818917813268,0.00396060129827,0.0,0.818892639122,-0.573804748836,-0.0119876063662,0.0,-0.00754439781155,0.010122954089,-0.999920300755,0.0,0.461577358785,-0.00174495903917,0.304719300213,1.0,-0.27998,-0.367973714286,1.996
0.117093482733,-0.242260859685,-0.13312443169,-2.39709059106,-0.0260038077644,2.14920651883,-0.171982375293,-0.791016650066,-0.849765462446,-0.0204729505554,-0.826040434462,-0.139182049901,0.0120993848345,-0.707994287408,0.573846132066,0.818941242265,0.00407496392002,0.0,0.818917903048,-0.57377058016,-0.0118969034365,0.0,-0.00740491303443,0.0101642486223,-0.99992092453,0.0,0.456841989217,-0.00800010299075,0.304764821045,1.0,-0.27998,-0.367973714286,2.013
0.103482145092,-0.256374972589,-0.133414232264,-2.41117906976,-0.0282829732054,2.14915912619,-0.184135249767,-0.803078853813,-0.812028228155,-0.0135372445886,-0.853335391944,-0.141208848043,-0.00495873160503,-0.727528904462,0.573860636525,0.818930673088,0.00415564967557,0.0,0.818907958847,-0.573784211903,-0.0119239258838,0.0,-0.00738056457459,0.0102459635576,-0.99992027057,0.0,0.452079463176,-0.0142563844906,0.304747983243,1.0,-0.27998,-0.367973714286,2.03
0.0904201293613,-0.269520280407,-0.133729094646,-2.42398596633,-0.0304677042413,2.1489870045,-0.195788075136,-0.828644838684,-0.801474217862,-0.0204784054951,-0.786851779944,-0.133091313211,-0.00717776702271,-0.739334971282,0.573910045199,0.818895281123,0.00430412300379,0.0,0.818875238471,-0.573834152503,-0.0117667387361,0.0,-0.00716601201697,0.0102777871903,-0.9999215046,0.0,0.447643842755,-0.0201642615752,0.304804896642,1.0,-0.27998,-0.367973714286,2.046
0.0754766841755,-0.284049554511,-0.134000120047,-2.43808692739,-0.0328689055403,2.14851731676,-0.209254557219,-0.831717715474,-0.811844396677,-0.0130934431526,-0.790975473035,-0.128059057819,-0.0319824581066,-0.753525346898,0.573822352903,0.818956523795,0.00434354044841,0.0,0.81893687494,-0.573746174774,-0.0117672722779,0.0,-0.00714493224408,0.0103096077986,-0.99992132787,0.0,0.442603188627,-0.0267389533403,0.304804817037,1.0,-0.27998,-0.367973714286,2.064
0.0609845620086,-0.297563564733,-0.134370058013,-2.45088981838,-0.0350512858087,2.14795851336,-0.222301225515,-0.85586936557,-0.790122116866,-0.0239988697712,-0.743631906856,-0.135968778556,-0.028064188615,-0.770934174485,0.573902688135,0.818899123035,0.00454727899111,0.0,0.818882464031,-0.573826358706,-0.011643326712,0.0,-0.00692549482544,0.0104060238719,-0.999921873042,0.0,0.437893416068,-0.0330251265421,0.304872688621,1.0,-0.27998,-0.367973714286,2.081
0.0471459689707,-0.310044418984,-0.134564513869,-2.46273741969,-0.0371161708651,2.14722237226,-0.234803514143,-0.870297668884,-0.795858570468,-0.0109339123356,-0.756071913737,-0.124162151318,-0.042922662738,-0.787156680501,0.573822054617,0.818955650716,0.0045429832658,0.0,0.818938680798,-0.573745368675,-0.0116805786356,0.0,-0.00695949426033,0.0104231990332,-0.999921458096,0.0,0.433401284718,-0.0388439850093,0.304856239354,1.0,-0.27998,-0.367973714286,2.097
0.0320667362002,-0.323060306777,-0.134945504374,-2.47484107177,-0.0392851359292,2.14630039892,-0.248415133717,-0.888225317209,-0.768896431333,-0.0233420812226,-0.70106612358,-0.130179444712,-0.049187437003,-0.799039723012,0.573920257239,0.818886374807,0.00462497421118,0.0,0.818870444288,-0.573843263101,-0.0116555466125,0.0,-0.00689069068596,0.0104768107083,-0.999921374319,0.0,0.428658126956,-0.0451393722752,0.304883150608,1.0,-0.27998,-0.367973714286,2.114
0.0168698735672,-0.335825206665,-0.135164467594,-2.48664609087,-0.0413237057707,2.1453170704,-0.262425709629,-0.898071047335,-0.74034498159,-0.0154276554747,-0.69817493178,-0.117698864372,-0.0731234192827,-0.832313184774,0.573714265697,0.819030111938,0.00472905660516,0.0,0.819015332767,-0.57363667863,-0.0116444203364,0.0,-0.00682450196038,0.010553943128,-0.99992101711,0.0,0.423917192759,-0.0512768227512,0.304882579804,1.0,-0.27998,-0.367973714286,2.131
0.00205912640978,-0.347541164993,-0.135536233408,-2.49738747256,-0.043349082454,2.14413741293,-0.275803425144,-0.927521829543,-0.720905957831,-0.0204898364031,-0.656672889974,-0.120874379331,-0.0722555246879,-0.845251129302,0.573857469128,0.818930102421,0.00467326180638,0.0,0.818913976873,-0.573779081279,-0.0117563289054,0.0,-0.00694632550702,0.0105736601384,-0.999919969934,0.0,0.4194082244,-0.0572329068138,0.304851149751,1.0,-0.27998,-0.367973714286,2.147
-0.0137842909181,-0.35981588251,-0.135845427709,-2.50824843444,-0.0454157713427,2.14294779896,-0.290408323979,-0.945712349314,-0.710598920006,-0.028052161811,-0.647484053545,-0.115900184802,-0.0638452002172,-0.859368721561,0.573754071665,0.819001556599,0.00484380416105,0.0,0.818989042364,-0.573677359305,-0.0114883771672,0.0,-0.00663034565733,0.010558728996,-0.999922272858,0.0,0.414731869138,-0.0634603287973,0.30495442662,1.0,-0.27998,-0.367973714286,2.164
-0.0309386710598,-0.372397328357,-0.13619082734,-2.51962219468,-0.047506091728,2.14137419989,-0.306221207861,-0.95875066354,-0.697252601044,-0.0200628869291,-0.624048076577,-0.125802730843,-0.0911022730656,-0.880809492754,0.57371718954,0.81902776865,0.00477990655653,0.0,0.819012799257,-0.573638124597,-0.011750896233,0.0,-0.00688250619806,0.0106567009849,-0.999919529679,0.0,0.409627799821,-0.0700503619317,0.304870347381,1.0,-0.27998,-0.367973714286,2.182
-0.0455384341251,-0.382692546561,-0.136536195694,-2.52851733049,-0.0492599560508,2.14007146843,-0.319581358826,-0.981666339158,-0.675221889939,-0.0205328838572,-0.586598303663,-0.121919052525,-0.0782684442499,-0.900229197947,0.573835085773,0.818944493922,0.00489460022637,0.0,0.818931769974,-0.573756828683,-0.0116019208663,0.0,-0.00669314777269,0.0106661382384,-0.999920714491,0.0,0.405470307105,-0.0756112209943,0.304947730525,1.0,-0.27998,-0.367973714286,2.197
-0.0632248388034,-0.394646539598,-0.136813390528,-2.53897803971,-0.0513083216638,2.13844143855,-0.336075175735,-0.991858537407,-0.668755448925,-0.0163026546423,-0.578861436913,-0.115571628609,-0.100802820164,-0.925458273172,0.573653304231,0.819071926249,0.00487986435999,0.0,0.819058924287,-0.573574984202,-0.0116173553637,0.0,-0.00671661082809,0.0106614360099,-0.999920607309,0.0,0.4004353497,-0.0821632780681,0.304928167108,1.0,-0.27998,-0.367973714286,2.215
-0.0813173384401,-0.406226062487,-0.137188375193,-2.54900168727,-0.0531765984466,2.13658968507,-0.352876092123,-1.01029790992,-0.637505516355,-0.0205380785309,-0.544392763509,-0.0957448814938,-0.106733405271,-0.950946669418,0.573712027294,0.819030512592,0.00492707644813,0.0,0.819016527774,-0.573631019638,-0.0118375438056,0.0,-0.00686911793597,0.010826906751,-0.999917793276,0.0,0.395355546188,-0.0887601620282,0.304890019801,1.0,-0.27998,-0.367973714286,2.233
-0.0966727799025,-0.415623770927,-0.137557829976,-2.55679240454,-0.0547785683329,2.13522884129,-0.367190114766,-1.03286219176,-0.616361324158,-0.0262946313213,-0.519022827407,-0.113853661254,-0.0969359689771,-0.954292947922,0.573769969856,0.818988711457,0.00512436326382,0.0,0.81897881076,-0.57369078283,-0.0115472993841,0.0,-0.00651743335184,0.0108224469169,-0.999920195668,0.0,0.391234099272,-0.0943319092954,0.304994501767,1.0,-0.27998,-0.367973714286,2.248
-0.114261117069,-0.425860937247,-0.137828896904,-2.56550396005,-0.0565705382558,2.13340404881,-0.38372848644,-1.03684087903,-0.591298589952,-0.019030832319,-0.512152013602,-0.105153551164,-0.113422076752,-0.975912519999,0.573626023935,0.819090051101,0.00504180055385,0.0,0.819078210858,-0.573545693381,-0.0117033757356,0.0,-0.00669454452548,0.0108431986321,-0.999918800762,0.0,0.386440752238,-0.100531304882,0.30494839345,1.0,-0.27998,-0.367973714286,2.265
-0.132155299475,-0.435688442893,-0.138194155061,-2.57380922567,-0.0582792135442,2.13160707092,-0.400472539787,-1.0435451663,-0.572541236996,-0.0106637070792,-0.472658612174,-0.0854959100252,-0.102915144955,-0.983887897884,0.573681465539,0.819051307083,0.00502785882747,0.0,0.81903823757,-0.573599485741,-0.0118634841661,0.0,-0.00683295653057,0.010924079938,-0.999916984145,0.0,0.381647283794,-0.106771957292,0.304893092181,1.0,-0.27998,-0.367973714286,2.282
-0.149317492345,-0.444641813381,-0.138568799326,-2.58097016563,-0.0597292570155,2.12998713083,-0.416623095319,-1.08364427942,-0.551336690044,-0.0255204459305,-0.439157270691,-0.0961487578279,-0.107113718202,-1.00944751414,0.573790383784,0.818973480994,0.00527065522242,0.0,0.818964516389,-0.573709134299,-0.0116489063234,0.0,-0.00651644777839,0.0110007218332,-0.999918256673,0.0,0.377238870051,-0.112707219771,0.305000789879,1.0,-0.27998,-0.367973714286,2.298
-0.168810302396,-0.454211711375,-0.138827982435,-2.5888692892,-0.0614642101939,2.12807496035,-0.43508473581,-1.09280038024,-0.512857360235,-0.0170484743849,-0.447179464654,-0.0949559445486,-0.112880325924,-1.02229815022,0.573661653109,0.819064133988,0.00519606273883,0.0,0.819053823124,-0.573580036247,-0.0117270519428,0.0,-0.00662497734106,0.0109834265201,-0.999917733625,0.0,0.372187648761,-0.11928006698,0.30496491051,1.0,-0.27998,-0.367973714286,2.316
-0.187451834108,-0.462800952367,-0.13917300892,-2.59586327667,-0.0629736719609,2.12625159916,-0.452828538617,-1.09837022385,-0.492200779487,-0.0186620169371,-0.399693469035,-0.0806080846294,-0.10133214895,-1.06065727682,0.573624751841,0.819089818321,0.0052211588956,0.0,0.819079038403,-0.573541740434,-0.0118384006107,0.0,-0.00670228988519,0.0110675545048,-0.99991629077,0.0,0.367418785521,-0.125503846341,0.304940021485,1.0,-0.27998,-0.367973714286,2.333
-0.206464374133,-0.470955049046,-0.139519338984,-2.60242779479,-0.0644997013266,2.12453206492,-0.470853631567,-1.12432882196,-0.472241409759,-0.0119270077013,-0.365678504396,-0.086315242248,-0.107988933871,-1.0531902464,0.57367134124,0.819057192157,0.00522064333781,0.0,0.81904643715,-0.573588375444,-0.0118345362995,0.0,-0.00669879071353,0.0110652966786,-0.999916339207,0.0,0.362649630968,-0.131790221129,0.304929745063,1.0,-0.278880571429,-0.36652875102,2.35
-0.225517691632,-0.478565325334,-0.139797752692,-2.60830270116,-0.0656826288995,2.12288364923,-0.488996045298,-1.12813100561,-0.433146044766,-0.0315301599156,-0.342316415406,-0.0679516534643,-0.0928654111573,-1.05293624548,0.573785482523,0.818975646135,0.00546424610506,0.0,0.818968639484,-0.573702657509,-0.0116779796699,0.0,-0.00642925221694,0.0111759165693,-0.999916878348,0.0,0.358013496427,-0.137991387043,0.305013517482,1.0,-0.272313714286,-0.35789802449,2.367
-0.244388040181,-0.485546118653,-0.139862106411,-2.61391118301,-0.0668548777346,2.12118765081,-0.507048033847,-1.10222285969,-0.402315122408,-0.00166091005346,-0.318419791382,-0.0648209020639,-0.100917109922,-1.05463036131,0.573685087638,0.819046124736,0.00544175316201,0.0,0.81903768635,-0.573600395364,-0.0118575578151,0.0,-0.00659062190202,0.0112597217984,-0.999914887562,0.0,0.353387366866,-0.143965411754,0.304964058464,1.0,-0.265746857143,-0.349267297959,2.384
-0.262212287866,-0.491528198893,-0.139951633983,-2.61871945495,-0.0678628387379,2.11970421196,-0.52396055681,-1.10106805318,-0.367417739441,0.000448708838889,-0.28576618719,-0.0479905866436,-0.0859839987485,-1.0521902721,0.573792260746,0.818971006846,0.00544778432236,0.0,0.818961421106,-0.573705443822,-0.0120416515202,0.0,-0.00673646964503,0.0113711505693,-0.999912654641,0.0,0.34909011576,-0.14957084937,0.304905403229,1.0,-0.259566285714,-0.341144261225,2.4
-0.280883616203,-0.497348658585,-0.139973104892,-2.62319796056,-0.0687582409387,2.11835175769,-0.541696589391,-1.09447516719,-0.334253663825,-0.00493014667574,-0.256510553069,-0.0539375717456,-0.0737200523938,-1.02813925011,0.573933507258,0.818871150545,0.005578077916,0.0,0.818863742192,-0.573846981556,-0.0119398653119,0.0,-0.00657637468593,0.011420594413,-0.999913156889,0.0,0.344713444867,-0.155389908024,0.304938169528,1.0,-0.252999428571,-0.332513534694,2.417
-0.299083241642,-0.502583621761,-0.13979503444,-2.62719385525,-0.0695177323034,2.11702565141,-0.559150628177,-1.07173187594,-0.294334179228,0.00569683548274,-0.219837934743,-0.0462026303994,-0.0737174247141,-1.0234281287,0.573860402591,0.818921974886,0.00563775563753,0.0,0.818915547082,-0.573774022052,-0.0118930764311,0.0,-0.00650482914909,0.0114420316656,-0.999913379803,0.0,0.340489056723,-0.160942731539,0.304969185007,1.0,-0.246432571429,-0.323882808163,2.434
-0.316101493008,-0.506956834378,-0.139709440574,-2.63052811507,-0.0701824272238,2.11594464493,-0.575401835884,-1.05475038397,-0.26010631314,0.0119714836379,-0.207257588571,-0.0369678743902,-0.0710075306907,-1.00741547308,0.573949324833,0.818859121344,0.00571478924629,0.0,0.818854069421,-0.573863306344,-0.0118180170139,0.0,-0.00639790635561,0.0114627420095,-0.999913832458,0.0,0.336588878928,-0.166139643999,0.304991176341,1.0,-0.240252,-0.315759771429,2.45
-0.334844998096,-0.511438841159,-0.139543700001,-2.63391928023,-0.0708306688347,2.11477690417,-0.593385492562,-1.03302305283,-0.24193265896,0.0188760990197,-0.183975008156,-0.0383300052241,-0.0710744468924,-0.99032737983,0.574001056682,0.818822292143,0.00579549126209,0.0,0.818818581134,-0.573915265442,-0.0117535604266,0.0,-0.00629807764079,0.0114922332979,-0.999914127709,0.0,0.332536113155,-0.171478977387,0.305018650192,1.0,-0.233685142857,-0.307129044898,2.467
-0.352045642496,-0.515024073954,-0.139261957562,-2.63680252031,-0.0712715599826,2.11370715959,-0.610050243464,-1.0078369274,-0.19837705028,0.0149758103723,-0.165380744144,-0.0274397996746,-0.0559538836742,-0.97471902523,0.573860190963,0.818920849563,0.00581981794953,0.0,0.818915843474,-0.573771418014,-0.0119978363816,0.0,-0.00648615804367,0.0116512461247,-0.999911085156,0.0,0.328360091014,-0.176857506362,0.304947277441,1.0,-0.226732,-0.297990628572,2.485
-0.367055152705,-0.517772705764,-0.139060846956,-2.63902957768,-0.0716695790809,2.11292767767,-0.62447667404,-0.984546931866,-0.180120885607,0.0231720050737,-0.141743009504,-0.0216849340227,-0.0488241050874,-0.952739261907,0.573894993244,0.818896393891,0.00582921122798,0.0,0.818890570143,-0.573804493405,-0.0121401968508,0.0,-0.00659686283671,0.0117409103446,-0.9999093121,0.0,0.324957269552,-0.1812953374,0.304887087772,1.0,-0.220937714286,-0.290375281633,2.5
-0.3846366671,-0.520657008134,-0.138846770103,-2.64126112565,-0.0720199680849,2.11212381063,-0.641391865059,-0.975519720552,-0.146218511467,0.00809345002852,-0.113474905371,-0.0243873059528,-0.0435984427681,-0.917787767959,0.574008191483,0.818816304242,0.0059332046837,0.0,0.818811518588,-0.573916646604,-0.0121707304475,0.0,-0.00656055390023,0.0118445033537,-0.999908329235,0.0,0.321019601843,-0.186486935573,0.304870767591,1.0,-0.213984571429,-0.281236865306,2.518
-0.400721771148,-0.523002207938,-0.138512945235,-2.643019424,-0.0722889786735,2.11142698126,-0.657075746853,-0.938596720475,-0.134126273007,0.0206370899909,-0.0960370049915,-0.0169599029769,-0.0422390426849,-0.913662514803,0.573881645704,0.818904683595,0.00597685623649,0.0,0.818900499362,-0.573789993422,-0.0121557597149,0.0,-0.00652507389049,0.0118706464934,-0.999908251372,0.0,0.317450271279,-0.191179573624,0.304881675247,1.0,-0.207417714286,-0.272606138776,2.535
-0.414758153453,-0.524804787259,-0.138334209527,-2.64430144258,-0.0725076801572,2.11089157634,-0.670552495156,-0.916351563086,-0.113608506629,0.0189970302221,-0.0798800890367,-0.00863155789355,-0.02959225917,-0.895113672414,0.574043908059,0.818790331958,0.00606059509657,0.0,0.818787691346,-0.573952688358,-0.0120737288685,0.0,-0.00640748098339,0.011893420157,-0.999908741208,0.0,0.314340304466,-0.195303589504,0.304918496468,1.0,-0.201623428571,-0.264990791837,2.55
-0.430984767033,-0.526541456021,-0.138004752153,-2.6455677381,-0.0726835619521,2.11038547521,-0.68632404779,-0.901245179682,-0.0932486073493,0.0191616523643,-0.0639532805527,-0.0126833821936,-0.0265545374239,-0.863282746771,0.574033583634,0.8187971011,0.0061236420165,0.0,0.818795756717,-0.573942988073,-0.0119875821665,0.0,-0.0063008974421,0.0118955158745,-0.999909393592,0.0,0.310775831638,-0.200021320851,0.304943878293,1.0,-0.194670285714,-0.25585237551,2.568
-0.445930010001,-0.5278241869,-0.137693279897,-2.64653269212,-0.0728159541061,2.10996749224,-0.700810359732,-0.8620103043,-0.0722355419367,0.0310122649965,-0.0456056378822,-0.00239746625894,-0.0209143675162,-0.852985690607,0.574076005943,0.818767075303,0.00616138795634,0.0,0.818766266216,-0.57398532681,-0.0119746738455,0.0,-0.00626804308169,0.0119193390296,-0.999909316385,0.0,0.307489514909,-0.204348282281,0.304946569326,1.0,-0.188103428571,-0.24722164898,2.585
-0.459559102003,-0.528737820969,-0.137398577225,-2.6472389741,-0.0728593348413,2.10965817424,-0.71401778781,-0.861473998177,-0.0539654733326,0.00965683367158,-0.0422631664219,0.00152514706788,-0.0232295717289,-0.820495884226,0.574153258547,0.818712397622,0.00622836909872,0.0,0.818712385417,-0.574062137854,-0.0119765917116,0.0,-0.00623003318284,0.0119758726522,-0.999908878429,0.0,0.304500877026,-0.208277969027,0.304940509484,1.0,-0.181922857143,-0.239098612245,2.601
-0.474368649167,-0.529455502545,-0.136970184593,-2.64778285878,-0.0728824256379,2.10936546838,-0.728456950389,-0.794045131236,-0.0300741833352,0.0223273337179,-0.0289446305783,0.000168720221522,-0.0105760845491,-0.805435829589,0.574112478212,0.818740919586,0.00623825753874,0.0,0.81874101006,-0.574021274283,-0.0119783979236,0.0,-0.00622643186752,0.0119846957377,-0.999908795148,0.0,0.301277926095,-0.212519348098,0.304941409715,1.0,-0.174969714286,-0.229960195918,2.619
-0.490270451521,-0.529900921919,-0.136569973411,-2.64816921065,-0.0728952801533,2.1091084507,-0.743878845448,-0.785512948725,-0.018168219941,0.0180926031253,-0.0187608892767,-0.00078628890688,-0.0188976251547,-0.762028461517,0.574195398683,0.818682658654,0.0062526354854,0.0,0.818682446833,-0.574103174434,-0.0120558390333,0.0,-0.00628036938789,0.0120415620559,-0.999907774619,0.0,0.297795759769,-0.217077650972,0.304916739797,1.0,-0.167244,-0.2198064,2.639
-0.499336744416,-0.530018707188,-0.13619877632,-2.64828051934,-0.0728903703506,2.10901115269,-0.752881712339,-0.745754627406,-0.0106011469606,0.0307315177661,-0.0100950956074,0.000500995403829,-0.00279631481322,-0.746338118159,0.57398137976,0.818833203505,0.00618929945848,0.0,0.818832120508,-0.573889391452,-0.0120694533661,0.0,-0.00633101775625,0.0119958696537,-0.999908004431,0.0,0.295840338818,-0.219643312423,0.304910416549,1.0,-0.162608571429,-0.213714122449,2.651
-0.514926173816,-0.530085322664,-0.135748633152,-2.64836569089,-0.0728932219274,2.1088963988,-0.768008746721,-0.736540258863,0.00185863511985,0.0214489728467,-0.00136423706478,-0.00165084602632,-0.0063549126337,-0.706360761394,0.574036747105,0.818794697593,0.00614841994112,0.0,0.818793027027,-0.573944822216,-0.0120858117367,0.0,-0.0063670673619,0.0119722139327,-0.999908059047,0.0,0.292423732768,-0.224088653553,0.30489782017,1.0,-0.154496571429,-0.203052636735,2.672
-0.52478542447,-0.530018537986,-0.135356649456,-2.64833242304,-0.0728489829841,2.10885794071,-0.777686598561,-0.688580519216,0.00132785498583,0.0233167638092,0.00537754431598,0.00712617981809,-0.00118188699684,-0.68422103374,0.573929834727,0.818870015697,0.00609828688346,0.0,0.818867765748,-0.573838289347,-0.0120808442867,0.0,-0.00639333372903,0.0119274771609,-0.999908426093,0.0,0.290277756805,-0.226864591382,0.304895425263,1.0,-0.149088571429,-0.195944979592,2.686
-0.53842123653,-0.529773417108,-0.134936760783,-2.6481575114,-0.0727978995662,2.10886029,-0.790939391987,-0.674742526861,0.00961037869914,0.00744396532168,0.0122067885913,-0.00307752682925,-0.000298954692627,-0.658147323972,0.573979391514,0.818835533225,0.00606420197637,0.0,0.818833072642,-0.573888417124,-0.0120511716694,0.0,-0.00638787529296,0.0118829221023,-0.999908991464,0.0,0.287280585307,-0.230734494209,0.304896519839,1.0,-0.141362857143,-0.185791183674,2.706
-0.546906905734,-0.529490810805,-0.134595229759,-2.64795752216,-0.0727287654799,2.10887460231,-0.799189728123,-0.63720118614,0.0244341387613,0.031677129513,0.0180243615163,0.0134154984268,-0.00167779928139,-0.620780380085,0.573972324415,0.818840803021,0.0060213798481,0.0,0.818837793266,-0.573881549755,-0.0120574488195,0.0,-0.00641769583537,0.0118514034889,-0.999909174583,0.0,0.285429793061,-0.233121025305,0.304894311218,1.0,-0.136341142857,-0.179191216327,2.719
-0.557418033782,-0.528983638387,-0.134111697568,-2.64761506533,-0.072565261321,2.10892647598,-0.809598750296,-0.616967325367,0.0313200474216,0.0293437309747,0.0238470836976,0.00801222890263,0.00593300770594,-0.596697442342,0.573804416421,0.818958686977,0.00599229677903,0.0,0.818955093595,-0.573713424386,-0.0120916605541,0.0,-0.00646483381382,0.0118458982676,-0.999908936163,0.0,0.283153515531,-0.236058476489,0.304881721293,1.0,-0.129774285714,-0.170560489796,2.736
-0.567092980219,-0.528427410392,-0.133770684409,-2.64721273552,-0.0723795960423,2.10903127806,-0.818897428965,-0.589296489794,0.0432267025062,0.0215678820091,0.0282861905941,0.00625154624356,0.00609535140185,-0.568655901898,0.573974080387,0.818839479534,0.00603396229939,0.0,0.818836515578,-0.57388303346,-0.0120735895542,0.0,-0.00642366687401,0.0118709846789,-0.999908903964,0.0,0.281042825852,-0.238789577861,0.304879210684,1.0,-0.123593714286,-0.162437453061,2.752
-0.576601965101,-0.527660746356,-0.133267392624,-2.64668179889,-0.0721358385551,2.10915423294,-0.828351377453,-0.546576348767,0.0452907671351,0.0288716908126,0.032211010037,0.0210314044371,0.00574780522355,-0.544009270945,0.573798231988,0.818962762882,0.00602734448841,0.0,0.818959438025,-0.573706744098,-0.0121143529764,0.0,-0.00646340024257,0.0118875738472,-0.999908450832,0.0,0.279012818081,-0.241442310983,0.30486381849,1.0,-0.117026857143,-0.153806726531,2.769
-0.586309465274,-0.52682765061,-0.132816497087,-2.64608586046,-0.0718754230951,2.10929020185,-0.83780061158,-0.528948313179,0.0407450315113,0.0234604487776,0.0302677800182,0.0173661009345,0.00942524398821,-0.506260569484,0.573836194772,0.818935960008,0.00605490515103,0.0,0.818932768278,-0.573744161481,-0.0121451681001,0.0,-0.00647227303009,0.0119281269378,-0.999907910495,0.0,0.276916552215,-0.244159420695,0.304853233229,1.0,-0.110073714286,-0.144668310204,2.787
-0.595513606215,-0.5259209616,-0.132394242259,-2.64541037079,-0.0716151291221,2.10944069728,-0.846703141448,-0.498630315814,0.0537933149309,0.0215739382712,0.033573492383,0.0159606364111,0.00568496010341,-0.479301775069,0.573933868352,0.818867310726,0.00608186519514,0.0,0.818864354638,-0.573841480493,-0.0121602166614,0.0,-0.00646770191096,0.0119596130661,-0.999907563971,0.0,0.274932108964,-0.246746814684,0.304852121484,1.0,-0.103120571429,-0.135529893878,2.805
-0.602497432741,-0.525102035288,-0.131928724667,-2.64483054419,-0.0713191271159,2.10957659511,-0.853686472181,-0.460599352551,0.0479645346642,0.0324540870847,0.0389168512826,0.0188212941107,0.00618171596735,-0.462063702179,0.573764104721,0.818986080864,0.00610724046029,0.0,0.818983106309,-0.573670992191,-0.0122070144261,0.0,-0.00649395323822,0.0120059046175,-0.999906839073,0.0,0.273465402205,-0.248673771931,0.304839250533,1.0,-0.0973262857144,-0.127914546939,2.82
-0.611497351577,-0.524087231781,-0.131404391624,-2.6440570273,-0.0710253037007,2.10976381907,-0.862347902998,-0.440769497046,0.0485794021508,0.0272067516379,0.0413256013647,0.0142128596591,0.0124318264719,-0.415179338074,0.573838821149,0.818933803911,0.00609746298955,0.0,0.81893078814,-0.573745896817,-0.0121965988414,0.0,-0.00648993766411,0.0119925129659,-0.999907025849,0.0,0.27154141252,-0.251179065793,0.304848181456,1.0,-0.0896005714286,-0.117760751021,2.84
-0.616969557454,-0.523408596017,-0.131077917001,-2.64352222832,-0.0707932860771,2.10991131549,-0.867618916917,-0.411294475667,0.0541431916909,0.0224919489047,0.0434458773137,0.0158619436259,0.00817966455893,-0.397596132102,0.573901009315,0.818890030015,0.00612349164015,0.0,0.818887625665,-0.573808458724,-0.0121513838817,0.0,-0.00643705974492,0.0119883738176,-0.999907417292,0.0,0.270385956185,-0.25270758246,0.304863226356,1.0,-0.0845788571429,-0.111160783674,2.853
-0.624689454534,-0.522331163966,-0.130544507174,-2.64271055956,-0.0704167834402,2.11011360738,-0.875184489572,-0.367394949559,0.0495568571722,0.0321057549816,0.0348001420949,0.0164320509135,0.0129852714727,-0.36395110438,0.573855158385,0.818921872089,0.00616210270961,0.0,0.818919916048,-0.573762341024,-0.0121529429813,0.0,-0.0064168518856,0.0120205290854,-0.999907161137,0.0,0.268770994317,-0.254845408395,0.304867428924,1.0,-0.0768531428572,-0.101006987755,2.873
-0.629672256253,-0.521657865114,-0.130138244954,-2.64219648705,-0.0701749104702,2.11026051936,-0.880065213361,-0.350120794164,0.0430339752872,0.0311520508878,0.0341818696977,0.012298361048,0.0109357271847,-0.346487150088,0.573782379401,0.818972919274,0.0061551187284,0.0,0.818971043769,-0.57368993052,-0.0121260047005,0.0,-0.00639986305026,0.011998782853,-0.999907531206,0.0,0.267733811082,-0.256206386156,0.30487649952,1.0,-0.0714451428572,-0.0938993306123,2.887
-0.636061205278,-0.520769840909,-0.129618674392,-2.64149552054,-0.0698486867932,2.11043311357,-0.886142594018,-0.319288949426,0.0511759742937,0.0267684408216,0.0391009924474,0.0178397626909,0.0175216160539,-0.300911710285,0.573846678143,0.818927866483,0.00615519155288,0.0,0.818926223774,-0.573754650539,-0.0120908188785,0.0,-0.00637006137323,0.0119791546603,-0.99990795685,0.0,0.266401802163,-0.257951987396,0.304896413147,1.0,-0.0641057142858,-0.0842532244899,2.906
-0.640272800256,-0.520107355243,-0.129264240565,-2.6409851031,-0.0695848368261,2.11057876628,-0.890239936869,-0.288260560049,0.0470751306705,0.0264611198045,0.038499311787,0.0158388571301,0.0055904342243,-0.287040040068,0.573822125859,0.818944827163,0.00618747427762,0.0,0.818943733026,-0.573730203561,-0.0120649310366,0.0,-0.00633069387114,0.0119905485139,-0.999908070305,0.0,0.265480123822,-0.2591871151,0.304905124889,1.0,-0.0583114285715,-0.0766378775511,2.921
-0.645803024469,-0.519240519088,-0.128815340375,-2.640354362,-0.0692306529372,2.11076490327,-0.895484676914,-0.266317881467,0.0419323282434,0.0211996378919,0.0334760841416,0.0109468640449,0.00576903528438,-0.261103795984,0.573948099806,0.818856095383,0.0062466538402,0.0,0.818855712153,-0.573855776339,-0.0120672092022,0.0,-0.00629675065248,0.0120412918026,-0.99990767485,0.0,0.264330826211,-0.260679106504,0.304898927745,1.0,-0.0505857142858,-0.0664840816328,2.941
-0.649233117051,-0.518693912031,-0.128405226382,-2.63997830157,-0.0689920019248,2.11087303836,-0.898701155239,-0.234143840985,0.0367268784118,0.0324509197242,0.0274792945279,0.0163561318676,0.00797501953571,-0.221672587035,0.573936514107,0.818864330789,0.00623156784044,0.0,0.818863587969,-0.573843948989,-0.0120951812052,0.0,-0.00632848680836,0.0120449020406,-0.99990743101,0.0,0.263692488027,-0.261505592752,0.304889735397,1.0,-0.0455640000001,-0.0598841142858,2.954
-0.653301740467,-0.518043736998,-0.127791970325,-2.63949084999,-0.0686794698344,2.11101986224,-0.902657633659,-0.206386661662,0.0306649797515,0.0267147292168,0.0268063507098,0.0208183080171,0.00639000204769,-0.191690070714,0.573752757512,0.818993516073,0.00617582214041,0.0,0.818992204916,-0.573660777683,-0.0120758989733,0.0,-0.00634737823469,0.0119867613096,-0.99990800994,0.0,0.262908767621,-0.262547152055,0.304899292897,1.0,-0.0382245714287,-0.0502380081634,2.973
-0.656098457864,-0.517559631378,-0.127367910936,-2.63914806106,-0.0684500833142,2.1111242886,-0.905207180767,-0.178675252295,0.0261550194717,0.028169431631,0.0224008837539,0.0196299421211,0.0100210572652,-0.15871902679,0.573784770583,0.818971267748,0.00615195515154,0.0,0.818969594086,-0.573692791483,-0.0120885013387,0.0,-0.00637092560264,0.0119746927306,-0.999908004789,0.0,0.26233366961,-0.263308645729,0.304894876799,1.0,-0.0320440000001,-0.0421149714287,2.989
-0.658986541881,-0.517048855351,-0.126945483537,-2.63879762187,-0.0681490070931,2.11124268091,-0.907896616874,-0.14740722504,0.0259468937224,0.0170584543245,0.017143962147,0.0194127098374,0.00682743174281,-0.145725856137,0.573780653319,0.818973942656,0.00617980812774,0.0,0.818972536333,-0.573688372329,-0.0120988878932,0.0,-0.00636351237083,0.0120034320395,-0.999907707406,0.0,0.261816937903,-0.263995486228,0.304887255905,1.0,-0.0254771428572,-0.0334842448981,3.006
-0.661002047317,-0.516722837915,-0.126568032003,-2.63859382766,-0.0679156759366,2.11128728798,-0.909686266102,-0.12436918683,0.0188910772475,0.0252663325306,0.0116931175733,0.0163436950702,0.00537979348626,-0.10939653439,0.573808266686,0.818954515229,0.00619047411664,0.0,0.8189528911,-0.573715259781,-0.0121535902028,0.0,-0.00640179136115,0.0120437690833,-0.99990697802,0.0,0.261434931654,-0.264471293872,0.304872593543,1.0,-0.0199646153846,-0.0262392087912,3.021
-0.662874967877,-0.516429421072,-0.126235100626,-2.63839613132,-0.0676899617804,2.11133200443,-0.911291991743,-0.104370838654,0.0142154264347,0.0160050195184,0.0122277985626,0.0136159516317,0.00432908487179,-0.0949349491082,0.573897587886,0.818891745308,0.00621409577367,0.0,0.818890231345,-0.573804081251,-0.0121824565817,0.0,-0.00641056303932,0.0120803773572,-0.999906480209,0.0,0.261078667755,-0.264918690978,0.304866067726,1.0,-0.0196246153846,-0.0257923516484,3.038
-0.664394819927,-0.516174653936,-0.126001449967,-2.63819516789,-0.0675339148347,2.11140875858,-0.912816661239,-0.0948314177584,0.01590382009,0.011496338852,0.00883987727986,0.00941378711055,0.00860918804166,-0.0879047634073,0.573804811652,0.818956708914,0.00622044614201,0.0,0.818955513519,-0.573711741275,-0.0121429692194,0.0,-0.00637594587746,0.012062195065,-0.99990692105,0.0,0.260793550567,-0.265308020397,0.304875566769,1.0,-0.0193046153846,-0.0253717802198,3.054
-0.666049708148,-0.515880020925,-0.125811682591,-2.63794623151,-0.067450439077,2.11148361154,-0.914389766463,-0.0895058322484,0.0236900194719,0.00927671953018,0.0146916084345,0.003631710431,0.00159065305488,-0.0871888456454,0.573798628543,0.818961260909,0.00619143866158,0.0,0.818959945331,-0.573706177291,-0.0121068981053,0.0,-0.00636313644166,0.0120176931744,-0.999907538498,0.0,0.260482041546,-0.265734525955,0.304887928582,1.0,-0.0189646153846,-0.0249249230769,3.071
-0.667531120493,-0.515610913914,-0.125715225458,-2.63773607587,-0.0673904570127,2.11150679359,-0.915882126786,-0.0833900835243,0.0130738404464,0.00334253102906,0.0121800006243,0.00475519904356,0.000143702374477,-0.0895257942091,0.573744637829,0.818999165168,0.00618101261337,0.0,0.818997570856,-0.573651975453,-0.0121299996481,0.0,-0.00638883249415,0.0120219880313,-0.999907323017,0.0,0.260143237276,-0.266172742347,0.304891308067,1.0,-0.0186046153846,-0.0244517802198,3.089
-0.668958734828,-0.515367528537,-0.125687297015,-2.63753401179,-0.0673523290233,2.11156705114,-0.917227054647,-0.0874541166045,0.0116014377544,0.0015133523459,0.0101142234778,0.000427081043272,0.00112341252287,-0.081620092775,0.57381926084,0.818946828429,0.00618829513282,0.0,0.818945504228,-0.573726880208,-0.0121026829035,0.0,-0.0063611849915,0.0120128603205,-0.999907608988,0.0,0.259822131986,-0.266591232343,0.30489907331,1.0,-0.0182646153846,-0.0240049230769,3.106
-0.670280381892,-0.515141607505,-0.125638026312,-2.63732768391,-0.0673082336713,2.11164311498,-0.918561250523,-0.0835535389347,0.0108843234505,0.00463517796039,0.0117610459484,0.00634947559544,0.00550576871923,-0.08605714563,0.573803357186,0.818957988257,0.00618608536609,0.0,0.818957044948,-0.573711765175,-0.0120381033056,0.0,-0.00630979239371,0.0119738728163,-0.99990840225,0.0,0.259537780564,-0.266980353068,0.304917061843,1.0,-0.0179446153846,-0.0235843516484,3.122
-0.671629598464,-0.514874687281,-0.125597813619,-2.63710410275,-0.0672694619807,2.11168662269,-0.919945827606,-0.0736038904722,0.0215835664865,0.00144948296658,0.00843685339263,0.00373460622313,0.00296474273643,-0.0788748674978,0.573776822039,0.818976554944,0.00618933308932,0.0,0.818975610684,-0.573685139576,-0.0120439460298,0.0,-0.00631310255694,0.0119796805703,-0.999908311791,0.0,0.259221756577,-0.267398733143,0.304919915617,1.0,-0.0175846153846,-0.0231112087912,3.14
-0.672939378711,-0.514595427882,-0.125570421434,-2.63690057594,-0.0672372254581,2.11172861,-0.921256287261,-0.0749112180321,0.0165377611011,0.00125294033152,0.0141142052402,-5.51185020483e-05,0.00257120127317,-0.0789164677786,0.573778385948,0.818975419058,0.00619465089507,0.0,0.81897446381,-0.573686527769,-0.01205580292,0.0,-0.00631974016032,0.0119908508971,-0.99990813597,0.0,0.258945503899,-0.267762667244,0.304918282056,1.0,-0.0172646153846,-0.0226906373626,3.156
-0.674249367703,-0.51434404451,-0.125544942776,-2.63669450193,-0.0672042193526,2.11178214965,-0.922598316686,-0.0749180780516,0.0123271256092,0.00555639428985,0.0124206317833,0.00180000634467,0.00557955740646,-0.0758157490421,0.573758794596,0.81898910894,0.00619935171877,0.0,0.818988309321,-0.573667099479,-0.0120397289009,0.0,-0.00630416409994,0.0119853276792,-0.999908300513,0.0,0.258652112681,-0.268150306079,0.30492420231,1.0,-0.0169246153846,-0.0222437802198,3.173
-0.675501307141,-0.514082283586,-0.125533415797,-2.63648224038,-0.0671741199039,2.11184924799,-0.923805925954,-0.0748998486408,0.0115175526105,0.0011602184879,0.014288370025,3.26492562995e-05,0.00226197142588,-0.0767236823235,0.573810744195,0.818952672921,0.00620453569813,0.0,0.818952095358,-0.573719309896,-0.0120152345905,0.0,-0.0062803674612,0.0119759187863,-0.999908562997,0.0,0.258373586946,-0.268529312217,0.304929903956,1.0,-0.0165846153846,-0.0217969230769,3.19
-0.676669197194,-0.513836483302,-0.125518323156,-2.63629003778,-0.0671400929735,2.11190852003,-0.925003686009,-0.0706915209212,0.00644524375247,-0.000534321565231,0.0095383454966,0.00347644682472,-0.000317773872247,-0.0743082326836,0.573800067456,0.818960077009,0.00621464028663,0.0,0.818959702276,-0.573708728266,-0.0120020024034,0.0,-0.00626388803633,0.0119765203327,-0.999908659162,0.0,0.258112958873,-0.268879072704,0.304931792192,1.0,-0.0162646153846,-0.0213763516484,3.206
-0.677894602681,-0.513586802673,-0.125493380839,-2.63610075771,-0.0671153519024,2.11192824575,-0.926238767685,-0.0686856940988,0.0181078582642,0.000595474961262,0.0160947431982,-7.30986248595e-05,5.08095641085e-05,-0.0698467128923,0.573806114367,0.818955795705,0.00622050616606,0.0,0.818955294561,-0.573714361228,-0.0120334589104,0.0,-0.0062861982243,0.0119994197853,-0.999908244609,0.0,0.257814233642,-0.269257710424,0.304928802185,1.0,-0.0159046153846,-0.0209032087912,3.224
-0.679153624621,-0.513325098718,-0.125472928252,-2.63589917855,-0.0670826861385,2.1119736576,-0.927481517756,-0.071615037258,0.0165755660096,-0.000996040523358,0.0089905842599,0.00424810256879,0.00413120763463,-0.064332327579,0.573804007207,0.818957238723,0.00622489812409,0.0,0.818956810722,-0.573712265949,-0.0120301692644,0.0,-0.00628101472305,0.0120011131047,-0.999908256861,0.0,0.257533066042,-0.26962808851,0.304932333536,1.0,-0.0155446153846,-0.0204300659341,3.242
-0.680220230626,-0.513086464409,-0.125458320727,-2.63571767251,-0.0670548845883,2.11204870174,-0.928635024872,-0.0707948959526,0.0130813248168,0.000711951750207,0.0108139907147,0.00230623869253,0.00374976748317,-0.0687108005795,0.573763905594,0.818985307847,0.00622840826001,0.0,0.81898503245,-0.573672362238,-0.0120118412083,0.0,-0.00626457640281,0.0119931649716,-0.999908455348,0.0,0.257326604666,-0.269911653684,0.304930868364,1.0,-0.0152646153846,-0.0200620659341,3.256
-0.681370687953,-0.512847749978,-0.125433487784,-2.63552413003,-0.0670233602793,2.1120837183,-0.929778882053,-0.0671680704132,0.0104424467019,0.00550307256516,0.0130181800573,0.00035602592766,-0.000341349348322,-0.0635336035922,0.573769047449,0.818981646443,0.00623617519053,0.0,0.818981401955,-0.573677335037,-0.0120218724597,0.0,-0.00626826121972,0.0120053209498,-0.999908286379,0.0,0.257051250372,-0.270270205841,0.304931080373,1.0,-0.0149046153846,-0.0195889230769,3.274
-0.682372072226,-0.512637548071,-0.125402208398,-2.63536286014,-0.0670070254831,2.11211161059,-0.930730509096,-0.0667390443638,0.0138428961251,0.00599810021899,0.00993164568526,0.0015377232146,0.000608991161202,-0.0691461980148,0.573802906403,0.818957986001,0.00622805513138,0.0,0.818957541702,-0.573711041997,-0.0120387740962,0.0,-0.00628626721884,0.0120086274892,-0.999908133635,0.0,0.256824532707,-0.270562149731,0.304929690779,1.0,-0.0146046153846,-0.0191946373626,3.289
-0.68366378482,-0.512359154108,-0.125391871841,-2.63513973896,-0.0669577708484,2.11216604965,-0.932088238694,-0.0610898663039,0.0179345624489,-0.00126500116953,0.0168430020614,0.0037970851908,0.000409287458351,-0.0644663848869,0.573774059474,0.818978008976,0.00625271058338,0.0,0.818977916232,-0.57368215239,-0.0120294494705,0.0,-0.00626490672957,0.0120232494251,-0.999908091985,0.0,0.256533412212,-0.270948641037,0.304932935838,1.0,-0.0142046153846,-0.0186689230769,3.309
-0.684468200732,-0.512181322912,-0.125383297374,-2.63499136402,-0.0669479053925,2.11220326087,-0.932873017479,-0.0591920753591,0.0102919947935,6.83414535067e-05,0.0134300489097,0.000323269728356,0.000634642207194,-0.0592984203493,0.573795880254,0.818962765264,0.00624690447404,0.0,0.818962673414,-0.573704140469,-0.0120185550007,0.0,-0.00625899458098,0.0120124102107,-0.999908259286,0.0,0.256352880642,-0.271193659048,0.304937894676,1.0,-0.0139446153846,-0.0183272087912,3.322
-0.685758999736,-0.511913856538,-0.125349333521,-2.63477225161,-0.0669035427247,2.11227993668,-0.934154513884,-0.058601913159,0.0139260524096,-0.000412894147798,0.00994188516323,0.00478584017651,0.00967581155758,-0.0630423749554,0.573809535412,0.818953162116,0.00625157839011,0.0,0.818953354995,-0.573718203126,-0.0119821803491,0.0,-0.00622632004119,0.0119954713859,-0.999908666632,0.0,0.256068778118,-0.271577264655,0.304945774946,1.0,-0.0135246153846,-0.0177752087912,3.343
-0.68653308216,-0.511754029792,-0.12531737135,-2.63464101695,-0.0668935154257,2.11229353282,-0.934953444946,-0.0594435185902,0.0107963460708,-0.000837288591005,0.00941350825038,0.000568616048039,0.000160212250971,-0.0608216075753,0.573777478683,0.818975711045,0.00623991787718,0.0,0.818975685013,-0.573686073913,-0.0119942843324,0.0,-0.00624339375582,0.0119926221359,-0.999908594347,0.0,0.255894265801,-0.271801565206,0.304948126419,1.0,-0.0132646153846,-0.0174334945055,3.356
-0.687672704663,-0.511496056166,-0.125268034357,-2.63444464145,-0.0668586620909,2.11234143202,-0.936100296755,-0.0522276644677,0.0070196827559,0.0012700060418,0.00583145991542,0.00214618345586,0.00101055160329,-0.0519614263982,0.573761503118,0.818986939293,0.00623519918344,0.0,0.818986807727,-0.573670037316,-0.0120018314156,0.0,-0.00625251660905,0.0119929656097,-0.999908533223,0.0,0.255643860448,-0.272133654804,0.304947061191,1.0,-0.0128646153846,-0.0169077802198,3.376
-0.688450762031,-0.511323719499,-0.125254170815,-2.63430107485,-0.0668372783945,2.11238919168,-0.936873689849,-0.0535946829627,0.0153254700296,0.000610374798125,0.0125970004535,0.000314289561443,0.0014424503107,-0.0478881377049,0.573771939537,0.818979627666,0.00623520402584,0.0,0.818979642126,-0.573680751726,-0.0119786386216,0.0,-0.00623336447715,0.0119797425238,-0.99990881131,0.0,0.255472374418,-0.272369488386,0.304952854532,1.0,-0.0125846153846,-0.0165397802198,3.39
-0.689559099145,-0.511082292379,-0.125228946645,-2.63409511613,-0.0668169366076,2.11243688959,-0.938007565459,-0.0559069300988,0.016009929223,0.00202403920816,0.0101593512644,0.00207692569198,0.000122837034485,-0.0551471292743,0.573752281584,0.818993462969,0.00622686853523,0.0,0.818993482026,-0.573661350523,-0.0119615306701,0.0,-0.00622442145186,0.0119629505809,-0.999909068061,0.0,0.255225349011,-0.272702557097,0.304961643168,1.0,-0.0121846153846,-0.0160140659341,3.41
-0.690261817319,-0.510939093464,-0.125223269093,-2.63396694937,-0.0667964716749,2.11246169096,-0.938738088757,-0.0519229986165,0.00972352870753,0.0011623967173,0.0111940744255,0.00109433710767,0.00027414245157,-0.0541883846603,0.573737632033,0.819003696513,0.00623069724314,0.0,0.819003909913,-0.573646966196,-0.0119373624316,0.0,-0.00620264280735,0.011952109573,-0.999909333039,0.0,0.255057741555,-0.272927440076,0.304973264527,1.0,-0.0119046153846,-0.0156460659341,3.424
-0.691379623087,-0.510704595062,-0.12520890716,-2.63376815717,-0.0667736918864,2.11253164897,-0.939829107526,-0.0513486690179,0.0116521266205,0.00106133460504,0.0068379556798,0.00065031016246,0.00447541836941,-0.0534371652078,0.573772316788,0.818979407399,0.00622941780643,0.0,0.818979792667,-0.573682012548,-0.0119077531143,0.0,-0.00617861860235,0.0119343361686,-0.999909694069,0.0,0.2548151115,-0.273252481205,0.304978781804,1.0,-0.0115046153846,-0.0151203516484,3.444
-0.692058166455,-0.510543875002,-0.125204996643,-2.63363811376,-0.0667526074103,2.11255886376,-0.940492738504,-0.0530192276212,0.0121456266001,-0.00199075394207,0.0126407338637,0.000585200565188,0.000146114809394,-0.0542773406679,0.57379743939,0.818961745562,0.00623736774405,0.0,0.818962233791,-0.573707096278,-0.0119068973822,0.0,-0.00617299017666,0.0119405457421,-0.999909654699,0.0,0.254661692928,-0.273458198902,0.304980710018,1.0,-0.0112446153846,-0.0147786373626,3.457
-0.692912335005,-0.510351850922,-0.125188717684,-2.63347898143,-0.066733423675,2.11258798359,-0.941346534578,-0.0501038262355,0.00888211982841,0.00199429747787,0.00689400633712,0.00270059227287,0.000401994702451,-0.0466857778855,0.573802500707,0.818958204398,0.00623670847998,0.0,0.818958688381,-0.573712167601,-0.011906400513,0.0,-0.00617288769141,0.0119397588627,-0.999909664728,0.0,0.254468702268,-0.273713568765,0.304984690109,1.0,-0.0109046153846,-0.0143317802198,3.474
-0.693814711079,-0.510148834619,-0.12516318156,-2.63331368152,-0.0667119364241,2.11262472633,-0.942263464623,-0.0474620054318,0.00760448521391,0.00122440193234,0.00724276264418,-0.000252525047386,2.02552025973e-05,-0.0445638067073,0.573790046558,0.81896696016,0.00623277927625,0.0,0.818967417015,-0.573699778602,-0.0119029744197,0.0,-0.00617251752657,0.0119344811669,-0.999909730019,0.0,0.25426687676,-0.273981455115,0.304988253803,1.0,-0.0105246153846,-0.0138323516484,3.493
-0.694505177172,-0.509975286063,-0.125143725458,-2.63318539161,-0.0666895643286,2.11265860712,-0.942916361891,-0.0476078087088,0.0159254977283,0.000191564684593,0.0105093901523,0.00138766954716,0.000437463726121,-0.0464453813736,0.573823159227,0.818943746575,0.00623448336252,0.0,0.818944180563,-0.57373279017,-0.0119105628439,0.0,-0.00617727235599,0.0119404805591,-0.999909629032,0.0,0.254113680162,-0.274186783559,0.304985536319,1.0,-0.0102246153846,-0.0134380659341,3.508
-0.69532397663,-0.509779631899,-0.125119830746,-2.63302762554,-0.0666695475641,2.11270020728,-0.943713602472,-0.0467717684081,0.00985848045409,0.00156759282535,0.00843955271551,0.000161558911901,0.00430867123942,-0.0407250083358,0.573840426079,0.818931691114,0.00622877096667,0.0,0.818932103805,-0.573750179257,-0.0119032794349,0.0,-0.00617433317381,0.0119317531778,-0.999909751366,0.0,0.253933046767,-0.274432521852,0.304988759828,1.0,-0.00986461538462,-0.0129649230769,3.526
-0.695992339201,-0.509622967199,-0.125101718803,-2.63290831302,-0.0666484423475,2.11272955151,-0.944400187805,-0.0448148511727,0.0106979910351,0.00226965980228,0.00666272243349,0.000921756085241,-0.000219341602224,-0.0452019614763,0.573827770892,0.818940537876,0.00623150692991,0.0,0.818940957433,-0.573737460031,-0.0119072287344,0.0,-0.0061761822569,0.0119361645818,-0.999909687296,0.0,0.253782858334,-0.274629704244,0.304987787712,1.0,-0.00956461538462,-0.0125706373626,3.541
-0.69672741608,-0.509440806095,-0.125073776348,-2.63277441283,-0.0666291602138,2.11275612624,-0.945152078419,-0.0434108537596,0.0117335094494,0.000528099990982,0.0118968686645,-0.000192749935038,0.00113051655456,-0.0454889192215,0.573809265959,0.818953526575,0.00622852397579,0.0,0.818953796848,-0.573718758037,-0.011925275931,0.0,-0.00619294497268,0.0119439371449,-0.999909490803,0.0,0.253618503297,-0.274844862821,0.304983969176,1.0,-0.00922461538462,-0.0121237802198,3.558
-0.697470486215,-0.509257903231,-0.125057553699,-2.63263527997,-0.0666051902307,2.11278612824,-0.945872573062,-0.0413184111144,0.010860836996,0.000135083101662,0.00975894911597,-0.000274238382658,0.00237861672675,-0.0460591748703,0.573833613557,0.818936430032,0.00623333140703,0.0,0.818936702408,-0.573742963927,-0.0119346426509,0.0,-0.00619750293074,0.011953433127,-0.999909349088,0.0,0.253451147355,-0.275065862298,0.304982261898,1.0,-0.00886461538462,-0.0116506373626,3.576
